/* XPM */
static char *mat[] = {
/* columns rows colors chars-per-pixel */
"256 256 82 1 ",
"  c #66504B",
". c #67504B",
"X c #67504C",
"o c #67514C",
"O c #68514C",
"+ c #69514C",
"@ c #6A514C",
"# c #6A514D",
"$ c #6B514D",
"% c #6B524D",
"& c #6C524D",
"* c #6D524D",
"= c #6D524E",
"- c #6E524E",
"; c #6F524E",
": c #70524E",
"> c #70534E",
", c #70534F",
"< c #71534F",
"1 c #72534F",
"2 c #73534F",
"3 c #735350",
"4 c #745350",
"5 c #745450",
"6 c #755450",
"7 c #765450",
"8 c #765451",
"9 c #775451",
"0 c #785451",
"q c #785551",
"w c #795551",
"e c #795552",
"r c #7A5552",
"t c #7B5552",
"y c #7C5552",
"u c #7C5652",
"i c #7C5653",
"p c #7D5653",
"a c #7E5653",
"s c #7F5653",
"d c #7F5654",
"f c #805654",
"g c #805754",
"h c #815754",
"j c #825754",
"k c #835755",
"l c #845755",
"z c #855755",
"x c #855855",
"c c #865855",
"v c #865856",
"b c #875856",
"n c #885856",
"m c #895856",
"M c #895857",
"N c #895957",
"B c #8A5957",
"V c #8B5957",
"C c #8C5957",
"Z c #8C5958",
"A c #8D5958",
"S c #8D5A58",
"D c #8E5A58",
"F c #8F5A58",
"G c #8F5A59",
"H c #905A59",
"J c #915A59",
"K c #915B59",
"L c #925B59",
"P c #925B5A",
"I c #935B5A",
"U c #945B5A",
"Y c #955B5A",
"T c #955B5B",
"R c #955C5B",
"E c #965C5B",
"W c #975C5B",
"Q c #985C5B",
"! c #985C5C",
"~ c #995C5C",
"^ c #9A5C5C",
"/ c #9A5D5C",
/* pixels */
"yn;hnxxny322555x3tV%3;t%5kx5hidIVGRCIUtxG555h5xV;dh%yGIGGIIInGGxItRCKRgUIGCGGt5GypVhIUIGGI7GtVGdGhUtktkxynx5txnxVIGGVIG7GzGdChzxIyxtGEIIGGnEthRVIttyxnxtKGGGxCzyGxKItVVVGtkngzthytynGGk5ky5IhyntGxxy5nhI^dxtGI5tKKGIhI5zhn55t5nIGttxxG%z52Vxyn*5V;%5t*5tV5hhGd23",
"2hh;dhxyd5onn52*hVVhVt3xtnnk7ttIGVUh5ynxk5kKIxt7th;d7tIIGzGxIV^dyyIIIxIyyxyRGKtxxtnxdxVGGhVdIn7VnGyGxyVItnxntG5GVtxxVVGGIInGnzyzVIIGt57IGUIChxGG5GxtdtttyGIx5y5tk5xGxVkVKInKGtnyhhGyxpxky5RhhGytGGxKxyxtxddd5IGIknG55Idt73hxzInttGnhVhGdo525khVd5t;ot3t5VGzhII3y",
"ytn3n%x;5GttkKnVhdIV3n7555t55xGkyGCydU5ttpddt5dV;%;nhVGGzIIxxGtt25KGCRGxKtyK5yGKhnKhxtGGttIxxxUVQCGhktnCtpn2*nttt5ytVdnEI^zIQGnIGIVGxhGVVGVIGGGnR5htykdnGGnGtttxtGGxGIVGxVGIxGVzttCtKk5Gtt2xxhz5dyI^nKtK55txtIxhn5xIty5Gd2tyGhGhIthhGyG552;ykdt2t;;xi533k5xtKyhy",
"ttn7Gx5;kkn25VVkVitVnz3;GVG*5G5k3nzhdx^zntttI257n33;7z72tGIytGtxtIGVInCGkjKxxtKtdkyVx5n7GI75GGdGURkyKnC5nyxk525dntx5VxGhUQnGUCgGGhIzVGzzGGdUICnxntn5dhV5G^GIntG5xynKxGGGGttVGUnI5nRCQk2k5x5nn2h2tdxyGGtKtxkG7hhz55d3tGty5253zIQInyzGnydyyt2yxd25;235k;25xtGKd5nk",
"xnytth25ty5ytGKknGxVIh75Vdtt;7xx2x;t5ItIGVKyn5hVnGn;%5GG5tyyIInttznknxIGCRtyKRxkxzzIxIhyGVIzCndyGGG^Gn55txdtkx*kGt52ynGGxt5^GGg57nIAzVzGEIxhxxKGxn53ttdhnVVGz3IVttn5tnxGddhVxhGG5IGtjdSkxxnn;kttdxtxGxGxGhdtVh7PI3Gt5nnnhtyzUGG5ktItRG22*dxxdVt2;;nGt5;xGGndtIxI",
"x;n5tx;;;t5y5tk2yGtndttttxItI3VVnx255EICGGGkkdt5nthGG7772dGCtnGthGGIGG5VCtKCUyVtItGdt3;hzztIyxhIyCnKKGtxnuGydupktt5t5nnI^IIyzIGtzIIGIVIEIGIht^xVnyh25hh;5IGIxtVdxttG5G5kytxIEz^UGdxKn22tjIGn5xk5KnkxxKny7hNxt7hvI5Vkt7xhxyd5xRnIGdytxI5nG%t ttx5xdxnnx5KVzVhtGGh",
"V35GzIdzx5knG55kthdttt3xxnVtn3tnd5xCgGQtttGkx5xdtxGh77tn5htIkxx^^IxzIVhnnIFIIkkxtGh7377zI7tGRytItxnGGt2k5tuyk2kx5;5nnVdGzIIGURGyyIGhhVIxGtzy5xnthtxtxxxttnVMVhVdk;5nkxnEx5RIGnh5yyxkx25pkx5t22tnnVGkkGG^Ez5Gv7Vzitzhzztz5InzxGGI5tytyyy5Gkyxx255tkyyVxdVnVhttEIh",
"t3%nnxxG;tntIx5553%V;;GN5nx2y732GtxtQnnttxyxVx552kn5;GhIxdnx5GyGUIyGVEExRCCItyjj5hGtItznh55ytxUtGC^nnRVGkxxn55tt5ydxyd5GVnGhGUtthGhGGxI^xVtEhIRytUdythdV7IVVtG5xyxt5kGyKxkxR^5dttdtRxKK5xpKk52;5t2Vxxk5yVtdhz7hGzVIhtxGhdIIGtGthnGIIItx3GVxdGny5dGxtxdxttd3nxxhh",
"2t*ktxxp3,ytn5*dGn5tG2t3dGV7xtdVGGRIG5k5ytnn22;xzt;tt770Kx37IVGVtnxGVxhnkGnk5jknthIIGx55IG5hhxdhKxKGnnk5txk5tt5ktx55n7z5I!GGGGitd7EdntnGKKGKd5UntdVxnxGdh7VGGh0355x5pRGGKRnGGyxGntk5nVI5hyGn*x5xhIhhixtGVy7tdxhGhd5GtIGGGGIGGhGtxk5tGxtzxxIGnhd2hIyytyn5V5nnhttt",
"u5*dxGpt355do;;5G3Vxnntin7dGG55GxI^CEtKdKKd5555*V;dtGdddxx7yzhGGIthGGIGxIGCCtkk5x5tIVt5IhythxGxtjtRnnGKt5552yt55n5nxVnyVnhIGGhVV7tG7kGGGkjhthIRIIhNhndxzIhnGzzhz2ky5tn^KCnInn55k5KnthhxI5xxx5*othGh735GzIttttdydkkhxtVVGzGG^IGyxyxKxtnt5ntyxxx2VhIttxGG2txG5Itx2",
"V5p*22nxn2225x2tVhn5xGtKM%;7I2Vx5GGGKdxphKkt2yG255h;zzhd;zdVGGGEInxnGGyIyyKG5ynkdUtGGnxtxyyyxtUInkknCnKytxkdynt5ttxtz5G5ttxEGGGzx3tG^nIGIIytxhGh3zzhhVVxzI75nUUIypt5GnKQRIRCyk5n25t5y5zzMMIV*5kth0VtIt3dxI7Ghtt55k5xG5hxntxxnxxIyxxkdzzIKtyxCn25tnghynyIxt5dx5tt",
"x5xutt5;G2xG5n52xzh5GVnxhdh;3dttxGUytKnjdxxdtGVG7V3t%Vd3GVdhtt5dxnInntIhtKGGnjx;z5dVVn5yxGtt5ytn5jGnKGVGd5nxtpC5VdxhVGIUVyVVzGzGxGnIGGGnxIyRGnGxtxtyVGGGIzhnVUGG5GxGnGtjtIGGh5xt*2kp2hdIt7v7ttdu33dthGhzttdGIty5;nxtGtIGVyUnIGtIxytxIyVhkdIykIhnt;GIxkzUGEIthhGh",
"khtnknnG*Gxni;5tNhGVvV3V3hVtGIttndGGC22t52zVzVC5V3V;vV7viKkkh7VhGGGtRp5tkt5h2n5KGyxyKt2GhhCKtRtInK5t5xynxnk5G5tnt5zINIIhGE5dEGtVnGtGxnVhEGIGCGIxIxtVGzGI7GGIGnx5Ry5GCkt5ttGk5xdy**52x5hhztyGtnyGdhh%hhEzh0ttxtxdtxVktCnGxGtCytGGxtkGVhx5GCGGnGIIhhth5^VtGxUIIII7",
"x55VxjyptnGkx5dtdhtzhvVGM;ht2GxhdytpGtpy;5h7ddtzv,NthxvhVxGttVizykKktxktxjGxkxtphGG^GkhxVzIGQ2IntGntGxkxpxtt5IRnndtGiVGV7ztx5IGIGGIxnI3GIzGIG^^xGnUIGIxGGEIIIG^VnntnI52jtCIGxKK5d25*nGGthGItkGxo;nztzIt5dG7tz5Ghtd5xkyRIGGnGnGIhtGKpIKIh5EGEGIGIhhxztGGIhGGznIdz",
"KVnVtCGkxKIn3xh;75zddt7IVhdVyy5ndxtkx55kx55VhGIIG3dGUVGGtGKKdzx3R^GE5xCx5GKKtGKCGC5GktxIEGyGRURtyn^KnyxttVtt5tx5Vdth5hI5ttdVxEKGzVGUhVGV7VxtyKGxnIIEPPz73VVGzhtxknnnyI2ktxCIt5xt*GGth2Vhhztd2kn2xtd;v73V773x5xtnn2225ntytyt5GVz55GR^xGxItxKVKGKIGtdtxt^CzhGnVzVh",
"hk5t5xGtGkhhIt5tVhtNhIMhvzv,h555xIGCjn2%h5GhdIhdyhttxxy7thkGxM7i5nGyKyjkxkyKKnGGIGRkxxI^hhVGCIyRtGGKKktxk5tyzttyI7GGxtVtxx5t5GnyICGGtttdV5thGxIGIhnEzxGItz7GEixyRQRCkpnk5RnGtVyd*xV5733tx7d2;*2ndtG3vVit775dVhnIkd*xR5t5pGttzI^QRGn^xIxtKKVVxGyIGzGV^nnIzVdVIIGh",
"5tGtyGIhGIGzCxx2kyI3Vhthnnn2n2dt5xgIkxyntnnx;Vyktd5y7hG73tVGzx33hGUthtkdKV55tyRytt2tGnny5GGCGC5IxRyK^tpkkjxk2CnNNxGxnV5G3tzy5ytVGhdItGVGVzMrVVVt0ttGIIhRhdzyGGGhIIGx5t2yItyKkk%nG2tVtkV;ItxG2dGnh52thd;3iVzi57V5xVGy5I25dyIIRGGxdII!tGGhIG5Ez7IiVEG25IxGhyhnIGxx",
"GtnxtIQGUVxGk5nkxkndt5i5t5x22p5yGy5ynn52;5ttx5kdhhI5hhVz7iI5I2oVdy5tdtxy5yGI5kd^k555GtnCIxxIGIIGGyGKkytptjt5tkkkkRGxxVxxVR55Vx5tIGzIt3ztP5ziiVhhIVhnVxxnGydxIGItIIIt2;Gtyyktyy;tx33xx5k jGyt5xnGn;2t55G;xVN57M5dx3VnnxhRhhhhIUGIhGzhGzIzGEGvVGtGIIGVxCGnttGyIxUt",
"khy5zIGtyzIttntxxxnxhItVjxtnx%G5ICxC552%5x3;5n5G5tt5;;d73;d5ttV;;25xth525n2Gty5RKGn5GCtIGIxI5tyyGnxG2GnC5txkytxVnGnkV5dVtG0zn3ttzUVE2ntEhVdz57EGIItGxnG5xxxVyU7h^RRIIxt2GptkG257h3ttx35;2nt5;GKdzzt3h32txxtxv33,;xz53x5xIh;hInGIxV2nhhV!AzEPVIGPUUnI5QCtnnGh!V5V",
"xnhtCGxnIUIIjjtj55hxG;h35Sp5*52x;IG5xd;;3522o%5K5t*2h;7hV332dG53x2hnt2nt%n2GGxInKGKnGGRIUGGGCthGCCQpGGx5knhk2xpnRnxGVxGVyzIhhtIVGhIGxVExVEE7GhVNQhzIGCGnxGxxId5IGxUtyG22kdVVh;d3t2o3Vhytn5;d2xxtxxVhthy5tixxh3id;33xV5xtdVGhGzIyGGIzIVVtVVz!zhN5yhzGGxnGUU^x!dhx",
"CIgInnKGnKhItxd5yxNGIIt2nGjnkCG5xnz533xGVk;kKytKydkdxxVGdPxV;5I;G53nI3ny;5kdGxt5xjItGyGGItzIII5nVVhtKIhn5tgnht5tIIIxGt5IhIGGEGGnnnGCdGGnG!MGtkGVzUnGKCnRGxnxGGndyGGhIxn5*xxd%Ihyh;nttk52ynyd33;kVyydVVz35xGi5*2k5k22tG55xV5x5hyyGhGEVxhPhGIMxVhVdxnxUGGnnnx^GUnI",
"InxGInnnGV^Gkt5Ghdx;tGVx55x5j5ty22525;tnk5xCdnGyx;2x5V%5GVdhxnt;Gt;nh2xGyGGV5KKGIIGnhUGI7yzyGIIhz5xGxnxVkd2ttx2InCG^VGRGIIGGGVItnzCUtInGVPVzVkVIIGGnInIRUI^^VGtttxGItht5tnGx5xVI223523x32tn5hVkVVdtthtnd2GVxxt*5n2kd3;;22k;5Idkyh0zEttNhyhIntUVVIhIRxGxIEdxnt5Gt",
"5GkKExnIxVxIGjRtttxxtxtt22kyx2;5zt2zVt25hVohkkjtykx2xh,3Vhz,;t5%n2thG2xnkndnd5ytyynRV5IV5dInCnIIG5ttnEy5xd22tt55hGGhGGGIEGd7IVUIxGnCGGzIGzG7t^VxIICCCRkn5GInGzGCIGIyht5ytnGk;2xnVxGno555thtthhG35dxtVxhh;ykG,5kVG55;;x532ny5ydInx3hz5txh2tztt5xdt^GnnGVnUdGxdInG",
"GCtkdykxtxKCRt5yddtKKGKdxknpGG35x22t;,xV;;5nKyGdykIyVxIthGGt3;7nzGVIt2xtG52;nG5nR2xxGhVxtIIxnRnnxGGGUhtGtt5tntxhIVzCG5tIVGEGVhIV^xCI07h0zhVdKEkVnGUQKGynyGGIxxnInGGIhtjnpkx5x7dGxh5ykd%*2 2n3ntVodxzGhy72t5tG*2yn52;3h32V;x2GGGzIdtMVVdyt3thtdx3hGnG^nGI5hxnIny5",
"t5tythIGGnVEGGIkI5xdhzIdtdyntztGVVVk;5tV25x,thnnGtknxnpGhd%;5GtxhVG;hhhhk52*5t%;gIdxkx5KxUzG7InGG^GUdGvhNttddtnGhnG!GdhU!UnGd5I!xhIGxxdI5xKkkxVVGxGGGnnGIGInIGRIGntVGxt5x5tht%3Vnnttx;55t;;hxzhVt5d;3;525t5hG2*otIIIyknxV*VKIGhzhGGtttGVh;tyxGVExGGxGGGVtyhtxIGn",
"2GnIVVIGhIdzxGzdttdthItIdxtdxtyzGdtnt5;VzGt3zhkktGKpgnyx;G,;5;t;dzxt%3ynktxVnk2ItIxttkKVxnIG5GIIGnnIPhhihiG755VUIyhIz7y!^Uh^EvGVURUIyntGyxnxtxnKVGGIGthhICInIGGGGIxGdxtkx;5xGt5h5V5Gx25;23Vt3xVVh;253xVt;t3Gnt5K;xxnt;yxG25V5nIIhnyt2hhVhd2hztVhVzVIxRIhnt55tntG",
"InIxI7UQVUzzdEIhKtG5xdd5xIxndtzod555ViG5hzdtdzddnGtxCxknVh2;d2ykGxVVzGt55tpGxtxtnytytthtyGhzCzICIIGnVVGtnGyzVhhVUGzIUGIGGVIEVVIzGCGzhh2xt5yG5tGVRGQnCGPt2UGzUQtttEEhIkItIVtG2;zVxt;G3ydx3htGt3GhVdV;hh5Gt35tt*yyVx;zGG5nV;hkhGnGzxG5th5V5dx3dVhVVUI^nnIyGnRG5ttt",
"xnGGtIxREGhVxzGdCktkGxnIIxIKhhV;yG5n,VGoGVn3hGydpttK2ykt%hV355d2V5%5nd55kG**52tG2yxxxdyKtxyhIGIQxIK^VGGV5GEyVttVnUxnUnGGMxhxzGxGGIg5Uz5yktGxGGtCngCKGCVVnytI!G7gxztxnxIytItkt;5x53yx;27xGxxthV5352I;hdxP3th;2y5x3hnx2nnxk225tIn^GGIzVxtdhddVxzxGIGxUInI5VGItG5GV",
"nVU^t3tIEEVGdGzdKkddkxUxx5xGn5V2ky%xh;Vhx5t3VVVyxCdK*5yd5V;xx2kttKnx;hxyd5nhnnptyGKphdKGGxIgxzG^^VIIGnVVtzExGGnGIGIGEN7GtztGhEUUnGRGxhxnpxKxp5nkGnGtGGzVGC0UInIUIhyxIIn5;5zz52552;tztt3xx5It5hGGt;kht5VNyVxnkn5yt5ktVkI5dxnxd5xnIxRGxxVGt5tV5tt5nGzGnnktVGVVt7GG",
"IInGhtznndI!UdVzVtt5nxUVytGyh25%2tdd3;3htVG,kxKkGGy ;ttVNVxGttx2kk5ynGh25yydGGKnny5tkkxhGUhyhGxIxdzhtGGV5xhGV7tGG!^xVhGEhzyxxG5tRyxztdhnjtKGStGGztt5C2yGIGUGUhthhzUtxtdGxxhhx32n222dht55hxGG2n3x5n*t5dxVVUKyntxGxdVynkyk5x3VxyIUnQIU^5zt37xtVdhVGhxxtGtxGGG5GIGC",
"GxtG!zIGVMIVzzIVVKyVR5yVG5xx5n325x5V;;z3t5555kGx5x2;2x5xV35ndV55;VhyGn2h5t5t2xn5pGkdG5dxxxyhhtGydIth7GznGIt5dhzVzzUEhhGVtnnKIGnIzthIEIzzGjkkCnVG5t5kGtnhIGQ!G7hhdxz5zIidGhhz;5x35;35z5yxtyhn3hnndzz2Vt5tntxGxnx5d255tdG53hId5tRGInxnGndx7dVGtyVz75yV5xhGKGVVxnUn",
"GGnIChCnz757GzVVdGKGn^I^G;n5hGV355;;V3;,;;xkG5d*d5tk;I%;3d55t5Vydtnttt3t55yIjRk55*kKxktVytkttdVIy55zhIEhGVxyVdGnGtVt5VdhtxtyGGGUIgdG^IExGntGK^ECttEyGnIzIhIGIIt5h5xdtt5ihz5hGhGG5xxIItIUtyt5nGdhht;5%hhnxGGnktGknttxGx5k5xthyGI5GzGxGnxIGVIV5I5zzhGttndGGxVVtG^n",
"zGVQGKntkkGxyxyC5VUIGxIx5GtndxxV5xxV5tVxk 2xdtG%G;NdxGhtV5txhhn7,dVit,d5nd5kEhdV353nnIn5VIIGI5nIGIhICII!dIGIUxdnxtxt5xxty5tx5tzEIhzGGGddI^RttGRCEVPVII!Ghyzynnz7tnhh5NIy7Pzthzyytthth7dGxIhGxxGtG3Ghxx3ht;zGhG5xxh5Kdyt,tdkdthVxtInIUIUInthy5RVdh7GdxRhtGGEttnGI",
"nhGGGnEnR5nt5tnnGGVhGIGVxxddt5tt5d;Gd;5%Vt;5tt,V;;t;5x;Vzitnd3zz53Vd5;xt5xktR5Vy5y;;tVhnxx5ttEUzzzG0IGGhh5zV^5x7ExVtG5kthndtttG!C5VyVNKIxGtyGIGxxVGGEV!MUGyUht;zdzUUGGhMzh5hIhI5IxIhVyzhtIxyGhzd%5VV3n5;2nzIGxxttGtGGdVVGKxGItG3t5GIG!GQzGhy5GI5xnGGnnI5IxGVGGn^",
"nhCIxIxGkn^nIGCtzh5yhIRGxtGkk5VV5ttxn%5VkVx5xnxt;5*5t*x%%GhG;VNh5h%z3i;t5x5xh55GV2tdIG5dtVKCxIGGGy7ygyhIGzVIVIt7xNyptt5xG5yVV77hxCGnVNIVCChdGGn5IzhtVIzhzzdIG0hIxxGtGIhthGthiI5dyGItthtnGdtGyy2xhh5xxVhG2t3xIdhztxtGx5xVntdV5hxxtUxGznhUIxCxII^tgGgQ^IICGItxzG^V",
"IGGIU5nGIxxnGVIQIGChGnKktkKuxnxKdI*VzGhdn53ykGdVkVGVVVk;ddx;37h3V;hVtN;xU55i5VV5d;todV3G5tynnIEGhUyFIghtIIG^GxGzG5ttyntkd33ht3thtKRkVVVhhGtnCxCGz^ziVVGId2htGGIyhEIIGIttIdththGGtt2gtdG5xz77xtI2Izth3V2h;tVnxyhtxttdxxGxGItnGGtxtt5hVIICIxxIGCnVtthnIzzxQIn^IhxI",
"zIzxz5nn5xtzGdIzyR5GdSG5dIGtjp*ntdzihdyxh;t;V3tnkGVtVk;23dz7,t3,kt5xt55tx5Vt5nxV5;5y5V5ykKGGxn^y0yIghzzhhtEG0dGnVItViitktdt*0zhzxGKxnGG5IGVIQGIxExzxhGhtn;3GI5zhVdtG5tzN5GxtIttIIhzn5xktI!xGIGGtGVtiy5t25nd5hzhht35y2;*2jpKxdxGddthtGznz5RzxKKnKztVVkGGIGI5GGGGV",
"zIGyGGUCxdtxGIdtyRGynxG55dR5GC2tkdtxn0GxzVt;VxVxxKVnk*hoxNVV,V;3x55VVi7xyn;3t55nt253hzzxKGxttGI5zhIznG77htx570MIxGIiVttnyktxhhh23xyttGViVVGGGQnhxGVGIddz%onGzttIVGhVIVI5IIhdzdztzIzGIKnKhzIxG7hG7tdGUg2htxth7Izztdn2%t55tjIyEVt5hnGn7VIGnnCIIknS^QGVVGxIyhhInxGG",
"IRxyydzIIhGzVGzIKkItttxn5GIxjxxtGytxd;3nddVVhhk*Gk;p5VoVI5hI5V3VVt5ntytn55Iz5y;%y;2xdhIVkCndd332yygFIhhhtxnGGIChGz7ztVtxxt5dV5t5Ggx55nzV7VnGGC^IGG^zGxdt; GVIIGGVGGGxxxzIGhyGdhGnx5htkCyIGIIzzxIGhGh22gzgIRhhzx2nG5n5nn;5t5xi5VxI5dI5tIEIInn5GttGIVxIGyyt3nxI5zG",
"tCGIGVG!G5hVzVGUdxKykyytGknIjjkjtkhz725xI5d5;tVht2 55ttkz7tx;GGVt;t2V57GzIIdx2V5%2t5hId5kCxhIGxyG0ng7nItGGhnzIIh7diVtt5V5dhxUyxtCt2;5GVVnGGUnGgGxItz5IGtd;;z777GxhIzVGIhtyxhxIt5h5hy5RRIIGIVIIGI7GGICxzIgUI5nhI3t535;yt2thhIxdVVItzIdxthGCIKnI5t^VVIGIyRh55tG7GI",
"ggkxGG5REtth7dMnyhVxxktGxnGnIGCkkx5x37iz;Vhh;,kyVGddGhyGG;t;3xtVn253ttt5IGt5dtVNI;t5xtGV^htyxxx3znnGngG7IC^UyGhGvdtGnG5t3xhtGhG5t,%7hVzVGGIIx7hGIhzdI5VtNthnnhynntyGx5xxtU5xyddkt5hGtGnyG5RxIURnG!^I5IIthz^537t3;5N3VG2;CyIn;txVxtthI2ttIGxGSnGKnUGCIzGhhy0dthdG",
"hztIInnIGtnGGhA!Kk5KkxRGxGnnItIxtnx5V0;,h3zI22d5Vxn3VIhkozht;23I325tn%2nnnxGGh5;;*5tnInxIhktGdx7xChy2yhynIUC7!n5ihh32;xGVyt5zItyd7z2MIVGEU!GVtVVIGtGtU7ztGVGxhdznytnGIkthhdtxGntynGCKnCxtyGxyRnCnhnIhxtdzVkxxG3txyxVGdhxCyytx55VzttGdNtxxtGIGppxCIUUG5^x77hItVht",
"0tyyyGIzPdG5hEIAkyntxEnxR^GttgGnxGI57Ih77Vn;;3hh;dzt5ztydGz5tx2h5x3h2tthy55xtkVGV;555GhIxGVknG5;nhxhVztthGGnzGVnIdhtttxGtx5t55tyzt0hdGIz7zzGnzdzEGEzV77nt3VxyU7IGK2tIKCntdtGn5xxUtnRQkRt22nnGnxKznIIVzVxhIdIIhyVhVtt,xxhCyhIk25KGVIxIGhVhx5hnRkt5hIGGIIxnzVxIth7",
"C0yzGhGC7!VzEA0G5ykKtK^GxGttIxyhKGVdzttn3233zVG;3hh5dh7%hVx3t5;dnn5;25k5ynGxxt5xx;,%3zVxVxGKxh7IU5Ig5zytGCGGUzGVGzVdhz55dtx0hIVhz7hdzhhIMGUVVGzEzGUMGGtVIdxdhyGGx5nynRtGdtxtKGxKnGzIGCngGnnzG5GRyI5yGU^5IVt,dxV5VhtxGzIhxtyn5GxkiVxxxhVVdhIIKnStzhhhxCGGIhhtyt5z",
"GuxtCGtptIUnzVGGtIxIVEIxGCptytIkytVIVVzhGdt2d;2555h3n32hhtdzG;5h;V32h35xhndhnnxtd;nhGIGGGIhxGx2hynG5xiUGgCxGIGVGGiV3hhxG7hidVExnhtVxdhUdtnGIttGGG7hG!vGhzM!hn!Itnntn2GytItUIxGIxGIn5jInntGIn5kQxPhGzh^xi0t5thGixtxGI,7Gh25IgztI2td73ttVGhzGkGxG^xhtVtCVhxtIhzxht",
"tx5kKytjIhGIxt5dtUyxGK^^nGKxG5tn5EVVGGIhzh3ztt3yt5ztthx575hG255yd5dxG7d3nth5nxxitxnxt5GGVVIGRxztUhGtGh5dGznGIGGGht5G7IGVtx7zGGIxyxGxhG5GGzG!V7dIInhGI7II7GhnG!IGtxtnGGCnxGnI^IICGVnt2GIhnxGxGnnxGvVdh5Vh77dVhdId5ntxdGVtdznGzGIGdVVIh3thgI5tnCKxhzxzIGVdtztGhxtd",
"5k2KntjCVzG^IGxG5xzhtERInGGRRCnyxGn^VGGUtth25GyG2%txdzd7hPdVGh5tV%2G;hnxxVx2Vnxx5GdhGIhh55txGChyGVxxInGyxGCUGnx^hdGVzIVtIVtVnGxx5ttd5VdtGIGGIzi7zGEEGV^zxV^V7!x^n5tGCIGznnUGGInGx5yRtQGCGtIUIGGtdn,VVIdGIVV5VdNxVx3;33tt!VxnInt25hV7G77ntnyytKkdtxVVhh5tnhUIItx5",
"y5tGtjjGVGVhVGnx5y;III^InnRtnGKnGGIVGUGhGGItxhhx%thV 7z3IPnh5t;tyth5xzGhhzx2G55kGikyydzIdkdkxGh5G^G^GxGGGGGUh5ndGzGxGIGGh3V7GIntn5kkVyxxIUIzGddtdthIVExhV^GhzIUCKGGnGnGCGInhInyItKxKxCIUhtytIGGGdhVh55Gz5tyxdht5xt3xGVhzVGhIGI!th3hVdzGtytdxnKxkdddtxGdxnhIGdIxd",
"ktnV2Gp5KKGEItht;ntxGtxIG5tnGGktzIVGzInhhGhxItt73VttyG;dhM5tdVt5tt;oG5txxGxxVGtttIxhdIh55xIVyItGEVVGVEVGIzzUIt55tEEVhVPGGIG7V5xItGx5GxtxICRCn5xt2k5x5VGExCRGICytkuRCKVIVGVtGxt5kVGkyGkGRtxGV5ItxIttt2kxh5h;GGdGIt3ydnUy^x^xx!GVGtVVktxGknGtIKnGkGGtGx3I;G5IdtGGt",
"t5EK5tKt5Gxx7V5x55GxtInIgx5ttV5nzGzI^nxIGdUd5hh7nxn5hGnVd75hnV;Gx;t2nyVtVtzzkVGVxyxyIhtz7yzhxhE^^VxGGG!GnzGnGtGdxGIVMVzhzzAGtxG5ntVViIEVKRGyxttuGk5ttGGIQRRQRUyFGGGKVUVEtx55hdGVtx5tnRkI5tz5zdGIGtUzt3x3VndnnIIhz3xzty5GV55IVGUUd5dxttCGddxx5ttnkxpGzx33xtxtt7hh",
"kttxkn5G^^xGPdV7GxkyddIG^CtGx2thUttIGCyxICInIzG7GxhGIn5ty7;zkG525od352V3xt5V5ktkdhtdzzG7ItGhnhI!Gn5xGGnUIGU77G5GnIG3vIGihMGnxdnnxttVxG5tjnGxKnxtttxktnGGnKG2CUGISKKxIhIVtxVyiddt55ykGhxGVGhUx5xUhdIzttU5xdIzdnnGhVxd5yGIxhInEUxxxxky5xyt5RtKG22yxVt5d;zhzhdhGGU0",
"txxn2KktdKGtGGI7x5tndGxIU5tztn3VGG5IVxIGGkhhtUyIn53t3tnVGz3Gxnd2yt25Gnnx3Gxtt5utttnzGh5dGGtxhthznhd5zVGxG!QznxnIxVIGGGVVGhIGytxKyxKPh5d5pknKG5kpxd%d2xRGSjpGRCgUxKnnt5G555t3xyy5EttxxRCI^zI5d3yh7xthhnGnVVVhny5nIEdGkGKxGVVIExGtG*55xkGGpkdxG2G2Ixn5VthhG32xnzzG",
"GttdGkVkIzzGGtxtCtnGIGxGInhI7GzGnIIxGRCxnxkxtUIG5Vhy7ny57dxht*x5hVV,G5xIt;dt5Vx2thzGIxxd7V3tnt5GGn5nGGnUGUGxIhdIxzd5nU^UGhGVInCthxVIizdVnkxGtxktGdxnnjRKKdxGEnVhxItxR5Uyyxt3%ttk32nUGCnCRIVG^d5IIVttzGGICKKkdnkt^GxEIRCGExVGhhdt5xKKhytGtKxdRhGdktyx3%;xxx2xtIIG",
"VKGGGdu5GVGEzdPxI5nxjCRxGnV57InVktx^GUGnyttx5ttyx3zhndzG73V3ttd22Vd;;525h;Vx5G;;t;3xItUxhGxdI55nIzNIGGGzInnREGnnynhVyGInGn^IGGnG^GGIxVdt5kt2tkntnyttGtnxGk5yGxtnythy5Gzdt5thttxVGIyxGRGGxVxGVIynttt5hzIUtGtttxtjK^GntRxIV^IGhG3Vd5VtnnyxVxxKyxG25N25xtV5ntnx55tn",
"^EVVGGKtVi5htthzK5tyxyyGIxRIEVGzhxIRIxG5KGGKKxnItxhtIhG5tV555kKt2InhG72ddtn;y552;3GGhdhVxxGyIdtIGthdhU^UQ^GGGEVdddyzxxGxGzyyCGnVGVKGnkh5kpVt*555xtGtxnynnGG52ytttt5xC5xGGx5kdk;V2Kh7U5tnx^nUIydttttGGdhn^xGKGkpkKGGthyRyI5hit73dt5xVnd5dxnIxx355dtd5d5xRyxgyIGIG",
"VVxKGnQxhhhzttGIttn2R2pknInx7GIGtyhIGxGknGkxKyndIttI3zhVddV55xxG5nx5tn5hVotiGt2tntnIhzIhh3xItIhG5hdVGnIyhtGhnxnn3ynhVGUUzzyxyKRIGVxVtdty5d5;t%ttGxttn5tyVGGydn5;dh%5ntzy25nxk5Vth5hGQGGCnnyInRGhtdGCEzxIxynukKujKyxkVnkGddnxzG;Vx;td3h5xtnxxknn5kGtxy5V5xtgGttgG",
"G^ICGIVEG^ICtRVt5t2z3dCk3VVItdt7GtEtyRGnMhnyzxIydnI5V5VGn%xGIz3zhzn2G2n5xxh3;dn22ttzzhhzVx5dtdGzGyt5zG7GthytKGy5ntxxzG5ItxtydztGnx5ty5thyy2t25xkty5IdV3t55k5y2x2tt3t5thxddt35nyntdyKyIGhttx5IGGVCQGnyUGGxxxVGIdxRt57ttG2ytxh5IIIdIyh33ht5RGy2t5x5KtC5x;tttyxG5hn",
"GnngIGGIG^Gdyxxd5xIGhInth555iVttIG/nGII^AGdGyx5ttx525V;;%n%Gzhnh%hhon7o 3;;t%2%2;hIihdIGGt5I5xIhItxxnGIGttk5KxdGddyIGttyhnxGG7hhGxttnhCt;h5tty2nGCxt5thxtdt5htGG5tdndxdhy5t5ttytnzzGGIhxxtI2tGRGnGCnznGxGGnIIEhGGtthGItnGIhhtkIIV3Gt2xt5knCx2Kyk5kyGnnGIxhIIIGyh",
"tyIGGCynGxEI7IGh5dytyxxGt33xVzdIGhIhtdhhh07I3htGhh55,,3dt;tkhGU5525;,G;2;n;h25K2yh77t5xVddVVttxGxGn^II5tdCyGGyty5xGGGI5thytGI57IGGIxGxtht52t2ynnxGxttt5VR5GnnxGGV5txttttt7dttdxdGtGVGGVGxV35tttGyIGIIyIhxGyKVGIxGh^hdtzttxtIhnGttIdV;hxy2kkI2K5xxGdnnGyGzP7Gthxz",
"KyQIGCGGdVdddhIxGVKtkkGkx5xV3h5tnIhzyxGzy000VxIt7d;tthx;GC552;h35nG;3t7n5d5hxn2GtxxiyzzIxtKxtxIIIIynCIhxkxk^nxdkVVVxRICUntIthIGtnxG^G5;dx55yhnhg5y5t5ztVIt5t5txxyxt5Vythd%t5d5n5t5Gx^xtnxUUntdIGGxhCGxdxVKtk5t^GIG^UtGGxt5h2t2Gy5GV5Vdh7IG3NxxtdV5Gx5ktGh7VItzId",
"tGGRxnxGnhn2dxx7GkKxyGVyktxhhdt5N5ztxxkKdhGIMvihtV3hGhV;2nt2G22t5IInyKkxVxVhttCyxkdtxxhIKtxn5tVGItxGIGGzxGCRKkttIIInGExGI532hxGy^GIVt5hx2x5ktxIxnknyGtxxnn5tduytdktVGzytx5xxh%7zxGVxzIVtttInnxhxGEEUCzdytGxtdhnUztyhxIzyt;n5ztdIzhIVdyU5Iz5IV5IGkd5KtGIdIn3Uh37V",
"tyGxCGG7htGgdIzG5xdkG5Gzt5dGidxIt7VGVtKk0znIGV77V33V55Gtntkkg2*;5nh2;x223GnG5GtIkKnGGxhIxxnKGnyyxxyt5dthtytK^GnGIVGR^x^dI5nn33zyx5xxddy25txxVtGdxt5VxntI^yV5Gn5txVI5xnVth7;3d55tVGGtdGIntttC5G^n^xIIIU5Ix7h5tdtdtI35hhIhV3tt3VzIh3thz5thIxzV5EGVxtVtG7Iz2httItVz",
"xkxGRyd5httyIxyyV5xxxGz3xU23VVxtVEIyVhdIhGVGGGINGtVdk5dkVx;xxGxNdyIxt 5y5kIyxGGCxKEzUGthtGtnydtxxxnIxhhttjt2KCnGVkxEV5Kty2tdhn7IGyhVIthttjxtG5IxG5xVGt55kpxttGknVEGGGt3tdt7tt7zyx^GyGVV5x5zG^nIIGIn5hhU5t53txxtIh3t5tI5hhx5nhz7ixhzG7tz3GnI3tthxI3xVzGVhnydhI7VV",
"xttGGxG^UIIn5kkh;E525tI73xxtIxdddN5GnyxEGVVEGzxIhxt2Vn5In5d5Ki5txy5KGkGtKKyInQGIGGII^xIIGnyxGt5tnnGxGxnhxxtGxtGGtGGG^dtIkIxtzhIxI^nI55ndktty55I5GVIKVEtt2unVGxxkGGhGI77hhz7t5t5GdttxxxGRGkIGxIyIthntznthz5Ixdt;xn3t35nI5Gx5h;7txzIGG7zxxh5dxtxhxG5Px77txhtM3GtGd",
"n5GhKxxGGGn^CICkKG2tG22K5d2zVGhhhhttdGICGUx^nGIyy5z5;5G2nh3htGGn3hhzhGzNIzGG^5yyy5IIxyxtV5d5h5xI5n5o255nxGktkRnxGyyd^Idtxnt53dz5UGGIx55y25G325GUUz5ttI5Gtykxy5GxIIhIGxxGdhtVytGIGIGxjKCIhIGIxGEhyIGyIzxxnhx5ddhhG;53%tznIk5kz5x5hVh77GV3htt5tytdtVIGGxxGhndz5It2",
"xkn2tGIIGKGCGnttdnSGxhVt2x5KGdytIz3GhGIGGGgGIz0dx32;ttxG2tyx7Gtx2dtGG75thQInInx5hnnt5thnG5xnnttIVV55t;5dI5IyIChItGnnGG5C3IhVdIzUIIG!Gthh2GntxthIEIytIzt5tnytttt^IxyCGVn35h5tGVnzx5xKKxI5IGx^VGIzxkIx5GGtn5xx3hh;2%zzh22tGxyG5xVhV;V7GzGGGdGCx5yhxGIhxyUhxGd3255n",
"tyGkhthGtxtVttnKn2xnnyxg5;n2CC55ynht5tdII^IGIzhnG;t2txyGG5dxzhznxdI5hMIGGGGttnGItGthydNxtyd5I5nnGt5**xxxyCkxInGG2IxIRxGxG5thIII^IIInG5ttyGtxd2yKGtGznzzGGxCnGRGQtttGGGGdtGVVVGIyIyKk5yKnGhdn^I5ItK5tyxVty25;33277zzGt2htI5xxht3xyxiIVnCnIh2Gg7nz3;IGxzG2t2t;2zG0",
"5yI2yn3nGtIyxxtpGntk2y5dykKIyIGt2GdGI5t5Gy27Ezh5xC7ddzyGhG5t%n3x;hxGI7PEGGxxnItthtGhzt3V22V3tt;xG*x2ktdxgR5IGGntIhQ^xxKGhtxxtGhxzgdIyhy7tyntn5yxGtGVGGxGGGRQxGRGgGnthGGKQGIRKVhdxIytntGGzGGGGtdd5;GxdG5t52t5;zVhht0Gh33%xKktGzIxIV5VznIyhI55IC;y2Gdh;Iht3t2xt3GI",
";2k5tn5y;tVhGthGn55t5G552IC5GyxkhnhhGItxyyxydGG55dx;n5t2*xhn5txk0GIGvIMInz5nxzhhhUI5zV3N3xx3n2;5GGy22tKt^RCn^IR5xInnxGGGGthzGGGUghtICttxRnxxnxdInxUIGKkKKKKnnnKxgIgtGkxG5tyGdxxxdGnykyxxtIGtGdxz555Vxh5tnGx23;VIhynth35ztRthGIzzVhixIx5hIhhnytdh%;2znzGhGG5Gy;nt",
"xxGk2;2G3;thGhVt55kd55n5yUUtnhnRxGxGGhxIydxh55txnn,tntdyV,t5*nnxIhIE!GzIz!In^UntttxtVzzty2Gtd;;2;;GxnttGRKICGxIxxK5GVGyGhItxIGzI77IInxGxnGRGGx5xGGCGGIKQddxK5y5xC2g2GnG2ntxdkk5x2yGhkkyddny2Uydxt3;;izt3;Gkn2VGdGnhgdhx5GzhGttG5GV3Gxtyxdh3tttt;gt%tIxxI;5hGh25h",
"y2KGt5ykhVnx3hh35tyVt2 xyxthIyyx55hGCx;tVIG;znx;yxxGVntkV,tik5knztG!xxMGGQGhVUthx3hxxhxx3t5yh;32;n5GnxK5CnGt5ntIGGtGVGVGytz0GGnEGGVzGIIFRKKxdGI^nn^nG^^xGpkpkknn2t2gIkGxxn5h*5G3nhtIkxhxxykII5nd2tnnhN3x2ktxyGnztGhhyttG5ttGd5tx3IVhyIhGVxVxVo2dnyG252k2nCxyx5tG",
"*S2%tttxzVhny3G5*tKtG2t2hhIhngtG;h2IdVx5xG5yd32Ikdykxty;k;tttN;,GhGIIVnzGnGhEIyyhI2G5Vx5xVto;xh25V55VxxGIttnyI^GxxhIIRGtIhtht0dhzGGIGnUIIGQRx^x^nIIGxKGGktttytGn2ygtd;Iknn5225dV2Ihh;22ttygGhIxdV3nnhzzVdkxyy5td52%G2;dh5txyytxht3Vhxxng5VVdx;5GIIz2tGhGnGhhCnxG",
"dn555hhIIy5Vhyh5;y5y5nGdnyhGn235NVth5htGtVx5CCtRktGGxV5;,xG;5;*VyzIGdGknGKy^GGGy32z5;txxGNttdVd5335;5yGGGI5yIGIGhGG^I5tt5kktk25xG!nGIzUGxGGGhGInGGGnGnyK5GhhGnn5ttx55GdtG7;7VdIVVGtn5G%xzztIdttVyGxGtG2Ix5xhdVhzxhGttdyh5x5h;2G2;nGzIh7Vzz3xnd;hnyGnnkGtIG5h;yny",
"5555Vkhd3xGGh5t3,5;5n5;x5txxx5GCt,3Itx55xVxt2ttRkdj255,kt5kk52*55hGIdGGxKkkGGKGhGtxGIx5Ixty55kVkhxz;tdk^GhnIIGVGtt5ykxyykIx5k5xxz!IIQVnGGnIICIGxGGtGKttnxxyxthty2gky2nxt5Gn3zhdV5G55It;27GhNxVdzKhxxGtn5nx5zzVhVhV;hhN3IdhGnV5ntMIhhx5hh3i532;G2x;On2Gt5yVII3x53",
"5;*kVdxVtG7zk5n255Gy5232dGtx22t2,t;V5xG;kGtxKk5xkk5yV5V5dn5kn2t22n2hVKGVnGpn^xxt5xdttGt2x;i;x;;hn32355xG5ItKyyIyn5txtttttKtnknItn!zUnn55yGIGUGzGGCytGEVk7xxxzn252t25G;x;5y5ttV3hGnn575327tIzI3hx5thtt2G57Gz3;;hIP3VxVd5hIGdxkkhdzxnGxddVntxtGzGd2;Gnynk55IGIyht3",
";kn5tGttG5tytdxkGtdy;%x3Gt3;y2t5;3%tG352V*t2yxkdjtktt5;x;552pktnnz7tyGkxK55SnxhGytGKVktG355d3xx;22txydVGxdytkthyyIGdGdx3GyGktkGGhtzGGxnznGCGnnIVkGxtx5tt5ttdIGhG2n2tGGt2tG2Vd5nztxV52dzGtzhIt;xt5GxdK5Vtz5hGziiVh3V2;55IndtI5ynxdGG5dz775yd255;tktKn*nCGxthttVn5",
",xkxG55xGCKxdhkktn2d7dIt,xkxyVx%5k*hKV5nK5d5dt*Gnkkxt2nV2kV5%5Gk5n52nGVI5GCKGxG^KtxIt;5txVG5VhIxxd5tGtGyt5tyGtzGx2ItxI;nnn5xdt55zt5VnxxGUIIxUthn7Gxxxhxhh5tnxIVhtKInttGx;G3dGxz5nxGIy55GhUInxhttGnIttx5xtyGtN;d5xn75i3hhthhnytGRthzUzdxxxtV3h2t2y22%tddtyItyGhyI",
"5tkG3txhyGkkn5tkGG5C7td2h;55ntd55*55xKkkk*,52dxtxtkxd225V*kky5y52Ct VtGVnGRnGKyydKtGnGdzxVIz5Ihzxn35xhtIhGVtV7xGhIIIIzthntdxdkd55h5GIIUnnnhGIC7n5GIGGIhxtttIG5tGKktkyGknn33nxhtttIyGtVdttIIny5zhCRxxykttxxItdtdthttzd7VhhyIt5xGC7InGIhhyt2h5;t7t2p552G2xtUyyhGtd",
"55;xGnGxU2xkhtxdynnI533h532y5Vydxn55dkVGdkV,xy5xGtKGx5tkktx%kkknh3x3x5xtnGtKyKG555x235ttiyyyttdxGhxxthGynd7nttIRtIG5GdhdGx5Vptt5GhntGxGzGhGdVGn5VInIIzIVt5GtGItyhGkKyky;hiVdd75ytyIz5GdKtd5znxUnUUnIGGtdxdUtI55ntx2;h7xxhkttttx5GUUtzItnk2ttg2x52ox%2t22GIzGIGzx",
"G5txtgyxhxyxxytVInGhhtVh55xtknyGGy*5*ViiGdxVkdkxGKVKxxdkG5dxdxh;5hGzt3xnpxx2yKtkn5itMIhhIzyIt7GGnnz23GGGGtzhGt5yztztdGn3t2GVVVxxhxt7UIIQIGzx55G5dG5txVGGGxGx5tIGhGGtI5xI7t3V3;VhytnnIKxxGIh7nIIUIRInNGxGtxVIxtIhVVy3I7ttyxndxkxVG7hd5hdn5IxGnd55*225y5t2tggz2g5I",
"tVt3dnthhVhGhyzG2nyVntky5y*5dtkIk***dVktVidnKux5GUItkxxVztxnGGx5G535xtzhxn2Indth5ytxVVzGGhVtthhGGt3kG5KyxKhtt55hxdtGtytttxkk5ntyGxI7dICGnnInt2Ghd5t35nGVGEdhhtVtdtdxtIyhG;7ihzG3ntGnKKnkKknkhIUIQnnVVIy^xQKktKjG5Inyxt5GIyIGIyxnGthhztGh55VnyyG5tkGx22*5xkpnpxxt",
"G5xInhhyhthtth3GddGGGGny%*t55;VV5nt**dydNNxGGnx2tGIxttVKGtnxn55yh7ntd;xxyG55tItI5G35th5tUUIIGdy0hG2GjG5kt5tKCGCytIkUx5Knt*kn*tkyVz7hGGGGxKntGtttxxxdtGUVxVVdthGhdtxK5ItVG537d;3;KkdG^KRttntRtGInIxI^G55IKKnGRxtkytypddCGRGxEGGGQUxntxd2htGG3Izth*VGk2O52tKjttK5n",
"x3xx277ytIPGtG5dGhKkGx55t2d*xGd52;55yxddxdkknppGy5VIKPkGhV5d;h5C7tyntz5IRxk5GGt;ttx323thdxn^GIItzhh3xCGKCxttxIxGynGGRVxh5V5tt5ktVGtzthGtxxxIhnnxtkkV5VxVIEhd5Iy5kdxdRxt22V;tG23hPtxnKkdRInxtRxGGCnzyKy5tGndnKVKkytKtxxjnnGIhkCKItytxGG5hy5775hIykk;kt2tknSpRyxux",
"hd22nGtGIx^VIihtGRn5tVdVynt2hVd;y;kG55xxVVupn52khxGtdid;tGyIxI52I357tIxtxnKtxn3t3tx33xInUIVxUVIdzGVnCkGxRGGkQGIRyRGnxdxGGVk555GntzdizhItItIRInG5Gy55nVIx7InIthIt^I^xxx5GVxVxtdVIKKKKtKtyU5IRGzGxIhzGNGGVyCkGnxVGKGIx5xRG^UUGnIEG5td5xGxId5tGxxtnG2nkxkC5jGkGtxnk",
"tG;3xt5xxGIGPhNV5UIGxn x55n25;zhnKoG2tnGVkddGkxxUzItUVhkxxttnGxCGxnIdhItVndyI,tzt2hn3GxhVtId5x^IhIhyGG7I5ktjIC^xxKRGI5kxV5VGntkx3tGxhtGGGGjtIRIGI5tdV7VVhIdzht5tVRhGynyVxIhxInIt5xdpktdUGInGICGnVzhPGxVIzytItVIGxnKGGnnGEnIIzGtG^yhtyxGIIInxGtVtGS2u2xKjpGGxKGtt",
"tVo5I5dI^VEGVG7dxR5thy2;t5;G,;hdtn522kKnVttuS**ttGn5txzNdx5VGIGGxtyIVG5Gnd55Vtt,5h5I5xIdhE3zGnVVz0hhIGGtxxtKGCnGKk5d5tyyKxdkyC5xVxVhdzdhxCGtyRnIGV5ythEGtznGGxh^xkGhtUhIhGtIdIttttpykyGVIGGGCGIIGGIVVGhhyxnxx5GG^kxkKG5CKxVGIhChIGhIyKGIhhhGyGGt5GxxGNpxptRkxdxk",
"x5n,xIzIGGMGttIxhIGtyIGGhi;dtdVVntC;txGGVkVV25dGyGhRhGxxx;tVxIKxttkyGIxxnGCGyhzVnnIzIxxGV7VVGVIVGGtIGCItGRxR2CIGtxdxG5KykjkGG2;2iVhGIUGtkxIGn52IUGxxxGVxII7zGIG^IIUCGxtyGG2Gx5tkjttkxGGIInRGhnxnVGxEVIntzn5d5GVGxnVkdG5GVKnGnG7GCtt5yGCIxyx5nxxGnp22dnxSxG25xkdq",
"xxt3CntIGn!zxxtzyxtxhGhVd;5hGkttk*t22GkyxdVitkpkdzCIdx5V;;;;xkkKKthdVty53IxVVVxV5xGdtyIU75GGGxVIhCnyzIUURjn^KICGGIIIGtkxjkGktxxtVIPGIhEtGtn5ICCCVGVzGGnnG0IIVnx^IhxIzy5d7InhhtdxGKptytVKCUQhtz7GGIGGG^PxgG5xdzPV^GxnG5nGkVVnGzIGGGIhyRKGG^IGnnIGxtpGNnpGGxutkkK2",
"ztxtxtthGxKxkxdI5yxtGVGxt5ktGGhhtn52xkk5zztVIVV2zxQGIGIt23%2Gy5tGIzxnhzy355zxGzhxnnnRynIidhII7h7hVIGhVdGVxx^nIRIGnCItthIGpnVt^KxGxxyjGKtxtCkQxzIIGUxIGntzIGIGdxxnIGIGIUId35GxVx3tnEGGGt^tEzn55tn7dEGtIUtxdGztV^IGyzhVVt7hGIIGGU^nUI5Ihzn^GnznxRIGy5txt2tKxGxkxkK",
"xxhG5hGIutkGxkz5GtxCGGGGxykt;xVx;5d5tnnktihtVhh3CGRGGzIzt;2C25xtGnUxnhtxhh3txxUzdUntxzCRGvGzh70InzGzVxhGxhIx^GGInGGII5ttpkKKGGRkGtdVCInkttGGGGGxGIGxVGxIGGhVnhhInnGzQnzn3VihI3GVktVxytkGk5tNyy5h5IGUGGt55VntPPVGRGdGt7GhhGnGVII!xGI7tnGGRIGxGxzGGtGntttgGnn5Vnkt",
"G5tK5t775GkxGk5h5yttdxttxV,*5n3%552nt*xGddGz7V55GCIGnnCtdt5tynGtyEIxyzdxdGVInGGGUGtGIGQGI!MnVnGIMnhhGGGUnUGn^^nxnnGGIxGIty5KGIGyIn5IGCRx5tKxIIyhzGhGIIGxIyIVnGGGnR!IGGn75Vz3VttvhxVhKkKKhVt5tUtGGGUnI27tykttyxEnRnUnIGIntGGzGxxtIUGIyhtt5IRRGUnnnKnCRhttxkC5VnKt",
"dInkGd7htktdxthxK5CtgGz7kkdtGG5od*;;%;;5Inz5hz3d5tCzIGInhxxGht5GRIG^III;Vh77xGVIIthGCGnIhMGzVGnIGGVIxzVGGzGyhIhthzGGG5ttt55Vyxxk35KxGxnxGxtyIxU5VzMVkxRIGgzIGhG^^UGIIVhIVzhh7Vy3tIIGI^E5I5h5hVVyIIIGRdzGtyGyxVtGCGGIEyyGxGGV^GPzz^7tIn2Inx^KGGyIQnInGIIGpGxkGk5G",
"tCygtt5IVkkynIGIKKPI55x5Ghn2IxnhGtnGVxh23th23G7thIVIgGnttKk5n3hdtIEGGtItt5h7GUIItyG^kx2yg5n5zUxG5GVhVhtdh5nVIVGGnzGEUnh7x5nxkdtGGht5InxkGnyGUGUnzV5vII7GItCtIt7t7VIGGhxhththhhPzzGGIGGGtIxV5G573nzIVVddhyyI2nxhxnIGyCRxI^xVnG7IGGhkdII2IGnVRGptpnVxkKIxnCIxgkxGt",
"VGIGGtIttk5dtGxGVVI5IKnGzhht5UhGtx2Kxhtntdx3dVVhtGG5yQng5GGx5;tzhnGVnGItyxzxtxhGIxIxnytGCyGdVxGGGxGnVGGI7zVyyGtIxnhxUGnInxddGutxtGxIxRGkIxRCxGGIVzPGVItUgz25IVUhnxIEnnIhhIdG777Nh!IhUGhGGVhGz5hIgIVhtt%VxdyRzhzxCGCGyxIhGEVIGzxIGIGtIx3xyxVGKtnptGEGGRGGhxGIG5yR",
"5ttxIGIztkIxxItxytGt2kzyGGnIIttGIyth5xydyhV;z72tzhzhgGIn;kt3t555tVGxIIxxthtGGII^GIGzgtx5ntnyzGGV^tIxGvIzhGEhthttUn5CCGzhKdnKu5GdItxIQntxnk2IIytGGttEGhhzxGxhhzGVvM7IIGhtGIzN3Pi7tEIIGzdnhdtVV5xxIGCn5Gntn^GIxIt2jIIIRh5VVGnIGNGInIVVG2GyKyKnRRxnSR^GxnCRICnGGGGK",
"GGGnIIyGndGKn;V5xGGGtGthkGCnyIIzGCg5tIIIGkVG7ydhtnh5IttnG5xt5ki5dxGIxGIztUnGGIn^zGIntGtt5nt5GIVzUhtdznVMI!I5UEnGGxzItnGInCxGpdGtGtzGKCxnttttFgxg5GzVzIdxhGVx5ItGtzhVnG!Izt7G3hVVGVVVxIhVz7h55VzxnnGG5xyhRRRxthtgRnIQCUxhhzG^VzVVGtVx;txGpkkFttyxSGGGnnnCICRRCGGx",
"7tddGGxtGVyt3nG2xnyyxGUnGznnxxGC^K^^dhGId3zV3zyxzggIC2322*G5x;tVxItGtGGGxhhhxGhVKGKRIIh7htitGVhGhGnttRKKGRGGxGGIUxIttkKGnGGGdkkkIIGGnxnRhttnGGIthGIIGRyKxGnxhIQxGyVxGVGzh;2xhGxVxIVnGGGxIVInhGIxGzEGGVtdtVGdhxtnzz7hzGh7Vh5tGQUQIhyxhhdhNG3zthxIGIInGG7GnVVIzzGt",
"yVVzUntxGnGhtdyn3htUthInCxxt5CICGnxEGVtVIyh53hGIIhnhzI52;tx;;txVGhhGxVIRG^xdVGVPkRCCx2VEVMGtzzPGzdKnxGk^G^VGxxxxxxynxnttnnnIK5GkyIIUnIKG5xtGCIUGIt5UkyyyxGngtnIIGtx7hzEztt5ddznEGVzGxzGGxIxnxGIGGGIhVnt5xkGztVxhz7yIEdGGxxhttCIQyG5nyt5xxVGGIGIGnzhdxGnzUzhxhVIV",
"xdxVhIxxhxdnyGGxdGVVdIGGdiGhznUnVVGxUzh!dhGtddhEI2yyythxdx553nIhGnIhGIV5hnzGVIhIGGxGVxhEyIhGGIPid^GInptdtntxV5tGGxdGGVdkGGCIEVVVyxztGRxIzzhEGxIzGUyGGGtIGIxIyyCxUIxGGG!ttxtKhNzGVGIGGhGGxGzIIdtGIzGV5yIEhtxIxIG5hzUGxI7GdGxtGCnR52VxGIIhdVInIyIxyGGGnzGzEzGzEhIN",
"tt35nGIhxI5dtIRKGGGGGzz5zVz7CgtgGxV^CGMGttItzIIzttCGIGntIn2tVhzdxxnnVhGIUzIVVGVG^GtnGVGIzyGMIEt5GxIVtkkyGnnptd5yyn5znxxGynnGGVtGKnIG^yxCIIGGxhUhhznGnnCCRICICGyIGItxGPGdVCGGEVVViGGVIxtCnIGEnxnIhGnd7Inx5xxVGGCGVGGhGI3tyGExIxGznGnkz5hGxGxIII5yInVGxxhnhIGI7tdV",
"5ht5n5ttxGGGnIGnVEGIdxVkG70VdGtIIGGMIV!IGdGyGhnhyyxhGnxIdIttIyIItIRnVIGI5tdV5VVGG5xGVGGKIVGVhEPVhhG7yyGyxVxgyh5hn555pGGxyttk5xxKUVxUnInIhGGxxIGtzhyGRhdtEdIVGnkGGnGInInGI5hhhtI7tGKKytgxGVGGyGIhIGxVIzxVIGGIzGGhGdIIG7tzdxGnGn5ddntxGhGhxGCCxdynRG^nGhGGzVEzGViN",
"tnxytIIkIxx^nx^xGEEdkVtV7znMIntUxVhGvGhVVxyxhtthgIIGRCI5tGzn5VGhUR5tVnkGU5tzVVEVxRGGVKxnIGxVIGVzG^nGdxythht5t5;tyxVhG5kkd5nGtxtpzhGICtxGVVzGGxKGUCynUGIIGdhGKxxGGU2nxGdnIR5GG5VVxyGxt5Ct5VVGhhGGCnnGxGUzGIRICGGIGhIz7ghVxVRGxGnzh5hhtIzGzIIGIExxIxntzIGthhI7vtzd",
"xzt5nVG5InCxGInRVVh;xGVd,IGAIzdnIGVEGGIIGdGKhGIUgzyxCIz;xGGhhhtzIIxtxIGxzhzVPVVvtkGGE^GKdEVxGtdtxGRGnt773ttdy;dnGnxdp5u5pyxtxkttGVtzttUGGxGNxGtVnzGGnGRGt5txKxdxhGxhnIhxQ5dxtnt5tkG5xt2ydVz7hhnUVVG^zxIGGG^ttGVthGUthI2IGnGIUGG5zn2ntzIzI55I^nzhxnGyh5nh3MVV5tih",
"5hh55GR^nCGGCtIIx%%;hVxxhzGh7ynhVdGVGnzVG^IytnU7gIxIyg2tthxGVVhdxGIntxIkGGGEVGVttnEGx^ntVGEVz^^VGRxRhC5;nyht%7yxh52hxx2kxtdpy5k5hhdGVxzxGGEVPIIGzUGxxIn5tGhIEVtyUVntxnGG^txhzxVVyttGt;t2V7h5zzxdUxxtGzCGzxCItIGIIIItxtxgIG^hnInCUdGt5IC5IhynyItGGnIh5th2thzi%%5i",
"txhht5yUCKyInK^xdttx5ttGIIIhxttxxxIGGGGVCVCttIzxIIGzCthxt5kKxdytt^GVVzUIhzIIAIzzxt3GUnnnhIxGUGn^GVkGkyk25h7dt%;hpyttkn22*ttkxttxth3txynkxnknGVVKIdGGGiV7hnyhIhn5dtxtnxn^GKnRCGKKE5GxttxGGIGtnxt5GtG3IEGdVInnI^Iz!GGGhGtI5GgCnhIx5ttUQx^n52t5ndtIVtnxxytd%3d3ty%3",
"y5nh2nyGGKxxnIGEtkddntxkhEEVtzIdknGxnGznnGGIhxCGnnGzxxIxkKxnk5ntkI^VtGGVUIGIGhGGyyUG^nktGnnGIntGGxnyx5xt;hxxz%znp5p*22p2%kkyt25khtn5kxt5nnxx5VEkI7GI7iVtthdxntdh55Gnt5IGnGGxtn5RVtntttx5xxxh5txyd5xtGGGzPVExIGGCICVxhIGGIzxIGUGGI5tRnIGGytxGtzIdI5ItVd;;y7;d;%2;",
"55dtyhnxxztGnGVEt*t55tV55UxExVVznxxGVGtnKIIGnVGIUUInGCtkxtdxtnKdkGGGhGVGztGGM75IhUzFQRnnnxIIxyIxttxxxkndthd%;hVh5nd;*5t2yy;thty5VVVGx55tyxx55KGV2zidArVhdVGxnyG55tyV5nznGKxnn52uGxIxzxntzVEG3hxtthVVGnzx^IxGId!GIIGGgGCG^QGGntthInnhRzRhynGKt7RGzhItt5d2tt55552t",
"dttt;t5xGEGGnIGidyht5GdtIVI55dhdGVtGVxnIIhIGVGxyG5Gt5Gn2xny5KtxxtKxVGzVxVhhhGGh7QUGIUydtKGGGzVUxGVGx2td5ntyyt55tt2tt5tk*dVthhx5tVxthtyth5ynn5Vi2Mt0hd0thhVnGktyntxhh2x5GKCGxGkd5tGG5hthdGI5xVdVVtxV55xd^VGdG7h0GUzznxytRIKxyttIythz5RGnyGIGKdGnzxVG5dkthyynt;xkt",
"x5Gxy;C5gICGI5hdytyy3tthtnVVtVhUVVIxGIGhxhdzIKxkhnzGyht55t55nkytxnGInzGVII0GIzhAUCQIInxIGtkGxxxtndk*kydtxdp5ht5;p5j55tty%2nttV555x%ytyhGtKktyx5yh;xtyxh0V5kh5y55y%y3%hV5ktVGuynpG5ttCnhVI3txnIxxIGGxGyxGGythItItdhn5tht5IRItxhxdxdhtEGzzknIx5tEddGnkx552VxVtkyG5",
"tk5ytzyRRRCnKVtnxykkhdVh25dnhnhVxVVVzInIh5xxGGktGGytthRG5k5htItxVGnGxnGVInz0zhzMQGUtGxGGyk5GIGxhVdkkx2252ttdttykpy2ttt2x5y5t55tdGNxh5VttG5ykykxtzttd5th0hxy5thkyy52%%VVyxVKk5n*dyy5yGxndhdyhxIGzQK5k2gnIGI5ztGhx5GtyxGyzIKGyhdIityhGGn5IGnKnhhhznItGxdx3V5xt*xGk",
"Gnttyh2IQxgIGt55t53tGy7z77Gx5ttnnUGxGVGVGhxVt^xxUyhz52tVtt52n55GtGn^nIzCIGhnGzGhgzxxGnnRyxtxRnnRGnkt%2x25%ttkdtn52nxxkt5k55xtykkhxtdyd5dyyk5ytx5xnxthhndddx55Gyyy3ty;hxh55k2otxt55y5zyn3Gt5tGknGnGyGI^ICGVIt5xG5EUzGEthxRGGGtt7GyhyIhtxGxG5GGhG3tGG53yxVt5xVt5tn",
"RtntxRGCInG55tdhd;%Vhdth7tzG5tdIxUGGh5ixdzxnGkxd5hGtI;y5V2Gtdt;5KGkGG3yzh2hGGEMMIUGGInQIIx2G^ttn55t5t;td5%25o2ptGykdtt5t;tk55ntth33x5x5nx%y52txyyt355ttxh5xkk*Vxzth;3h%5;;t2knt5t255hnz55httVtG5x5IyGGnGGEy5IKtdGzVIIVtIddtGVxtGt5Uyn5nGInnKCICUjxtndtiyhdnVxntx",
"5y5V5zUIGyxztIVdt55t3d53tdyGhyI5IGxGnthxtxitxt5nxEGt53;x5txtk55VRtGnn5xn0ztIIEGhIzIGUItgICUGxytnCnnt;t25tx25%*Rx2yyp5kxt2t55x5t%55tyy55ttutOk2pu3tthdtdtkynkpC5x%%22nt5t%2xyykk5y*yy3zdtndhddyxIRtGktVIIkGntKtIh^hII^5dIngytVdhIKCInC5d5UGVUGxGIykyttt5yzythhzGV",
"ntnnIx^zCnzGGhVtxn3hxi5;5xyttdhdVGInExttKdGt5kGnIUGtIxtttxt2;V*5xdIxknCyGhtEIVGVUUQUhhtyIUGx5tyttGxynh55tttttptpxxkd5t2p;tyt2t5x7555yytup2p2pt5*xh5d5t2x22dtnk*n;tn55ptx25t5d5tt5kd355t0hxdnthxxICtCxnxGG5ttxIdtxIUxzIGdRItxxyz5^RxK5thVGxxEVnGVyRgxx5thynz7IIdI",
"t5xdVVGEGIUIInnztt55d5%37y,Gx5GxGGGnGGI2KVKnIVGGGtdUtt2k5tGnxtkyytkKCRGthIh^EVG7tGG5xxIGInxQhd3ttxRtty25kpdk52*pxt5y2ytk52t555tnhy55k*n55ttp2ptnt5575t2jx5t5n5dtyt%yykdtjxpkt2y5;t3xnti7hhVhVECIIGRxd^^tKttGtxtIInGxVtztdRnnGd^VRQGRtxtnVEVGhznGCdynGItGn7G7xIhG",
"n5xEVGMExCxQQxx5xt;x,znxzhdxtG2GVGGGInIxVEVGKIGGhhntCGyy5xd2;kxkRt5xGxnGnGGUUIVGxIxtgIRCGUxChIyt5yxn*k*tyt;2kp2pdk55kt2ky;dy2k;yh3p2*55xj2ttpjttd5;t2%2j5d5yndt55y%xx5xtttt5555x5y%%5hh5tt5ythGI5IKk5tktKIKxhGxI^hxRIUt5xx5xIIhGxG^x5tynGGIGIVGVGytyzIC5EGnGIxnt",
"Nitzhhdt5nIGxn5thd5xt7hVxhyhNVvhnVG^xCRGxkKn^CKQ5GhhRGnhGVhGtGGGxtntkCyIUGGy0GhzKxtnyttIxRxInxynpy5kt55;yd25*2dt*2k55xj23i553h523t252ppdOytppktp;5xytnt5xtjkt5tt5;tdknu5px%;y2tt;txh7dtihxdddGnIRIIyxxtGiMzIhzIhGInnGnC5dxgtIxVGn^Ix35zGGVIzGVGzkGGGGGGGGUhEVnzx",
"3hd5i7G7nGEGGy5y5y3%tVGtdd5tIMdVxxGUIICxKGddGIQRttzxGICIz5ddGGxVny5IGRCR^xx5nI0IIRkttgUFGKRnGntjK52ty5k;txu5t2xxdtxtxn2xz53ty55%hhtt*2x5tptppktttt5xtdt;*t*5tttt5dky5xx2p2%t%2t553ydthtttxttnIEGIxynxtIdUEzIM7htnIGGnGIIIGGGnyVIG^^VGd5yxEhVzIGhtxt5nUhn75IVdzV3",
"itxhIN07GIxxknCyxxtd35z5h3iVz57z^VzxGGGhVIRn^GdKnhtxKyttInQICG^xGnGGjGVG0zIhIhGGQnxyGt2yKxxtKknpktk52t5pkk5x55y2ukukk*xtztty7xhty7dhtx2%ttpx 2pttytytk5kknt5pp5d55x%xy5*p5%t5%dytd5yth5httxGxI5^UUtt5yEGUzh7GVGhChnGGQGnxGIUnnytGVGhtVVxGtVhxIGzxktntUnGUIEnE55t",
"h5zItGdVGGVExECyhdtt5dVV3307E5txdtGtCGGz^RKRC55G^G5tddIxdUxGCUtUGG5KnCtkUzGh0IInQ5tIpttntG5GKnxpkjpx5552xtyktnytut5*kkkxz7%5%2t5t;t%t%2pxjjttpxpktyktyhyxdntptjt555tynu5*522d5ttktdx;5VtIVxxGhIVxGC5Kd5K!tItVIIIInCQnGzIGIGyGxEVxtxnVhdRnhGxGVGh5ttthxGIzGzGV5xV",
"VUGIIxhzzIGhInIynz5;*dtqkjj5z5thiGyhCICUIIxtGy5yIGGUCGRytydKGz5GRytIxGKIGjgGIzGIIGGRKR^ttny5nkkC2txkt2yxtny5; ny5nx5kx5t22tt23txyth55tt%tjtjpkpjptpputpppkdttppxtxknxdp25tp525kd55tx2p5uKnxxyGPVzIGI5t5khthdynCKUGC^GxIRGVIhGxCGR5txttGIhIGnxhzt35tG5I5^VG3nGVny",
"G73z5VytdVGdI^Cn5zt2GnSdpkxuhGxtInyhG^xIn^GxIttdxUnIRnxKK^RRtGdzCxtCQGGGItyyGG7hnGnnKnGG2KRIGGnSt2kt5ghhn2gxk%kx*5*5tnk5yyyt5k2%yyhttyt%5xpttjppupttjtppppxuupyytt5tpdtuyttx5xty5ykj22txxtVxktV5GEIGVG5tzttdGIIIUnGnInGxnVxInnQGxtdV5nIVUGCzRG53nxtzhGInhtzIG7VE",
"5ttI3GIhIIhnhhhxytxhn5ttxtnn5GGEhyR5GhyIzIxn^xIxdEIn^GII2IQRhh5KIhxtGnCnKtxxIIhhhxGxnRxGI^IGKtRCnn5kgtxkgtggy2t5n*tdt55%5%k*25t%ytthjk2yt2ttx2k52tyyj5u5jtt5tyttktttudxutytdttyxkt52t*p5xt5nntxtVV^IxdtGzGVnxnCxGCyIR5GnIUxUIUGIVEIGVGE5IGn5ndGVt2xxGUxGGG!IGEnV",
"GUzIzVGGnhRGGGnIGnyhddtdxkGxtVRIVty5hGGyxdthQItGxGVxnnIy5nRI5xVKGhzhtInIGxCkxIVGtxGnyxxnGnKnnnkntxxx%5kt27yyx*t;tk5tty*py5G5tt5xyttd%5k2ttkppkk2ntpj2njjj2dtt52t5dttptkp5t5tuktxj2tptt%2pxpxxxNEEnGxGIIGGUIInIykyGCIGCGnItnInGxIhxVPGGItUIxd57xnVxxCRnnGEGQzVVnG",
"IzE^IGtGnIIhChGGthyt25n55GtnVKEIx7ihxIxdxIVzGRGCIxIGRnIGyQnIKIRGzxGCt5yyIIGytKGGn^xhdGk5dVGGGx5Gkx5y5tpCggnn5ytotxp%tn*25555yyttdt552y5%nkpxt%tt ppjxtt2tjkkjktp%xxtt5ktnn22t5ttjpptkpptknnkynGtzIGzPxhGnCInItndgxxgGkttVGxIGGG^CGGxnyx5CnGItGn5GItCkxk^GGGzGVVV",
"RxzInGtUzInGnGVVttyy5x255kttVVIGxtthVdthtthhgRInVInGnIUdCGGhyU^KGGC5xzxg5ICIGGGInGxGVyKy5ynG5p2ttx5dtd5t2ttkyyt5y5dyypttyyttyk2kktpu%;2;ttk2t2tkpxytyxj2txk5xypyu5ydktypt555to2ttppjp252jjxkdy55thzGKV5zIIIGn5KkGCnxpKntIhyGzIGnGGxnkdK^GIxzxGnGGChG^nnx!GVzGxIN",
"UhG7xGn5nt7znthnhttgty555yV55dxVVVGhnthxt3tGnhnhttytCCGUUGKxttxnIRttttxxnnxGnIhxGVtxt;nGIyt5ty2k5tdxtx22tyyxyt5x55tyxyxxydtxtk55oxdq5t5tdpxpp5t5x5jjjttktupttjpk52x2pn52t*kt%kk*jyyttt5tttx5Cynt7dxG5VUhkxG2y55ktgKxKxnnCCztGGGI55yxG5GKdGn5nnInxUtxy^IxEztdi7Vh",
"xGnttt5hyx5dGItxt5tgkx5yGk5kG5VEGtztVGG2VG7tntGt5dxttIInyGtytxtGCntG5tGzCGnRRGnhVh5nddttnnnVxk2p5yktO5kttytyttytok5y5ttxytktx5o %t2ttykntyttpty55ty5tkt5 22tntt2t%*tttktptjkkkx*yj5k2tty22ntxnttt5I5dtzxnRGtxIGGGtGxRGnttGdhznUtxxdUGhGGGVtEnV^nGGI5GGnVhnVdEhd5",
"Gknn2kVGttkypGKttu5t5ktV5t,tnnGIGzGGhGGytKGG52xkxnn5tx5xhIGdhz5IG^PKpnxSEGVInk5ttkkn55%dxttyGhy5tkyt5*2k5y5ttn2%OppxptppttVntytttkkpp2utykkttjytkjpttut2x5ttndtttt%ynVxn7d5nht3dyhxthxzt2t;7h525htGzGGGGxnItIKGVxnxGnG5zntxxGGRI77ztxGGVzz5GIGGIIIzIRGtRGt5KtGk5",
"nGxGktxnt5tnGynxtVt25xtytGnxGIVGhnGIxIzzx5KxS2p2xkynxGGGIxtzttIQVVkVnt5kVGEKntxd*5t5;t5tVxxtttyt5yt5ytpkk5tukp5u2pj2pptk5ttyhhytp5y2jtpt55tt5jy5dtptk2x%k55t5od5t5tyGxth3xth7%z3532dx32y55552dytndttVzxd5VGI^GEtxCxnIt53tGthnGzR7zItEVIGVVV5GzGIndIIGnnkynktxtG5",
"knVtRxxVn5pp2pGtGxKGnVKtxttyRntIhzGxhnzIG3KKGpy2kkhGnRt^ythUnIIGGVxxxt5kttVtyyxxyynyt55tktx5t3t;kxnt%ykpxnn5up*2t2tttttp5kd5d5tttttt5pytk kxyttt2pp2OtyOx5t2dnk25t2hh5tnyhn3d3th55httVVd5h5thgt2t2hzznkVxVxIVdx5GRK^nxtxxnIttCGx7tIhtyxtGn5VGGhthxCIGGGV5CnKxtnh",
"nytxG5xGxnp5xkk5utdtddddtG5ytVIRzIzEz^IzytkxK2kynknxIhyGx55IVIIhG5xxktuuddt;txyt5kkt55*pdtxkytz3ttt%2%ydttpy52525upjp5xpydytnythpp5kxx2ppkjtt5255yykjty2txtkky5t25xtt53httnhtVyzzx32Gth55t25gygzyGGt5y5zdxVttVzRGnnnnG^GG^GnInUnGGIztUGyIUGGVIIhGtnGdEGIGGnttngG",
"RKRGttKdttdttktxtxtnnVGtpxnktxVxdhtGEGVG5xy5znCGRngGtKGnIhGGnRGRy5yd5xtj5k2yxtt5*t5k5*pp2tttt3;55ptt%t;*txxdx25tutputtt2kt2nn5xytk5nttttpxxytpptpnpttnyypp2pyukp5y2G75GxGVVkiiMdtCt2z%5xGk;t5%pptn5t5h5G2up55kCx2CCxgzIn5xVVGIIGGEI55Iz^nxzV^zGGIGdhVdtdRGkCyxtK",
"xnn5txk5*ykkyt5kxxdxxGGytnnu5ttdVzGGGEIG5yGIChCRRIUg5ktGGt7hGGntEt55uuktydp2t2% yttyt2td5kttyyttpy5ypptdp5ttp2ttjpppkppkk5tt35xtk5uptkppkt2ypxxjxt2t5pt;y5nuxt%ttytxhhdV5hV7tMnMtkxktVhh552t55xnntttynxtp2%2ytGxgItygtxxnGn!xzQGGIzzxGnGIIxIVGGzGzxdztxVnty5yx5x",
"CKKhxknktku5;x5Vyx5txnGtxuG5tthGIxtIhGnttnGyttxGGtxxdK5tGtyz5n^GkGnGxGt%t;2%xx2%%txtt*ntttdntth7p5nydtx5xtttp5ttkxttnpkt5td5%%t%ptt2tt5ypptxttttx2tytt5gp72Nnk2xtzd5VzzhzEh7iG0Axnt2G;ddt2k5t5nytnIzhdE5p52kk5txCRnRxzCtzVVn^ChGGIIVGIzxGn7GEUhEUxV5^CtIKntkyGxx",
"CGC5ptpx2nG55k5Vt52kxpjxjpxkGVhKhGzG^Gxn5xGxtynGUn5tt5dyxztIk^Vy5Vx2ntyxt5n5xjky255d%t5puktyyt5ok5xkktt*kktdjty5x27tppkpttkyt2%%p2p522nkpk5kpppjptkt5tj5p2Nnntpt;h5hddV7NPVzEMIER5tgtd23*ttOktktxUhynx5dx22tpGn5nCKICRGn!zEGIxnGIzExh^Gxtzd5zGt77yViGItkxn3nVGGV",
"^ntGxxdGGGxxGkktnktxtVxknGnnGIKKxEtIGUhnth5gyGtxIghIIUIzh5IhIhUn5nk5tt5ttp2tttpp55**pkptt2td2tdx5gttttpt5ppttpjt2kxk tu5yytyzhtxt5;5tt5dxkydjtkt2kttk2txxpttk5jti3dthz2h7tVExGEGynkd%7y;h;;ydztnxVnjRty5utxkktxj5xGItGQGhtIEnnnxGInVUEGV5tGhUIhhVdttNxxxkkxVGVhV",
"xnVxtn2IVVd5yn5npkt55Vtky2RnnIknGtIInGIhyn2tngnIzgxGgItthxttnh5G5G%d25 ttt5xjkypyCtttt55xtthh5x5yttttptp tyn2py2uj5jt55pt%%5tytt5tyVtt2ttkp5*ptkkxttypytppnGtnjthdtdhdzy55d5nGGVtxxthh77hdtyhdtx5Vnxxn5222kttt2RtIInnnkIztGhIGhIGnGGExGnyGdzznUytGtEVI5Vxnn55zVV",
"nxxdtxxnVdktVynxGpnty5nSChnRGnGRIGdIGnVRGttICxnUItI5KKynGGGKGnGhn2p22N25ttppxkjpkktytppphzdhhtykttykxp%t;njuptpkpujjtypt53t2yyykxkkttx5tpykktt;5pp*5y2kptxyxRytt5h7zhn7h7NVxxGGxynkuy55tV525t55GtVxt2nty2*%tt5Gg7zGCd^UIGzxIIxCnVUUGGxKKVGxVCIhxxI7GVhVdnxGRdVVI",
"Gn5ynRKx5tdt5*d5n5nxGuGktGgIICnRtVIVnx5G5GzGInxGIyCGxCIKKGVGGzh5kx2%5dnuj55*pxpttttyjtpjn57h5ytkxktdku2j5kppupptt5tt5y%5h55%y%n5ptdyty5kpyxktyy5x5tt2pk57xCGtnnx7h37GhEVtVttxnVttpktyGdd5i5Vt2ItVt5tkkndp%kkxxGnIGIGU5IChIxIUICC^y5RIGtGGGGVhGxIGdGG53VyxtG2xtV5",
"VhVzkxGx*55xkxx555tGtxGKGtxhttCGtnnxG7yGIyxGI^^^Iy5Gt^GId^nGInVhxpt2k%5tk t5 tk5kpkkxttjx5t;xy5kdtpy5ptty5tttttptty5t2t2h5tdtkdy5ptdkd;5n5npny5tk5p5kpt2ttRSCtGkVtz7Idnx5xGhkx5xnKG55ItVE35GIIzVVkxt2yhy35tyxynhVIIIIttdVhzhtxhIdhh0I7IyVGUGnIxG2IxIGyttGVtxNzI5",
"ihhh2tnxtGGdtt5xytt*txxkthtthnzhQInUyGt3IGtGdIQxI5xtU^GIVkVVxGxV5ntt2u5tp5yxtxtux2jtppy5tkhhk5tynxxyptttxukpt5tyt%%5nttd*,x5hty5pkkktt5tyt2jjpyyt2yn5pynnSn5x5ynGtV5hIUGGht2t5V5nRKjn3hIG03Gt7hhkStiC5hhnydndGGxdIEAhGId7IEIQGGRIytgzyhy5hUEGIhtIIGhzhGyt5xVttdx",
"7vhdxytVtkhxyytkktGtk^VVGCGGnE5InQgUGn55^hzURxxQnIxyItIUVVtxGIxtynCyk5tkuttpp5j2tt2y5ttx5iyttxj52k5t5uutkp2upndky2*ttt22;x2d2td2ttthy5ttkxjxjkp52k2k2%2pnSt2xknt5nthIGxIIhnVtnxxGCxGxVhG7hhGzxhtktNk55tn25%znGxn5dGV^GIthtI7t5ynGIIGIGyIGnhyhzI5hIxn^hzt5ht5VnhG",
"7hxtiy5xtVxVtxk5x5xxVRkKnxIGxGhxU^IRyGzxQQnIGUxRGhIIhzhUVkG5VxyUky5tp*5pjj2kktky5pkytxGyy5nyxt525t2ottuup5tt%5t555p%ptp552dtd5xzp5;xttykjjtjtyj2xdxpjpx2t7tnjxxGzGxyItnGzGGEIUnttxnRIxxEGzUVGx5CG5knnk5tt22hd5yGzz7VGGGz3G7dGyyRCxCGUGyxGGh5IhGCdVx5VtVn5IVtxGd5",
"0hzinttG5k%*5n5n7GxGzxzh5GG^IGhGGGgy5QIIyCRCGRCIx^n7zGdIV5t5nthGtu5kttpkjytjxktjnxpjtppxy2pktptp%yk*tttttV5255y5t552kk2yt*tk,d3dtty%5tkd5ptkttt22xGdkptjG5kGynnthttnyyCIn5GIyGyIzGhntnGztxCtGyy5tttxnxGdk5x%xt55xtnKGKGVIxtt5htIGxxnxny5PGztVVxU^hhdIzU7thzhtn3x",
"d3dV5225nt*2Gxt535xxxGxhxnCxxG^hGItyxxxIGRGGCIkthzIttyxKGItnh5ntG5t5dyppppkpjykk5tpt7tppt52pptnp;tt2yyyt5tktyyt5ty5ytyGxt52*zth7knny%yytkukkt*t;y55xx%5xptGKpGRnGCnhxnGIythChyxt2xGIyzIGd^UhnhyCkxdttxt5ytp5tynpntGxnxnGIt5thURGKGtkn5thVz7GGxnIGxG5GnIyVtGdn5%3",
"dd3V5ktpt25yG5tVt;5tVVGGzGIGnCxGCInIGGIICCQnGyx2httdGyt^VkGttGnnnpxGxyt;n2tx5x2ppjtpn22jjtj5p222x5dp5hktdtytttx5t5txyxG25htxthV55py5y5tt2x5tt*hd5thxt*52tnntGnGthdtxynIIGxydUI!CIxGnIzGGhGGIInCkn5p5xxdxtGyh5j5x*2xnVxGnIkxyGQCnxVGVGttIzNihxVxGIgGIIRGIthydytgt",
";y5d5uttk55tnty5xytIVt5nGVzVCnznIIInnCnI^GG55Ctnn0thGIGnIxkGnIGCkkt5;k2222p5pttkpttt*2pxptxt55t2*p2tyyh5ttxty25yyhhtnt2p5%5y5z7525xnk*dt5tptdd;5yd555dk2txktnn2GnnIzGIRnRyhGGzCICGGzxEzIdhhQIRG2ku*kkt5dkykdkjxGxkRRuVdVGGKytRnRE^xxCI5dddzV5tGtyIIGIGRUhztGGxn7",
"dxtt2%y;tkt5t2kxhthGGnGnIyInGGxGnGIG5GCRKCGuyKnkdxx7I^VhIngGQGGIk2pkxj*%p5ny2O2t2*jny%;%tptytpOO2px5xhy;yyt;5%xGdhtt,xt232txVxx3%52xdhttkt5x5yyt5xtt5kdtdyntNxkxGGIGt5GRxUVh^^InxGnIzCIUGxIyGCzGhnV55kxxtx%xntyCExxpdKKtICGGnGh5kkK^VIthx3tx3zItthVIIIGhxtt573tx",
"5t5%222dt2h22VVKUytGIxzxGGyxt2htknxVIGIGCR5KGxR23nhtIhItyGGGnG7It2pxp225ytyyyy52tpy2p%tty55Sttt5k%%pthk5Vy5tn5x5xV3hhx5;22dhi5nGx5;5tx22xy*%22h;htkkyx5tpV5ntxnGxIGIEVnzVIxIGGGxGnGIGIRnGhGhUIGGVhxxpGtGx5thItty5ptxkk^nCCCnnIURtxkGIhztVV;d5ttygREnhCxVII5GtGVt",
";dt552t%tt55%2GnGthhzIxGGGnGxgUCRCGVRzhzIIp5kt2x5GhyItdIyyRGxnGt5txk255tpydtxpykpytt2*t5ttt2252tkjkx2tdhydtd757xxVzGtx%ttt*%%77t25x25yt%55t2575ht5nnt552tkkp2GxGUGnyIIInVIGtGGn5I5UnIRR^xItyxGGzGGGGyxRKdytn2tz5tx5ntGxGIIICGnkKy5GG7ty7h5ix5n5tyUGIUGCnGGzVxzt5",
"t5%5t%2khyktkktyt5ntzGIRhGIIx5znGIKIxGxUykGnxtyG;zIh5ythKxxtGIthtpkk2%5tktxxn5ypnp5k5nk5px%jj22utku%ttt5y23tt2d5ttnVxdo5ytitthtipCnyz5xyxxyx55tttydty%n5nGdxxnpG5EI5tIGQVGIGxGIxIIIUQIRGnxGhIzIQIGxUIGxGk52CGRGGGtknKKnGIGIRgGxtGxknVGGVdztiGhdtC^CxGIxG^GVVxVtt",
"5Gk5ttttytkt2tt*5dttKVRGCGthGVyhUhGnKRnG5RGKkt5k5VVxNxhdtVNPndK2p2nd2Oykpk*ukod5tuOtxtkn5;tnkk2tnky55tkkn;5tkthxhn2G5yhy5*%t%pynnnkGkd2k235t253hk%ott5k55kxntkpS7zIthIztGICRVIUIhGGGRICIQGI5InIIGGVIIhEGdzV7dGiIxGGxVVNIGGkK^xGyx^IIIxIh53ztGtIGIzv7tGzvGCG^GnKV",
"5dyGjtp5tdt5t%dVt5GkVyx5GIxxGzyyGCGGKGnnyRxCjKy;t5iVhtzVtGkVVtkVnd5t5jxp2k2Gn5otptxkjput2k;nk5tdtyyyptyd5ntht%n55xtxCtt55%td2ttjnuGxt*tp2y5;%3yd;xkt5t5txutxpntGGCnGCIGIICIGGxnGQI^nxCCGIIICIzGzGIIG5VGVh7VitGGG^^R5iNENEdGIn5tykkxKIGnEhG;5It5CIzEIEiz7IGVVntIK",
"n5xntppt*t22p5dGEkKPGKG5t5htGIICIIIQIIKRnGytGxyxx*2dIxxhxtVxkGtdV*yx5xk2uyx2tVyxtuktpnxptttg5t5t52;5kuktkttydtntGx55tyh%k*xk2yjpG5txtttth555t757%;d5ttdxGnkkknCKGGGIGxhUI7hIGGnhnGIRnQVICxnRgnCzI5IItGnG7P77zGhVnnxkVVGVIdGVnxnGxKIGIGzd5UInzyzIGEhIdVEIxVVxhxxk",
"yk55Cxtt5ykdxttuidVVVGntxyzxRGRxChdCIx2tknjtntt5ndytIkIx5Vi5KxyhGkxtttynpyk2k;V;tpttpttutkttt5i52o5t%p5dky55tixy3VnGGny2pk22ttxnkuktdtt%%xxthy5h5xt2;ykytt2k5tGKG^IVnItIIzUCnRICGUtCKGnGI5GGnIIInItGxIIz5tG9iPzhtytxVNVxRItGIGkCxGnnQVGthzhnggxIzGGGGzVVI^VVUIKG",
"GKIxtknk22pp552t5VyExGGdy5dKng5xRhxxI5n5nGxtRIttyGCGi5GVxIdxxtt5tptjxt5ptthhttxx5uutj22yytkp5*Nt2o5tN55td5555ttdtht5xnxnytkp2kk2ptn2ttt%2ttpy5nxy;y5tynt5GGx5KxKnGxxGVtxInGIt2tGtIdh^VVI^GIGEtPKyxyIhzIxidd777Et5txuun5EIRKnKKznItzznGRtztIhthGnthtdMdVhGnGEGVtx",
"CKnGnGxxtpjut55nVxVVnxknGGtGy5gGtyGUt55tnxytnI5t5GyxIGGVhxEGGGt55xt52tkt5yttkxddutkttpOpp5ttk5x552tx*52yn2tdyh;hd5x55dVtxxt*n5xppt%2pxdd25;tdd5ytt5py;Iy5xyGnRKGnGxGGhtyCIxIht5x5hGEGhVVEIGRIVGxGtytGGVV3tzViMziu5pkxu5NgnkC^KxIGtVyxGn5tGIGyhyIIEdIyGVznGhIIVxV",
"nnnIGKKnCp5k*t2xVixG5KGtkExKIzGItktyy5nnnxgRGxUzVtddVGGIVGGVyK5xtktxyty5V%555kttdkktt%%p5t5ttxu*2ptkux2xkktx5tk5NhydGyhhx55xpxpOt2tpyttt5t2k55kt5nxntC3httnKGKGGxIGIEnGydzGCGxGytEGGkVVVdy5IGGKGGtttGI^nhthdt3dzVp2xkV5VynRGxxGGzVzGIxIxCtIhdthnGxIhG5zEthhttGGG",
"yGxknnGxk2kt5ktnd5t*ktKVxV^GxCI5tyndttth5tnCCnInn5GxtGdGVVIVynntx2ty5y5;yttx55t52utyp*t2Nttttuntpy5tG**tpGnG22nGxGxyG5yxk5tk2ppktp%tttjjp5ktkkk5tnxn5GIth5kInGGRzGRGGGhynInGU5tGG^xGVVVnVxdhVhx^nI7GhzhdtzxVVG73tkdkVVuSkyynKGhRzGCGGxxIGUGUU5yGhxtGzGVntIVxtVn5",
"ttttxkynx5t2dtz33%5yxVdGEtGnkxGxxGzxtGIxRnIGGkxGxUIICxxUInCxRtGtt5tyttyd5t52t5xxi55Vtt*t2tyyxyt2hdGxxxtd5xztyh5dthxVxIVhnnttG5tpyy5ttt y5td5*x5GxVGdtVxxxdtGRKKKKInV3VVkGyExxGhIIxEGIG^5nxGtGknxx^!!C5hnxthttdzx55Gntttttd75GGVVGIdhxGGIhIIGtzdInnxhGtthznnt57Vx",
"GytIGnRntt375htttdy3tG55tGxGxyn^GxnCnnnhGGGnIKnRn^IGGttInIxyyyy5pnx55hy555x2yhtyV%yttk55tt5dykd*25zxtVty5xG5yxztxhi5IxVVdxdtn5tt5t5ypnpyjtu %tdtyn5VxV52dntnnkxnKGVVVViGVtnVG^GGIKGVGVxhG5zxkitnInGII3y555xt5Vt5ntGxdV5t5ViznVMGGGtG5h0nnGzIhxhz3tVtRGGGUhGtVhVV",
"nnKxGxKtt5xyttxxyhzttt5ttIInt5tGInCIhICRgIzIkn3GVnnGzRGIIkyntntttxtxt5t5j*nyhyt2tttt25%2x55ypt*x%3tytt;hyx55hGIhtnG5VV5t5dx5*p*k5tttxkjptjxty;k5GGy555uptGtnRxxG^GxGzthVGVkEGGGGdExKtn5GCt5ddVVKxnGG5zhzGt5553hntn3yy53xhd7tzx5InxPEIGhIGxGIxIIVVIGhnGQIIIhGVV^x",
"RKCGGnKn5ndnx5tzthxy2t5ktyGtxGnRGhIRnkInC5xhnnhkGG^GGGnI5tt5t25kGnk5t55tp*t*nyyt5dtt52t*o5ydt55%d%xht3tyztxzdnhGyy2*xyn3tdt5t2*xkktux5kxj%tpytttxnh5dtktkupxxtuxEVKGxd5GxKxxIVhV^xVKhtnt5nG5t5KxtCGIzxnt5VzxG5tt3xyt;d5iEx7h5;VtxVGGItzICGIGUxIGGNP^xUxRhGzVGIVz",
"IttInGxxGVKIV5dtxtyyxxndt2z2x3VVIx5GR5d2yynxGnGGnxnGIxzndxkytxxx5hdx5tny5pntpkp5tkpdp22*2dx55**%53%hyVGxzhtt5nUynnt5thxn5txxptptj5xkp2j5dt*5kkktVd5yntdx2jkCG2t2dxVGEVd50GGAhG7tGGI5G52Gx5nkG5GxxIhnhUGzGIhIhi3hxxhI7id3zGtdzhhzxGxIzGz7hQnzIhxGGz5GnRC^7IGxzGx^",
"hCtGGGInKVVKyxu2557hdtVdxyhdxdGI^GnQz3thnyGGVndVGGRItnxtkd%gy5tkGthtn5nk22pOkkkk2txtytp2yh;y%t52tyhy5tGxV52xGRGhpyo2odxttuVVy2ttkxk5xtuut52tyyty5yy;npx5utGx5ptjxxnIEGxxynEI7VV3ynntCI52GzxxtxKkytt2hdnUInzyVyytGntVV7z9xtnxihtGhVVGVGGzGGnIIIxGxGtyGxGCGnhxGGVV",
"^RGCtUxzGxKGyn5ttxh%t;xxd5tdxnR5CnItChG3yh;5xhdVxGGIG5yVtd5VtkxnnIRtgyn5k2p2tk5dtttuttpjkkxhy5tp5t5tdddnGVxt5htt2525dy35*ujuxt5pkt2y5ttxtttxttxktd5xyt*ttunxKpCGGhGnkInnGGIEEV7znGnn2kyttknttnxxy5ynt7z0VEz5nGMiyIhIxVihxtVVzhxdtGztVIIVnxIQIzxIxGnIGGytztGGGGhG",
"IIGxIRIh5dGKVtt5;55dt;t552h5yn5hR2GRnyz2VdhynGtynnGR5txkdxtxd5GGCIxykyxyyj5%ktt5*y55ptO*xntg5n55%t5;tdtxxIxGnxVGCtyk5d5tun5k2252dtpyptk55x2tk5tt5h5utn55n5kxtRpndIGnx5xn7ydGGGI7xtxx2tttt2txtk2nRtzzMVEnd73IzGtdxhnttdV5573t5xtxyzthVIGVIGCGGIIGGRnnGCgtIytyttVG",
"CIxIt5GnG2VkGt5tt*kn;ty5n,ttyhGyVVGIVtdGxit5xGkdtIIUxdyttdk5V5IkRt5tydt55tkttkttyk%*y%ttyGtyk2t2yttCyxnxNGGKGnxxnpCntxpxdpk5OCOtpttnttkkk5ypytttttdtdxx2;55dIVGGzxtytzIInzIthnIxyhV5hhd525pG2tjRGntnykxxVzIIzEVitGdGItx5VGGInktk5GzNnynGn^IxxxGGIIhVURnKy35nhxUU",
"hUnntI5ntkxVnn2p5ydd5th5535yt2ttVkxVdVxdxxxVytnxtRRttytntudGVRnGGnyxxtt2xd2t2tttpntk%t2hd5t5kty5kn*pxxkkGtGGnxt2tkn55ttt*pttt52kty5xyt5tpjnnpt5tttx52ptx%yttVGVGnt2ntnhxt7zthttGItV5G5ntGntttk2xy5nx5txG5GxEVzhtVy5xI3txxkIxdxttnhthtnKIIxhhV^PPxxnnxRKytIyyyt5U",
"G5xnttx5x5t3n2k5xx5tdt5t;ynhxhVNt53txxtddttVyVynnt2gttttut*5tkKxGt55%xk2tk2p5dtdtthyhntzkxVnntk25y5Vy*G^txnVRCnk25x5k5ddp*5nt5t5t5t7py5t5ptk5pptt55t52kpyhGthdxVdnGtyGIknzxdxdxGIxtt7ttGGtxVnG5kttnnnnGRV^xIh3zitt5GtV5Vttx55ttxd55dxnGnxGIEntyVnICIIItK5xxt^nG^",
"nGGVGRCnGtxnxjktVytnthd5%%7t;5d5txnt5dt5ttxdiVttCxn25ttttkt52VGny2hnutttxt55xk5xy5222t%%5th5V5V5%yixdtn5tkuGxtGtuttdtty%22tntxttn5Oyptttpttpyjt%tkty%ttktxVz7hh5555tthGGzIy^V^n^I5ytyVhGknkxytS5ttn5t5GhxxRnVtNz5ztx;ithxVVt5xydtt3VGCnxIhhzGyG^^CgGtktCUythUGxG",
"GIGGznk5txGx32ykxttk;t;*o7hykx5iyhyn7xGxGy5tz55ttyyyptxhx5y5t5Itkxhtttk5kpyykk5Vp5tkd5d2up2tt5pxt5hk52tt2FSCkt5txd225t2yx2*2t5dytp%y2tk555kxnppt;n5253y55hnthv3dx55CIdGxzzVhxtGdGKk252u52Su5tntutt5Gx52tthV5hVhtzt7dx3VVtK5txyC5zGGRzIQIIt7ddGInGIGIKdkyxGnnhxGG",
"GUnInnnththnx5yGktxGxy5;7dd7xthnt5hVt5tt5nxtd3thtyn55p5t5pt2%xxxnGt5kkx;%t5ttkxtxGtxx5yx5odnd5ty5xxdxt55tn2yxtypp2p5tyy2pp25yy5xptt%oyt*t2t52pt25dty52x%txxtVhzVyk5tVG5GhGxnt5h5nnnGpk2tkpk5Gkt5tGnhtt25355G5UtGt7G055N5dx^kIUhyEnndUnInhtI5GVRItIzGCI5GttGGGxGG",
"IGItyGn55zItytt5d,G5zGn37hx5t5xitkxyhz5dt5xtitxttyndC5pxyk25hzxxnynGn5nx*tpt txxtyxx5kx*2%522jx2j2nyxptp5kktn2x55otntxtCp2*uykkpt5yyk2t55tt2;55yy;5y55%t2tdth5thxtKnGxVVtVGxGnGICxn5uuGtN25tknktynGhy2tt353VtdUhhh77tVhixnGGxxgytVGxtInIVVIxId5ygIy5x^Gx^GVGKK55",
"ntnyktktdtdtdx2yxdVdntd33t;VtGtzd3tt35hthVh5t5V35ytkn*%%%kx255t5KGtyntk5txt%p%xtxyGG5kxyx*2OkGxkpntGytyptpkxt5%tt%np555d2*2ptpttyytxkt%5tk22yyxxx3nty2ot;53dithV25nGx5G5VGnGVGxGGGCRxknuu22t5nxtnC5x2tt53t;Vtx7dhVIhdM77yCG^IIgREVG5IxxnzzhUnIQGgttGtCInSGx5Vdny",
"5y2xx2gtdt255tnnGxt5Gdtkk52xuk5GhnnhhVyhxntt7ztt25ppkxkttdtxCktnInxGEVtnh5xkk5*t5dVt2n5553hvGtnhkkxxt5t5txGud2t2kp5tyyttn2tttntyktktktt5t*dpnx5xnxx5525yyt5xhdkhGxK5xtGntRyGRGxGICxt5ttkt5ktpp5ntkG5xkkknk5kxtSttnICxUnUGGhnGIgIttyyGthG^xnIKttxztxgyIIGz!I7tydt",
"tt25hn2yy5xhtnt5ktt5ny5dd5x2tkpKyGdxt5dhddGIttht*2toktk;55tnCCyxGhG^Kk5n5d55tkn2xV53dtnhhn7ztt7Vxhx5tyttdtkdk;k5%ny5xpxkttp5dntxpt5utkyy2d2k555tdk5y;tyd*;xt35nxnktn5y5tnxInInxGICGtyIy55t*t5ktnxx2xGn5yxnnGRk2xGIIIGII5nIGxIhyztzxtdtd7ndVxpdkVIyCgnGEtnyn5h7Vx",
"xktt2ythh5hGnyhRVtyVkn5k2pnqkdkVthnxtzthttGgx5xd*nx2tttk2dyx2yI2VVGxEkttyt5xxV5tzyGGt2yn;22htxzh25*kttd5yt%p2ty55%2*pyp5kjttttpkjtjtppx225tkt5yy5255tkdxty*udttdnVdkntypnnnxU^^GCxGnnxxxxtnyptKntx5GyyGz2txtnnGnIIGQUzGxthnIKGxyhxhh5ttGndn5GGpxIGxnGhdi7thxt5dx",
"kx5yxytdzttVVxtR5ktknxtyttkkn55y5dz55GnthnR2zn5t5*t*22t2kxyxyygxIVGEVVG5dy5ptnGny5nyGhVd%7td2ttN*2%2tdd2%5t5%td2t22t2tutttttt%25pp2dn2*5tt5y25t5%kndy5t%5%ptthxyty5VupkkG5VVGCIGVGGG^GRt%tkytpxnxhnnx5tG5tkxxxG^xInRInIydtntyKRyd5hhIIIGKnyKEGKxCUIxGMiVGnxhGdtG",
"5Vkkdxny3h3hxnGht5InykxGxyt5tkxtGhnG5GCGxU^NNVxitk;55kx5tkktxxxGtVGGnG5yGxdndttGxVVt5hn5M%7i5ht;jO2txkx5t5d2tyydktk*2ypk5kjkt5%y knpGpkxty5tun25k55iO*2tttykxtkn55tk2p55V5IVVGV3xGtxxnGx5y255uunVtndd555knkkVkpGIGRIxVKt5htCthGIIIxnxNGVIxxIGGSKn7txNGV75GtnGGxG",
"ntGxG3thtt;hy5yxGknGntkKxx5tnt5yIIzGGxtnxIxGGvtzk55y55ht5%5k5t5Gyznht33hKyVtIy5yVhVnIhdVhh%5535tg5x2yxV5yyy55ttyy52**jt5tpykkdttkjGnn5yttkknt2x2yyytjtt2kdjt2xppx52tnujktGdxGVVdGGxkRCGtjt55pp2t5VhdttGtntKnxNGVGGnxVGxIxn5GgGGIthtIIzGn55IVnGnkyxtVVVV5Knx^GxnR",
"GxId5GGh2t325R55GRGxRxkkGItx2ktkntnI^nhytthxzV,75tntt5t25xyxyt555txVtGVhIUxNGKtKGG5tGG3tz7;xx5Nxktk5yy5xx%tdhykydtttpttytxy5t5t*ptnntnGp5xVtk52tkt5%*5k;xkk*x2pttttxx2nxNzInPz5tKG5G2Stt%5xtu25td5INnGyxNptnpxxtnxGGEidGt5GynxGnIyGGGzGVKVnUnnntxttNiIIVRGnCGGIR",
"GG3GdIV5xnhtxkCnnGnKnVntnIxxtt5GtC5tnhhx3VxtNGVdtnxnttkk2kktntnhddh5dxhGI3IGnGGtdddxndhyh7xVddthy2kk55y5xy5%ttxyut5pktpkjpp2txut5uy5yt2ptK5t5tx%pkkxt25tx55pC55tx5xxGpudVVnhIIVd5CntSxt5p%y2%ppGxGVxGtnntSGGxGnttzz!NhKKInh5tyRUnG5GhGGGxnG^GxkxtGtxVGzPnkgIIRUn",
"5dxGEIGGdtKyG5kInnCGGGGnyxGxV5GGnd5IVGIx5IhIVxICnVk5nt5yt5ty55k5tyy;xx5tKxitGk5Gxtntpt2pdivhd3t%ypxtottuttxk*ttutpdht5htjtyokkt5tkytynt5VKytxpy5pxy255dktyGt2ttkyn5t30VVz^xVGVzEttdtt%%2ktt55ptn5KGRChhhKtCGtyCntGt^GnKKGV5ndyxxRUInynnyIGnxntGttGh7vvVPGtyGKRRx",
"nhxzd5thKkVktGxRnCGnGzGGxtIxdV5VVyhx5zxnxnnGEtUtVVtVVdndxGnkdVtyd5;3kxd5ixktx5tn2555j5tk7dhMzh2h%t25xukd%2tpddttk255tkktk5x;;tk25GxtkttttKGt55kpkjy5d5txxtpd252ukpGGh5z7VVGVGhG7nV5yt*5yt5Cpt5xpxGnVnIGIpKtGnppunGnS^nxQxyd5kt5nxIIRG5tIGKxCGkttVtzdhVGhCtxtn^yI",
"IzGnnnttt5V3tGnQhxGnGCxVxVtV5nd5UyIddtGhUVd^xG55KtGxx*5thx2ttd5it52hhn5yVtytt2xxkt*p5nuxzziVnhhhtyxt%5555*2*ttk5%5%y5yyhty5kkktt5tx5ytxntKVVndy2k%V*x;5xkt5tntjx2d5nGnGhhINGGtxGxyVGdxtktt*td5nyy5xtGUGxK2nG5nxnxnGGpR^SKktx5xnGCInzxn2RRynptyxGM7hdiv9VKG55nhRx",
"IIz5hn7ndtVtt5tnGGIxIyzdVtGVGxtxIhI0tn5ttxxnxV5RNdyk5255y25kox;xhtxhtGtndxnn255nu2t2t2kt7Gh703z0xtk;y5tt55x2pk*2*ttt5ttyy5tktkn5C2252hhkxKSkt5t5kxpd;5ttpx5*y5kjknGK!zGGVEVVhhVnGnhxt5nttGtpdttnt5tn2t5RtGRtptGynGRGGnGjIGKKxGCRIxnytC5KxtKtttKK!v0MPAVdx5GnIGQU",
"IGVzVEV2yyyVntndIGnnVz53t35hdxyVIMGV3V77nnxNGd5yCp2tx25,2t2;5zhytttyd55PRypt5jp5G5Ktnttkhttx3dxt5xdtx52txt5xnn5y5%5*k5ttytkkyhtx2%5k5nGGEGVEkkkk*dx5yttt22kknpxSpxnQIGhG^PEtVE5GIUIItGKy5GkGtkkx5VthG5IxGKnx5NntynxnRtnnnkxR5nGxtInhttnytnn5z!Id7hVPVVGvd3VVxzIR",
"dh7h5Vthy5G5Gz^nRzIKIVitxhhVtxkVGInz5tdVxGhhVkVknx5kxd555yytthhtGtztVt5PKnpykttypptkVyk5xtVyy;yxdxdhkxtt*5xkpkx5pty25%;ty55khhttt5tpk5xnVdViNGtdtyxpn5yGtpddpttttdnGCIxVPxGt5GGVIGnxdIG5y5GGxt5k3t2x55nGxnRkSnqnkkKyG5GGktxxx^^xxnd55hxndyGnIGhGGzzVVIV7tdxynUxx",
"tytdzyxE5ttnytxI0IxIP5dzhthhVxxyvE7zhGVGEndnGGVxjkd5yd%xt5y5hxgnd57zhhEExt2xCtykyxknnG5yV35dzxd25x2;5x55y555j5t*2k52*tt53ttxdtd%5ytxx55ytPPVdhhixntyx55xC*tytypStktRCnII5kthGd5zGnV5RdRnyVtxxnGGiVytxhGKtxKnjGGKdnhGIx^GxnGxGGxdt5VNtIGR5y5GIGGG5IdGxP5Vhhd5Gyhh",
"VVihVEG555VxKnzIth5t^hh7hhVhtxVIVIIzIdd7VUIIGnGxxxy5y25d5d5h2dn3thGUhVhxxy2ptGKt5xR5Gntyd5td5hy552t%%t*t2dt;p5xp2k5y2tt5ttd5zy2;;ytt5tt5tV^VVN2tjk2pxkxtpk5d2u2k55xnR^xUt3xVdnhxGnEGtnnn2nkttVGyxtxkdn5xnpnnt5SGtttnntnCnIG5VGGVdnxnxx^n2tUGhzVExGxGdxVt2xi5ttzh",
"htVVIQzI5ttIIhthyK5KGx5k5tnk5G^InGx5n5GyVIGIht5tttnytnd5t*dt5d2nxt5k55hntkkkGGndptt2Vxd5tt*Gt5tk2t5nt5t;25t;xyn5tMd5t%t3dt5ky5%%5tttkt;dPxVVhttx2knd2ttnk5kxtVk5ixGxttRtt37v;Vxx!QIxGGxnVtdVthhzhtthtxx5ktKkn5Rnz3ydytEkKGxhIhUGGttGGGInxhIVVVI7dttz5kk2tt5kjnpt",
"VtVEIxnInxtIxGhh52VtGVk5ytSptnEnRGUGxGhE^G^GGxKttk5tn2k2*25t55tiG5yn5hx2xtyRuNnuxkk2kV5t5td5xpxxn2N22ktt*dy555t7dt27h2dtykyytt3xxu55tytVVGVVItdyydyy5yx5ut2dknt2txGnyIIRt3VxxVPIIGxUhU5tVttyzGV35dVxttVkkKdVVdGxdt3yxkVEKGGGGPxGhnzzIGUG5tIInGvhiVViynt52xS2552x",
"U5hvnxh5IIzIUnGIjKkKG^GGGK5QnxQkI^GxIntUzVIGGtUnttxVk5dttudxtt5tnt5GnnzGttttSnttKtkttGundtGVy*nntx*u5t5xVd5td7,xG7idVNz;kttytttz55k*t5thG^dI^E5zkt5hh25h2SVtnxxt3xKhtIxGtdI7zihnItIGt55VdtnxzV37Vx5zkkKy5xx5dnxtVixztRnnd5txVPIzGIVhIKG25yhhxVVGyGU7yn5kppntSnn5",
"ztII5IhtIGGnGyzhGtG5xtdnxKnnRnGknxGdxGGIIzhhGynn5Kxd5yt2d%52t55ktxtG2Ch55x55Stnttpu555u5x5nkyppy*kppy5x%5*%3t5dVhhzixxd3%t25t5;2tVxkdVtGEVVVhGGzyGnnhohxxnx5tudyxxytnxVGGnddEhthGdynxUUzd5Ix5dVGVnGdytxxxnxtVnGnzN5GnxGK7txGVnIGGhhyICInznIGVGVGdVh7C2n2tt5txGnx",
"hGUnGInytxtIhGGhGknGtI2IxtK^nGCGhInt2IIG!hht77V5VtEt,5t;y07hx5t5yxkxtnt5GxGj5tkutGyxtptn*tyxty2O2kpp5nx20dhvdVN5tVVh5k*kytGd;dV7kh2tVVdGIIGyInzVkKRtx%%duGKd5t2x,dhVtItGGthPGtyxnh5txGG25hhxdz57Ixtyhtn5nIthVGIEvzhxIGxhtMnVIVGGytntCzIxzyGGVExxtzt5htyG5txtnGpn",
"hGRnGxnxh5htIxGtnKt2dnItytkGGGjxhI5I2ndxIIzd7VGh5IEGdhtt;hh5xhG75CCxtx5htRGntynt5Kx5kpd5tx5d2g%t*ukxtGCSdd;hdGGVIhihd5*525yx%t5nG5txyGVGGIGh0Idtxyxntd3tdxxVxtp5zIIVtnhIVGxxdh^hnnzGxICIhGhhVzGn5xUh5ttyVnnhKkkxzIdzGGIGVGGtIGGGGxII5QCGnzGGEVV3vhttGn;txxtkRnuN",
"tUnhnzyhyUhxIxn2yx25GIhtGyxKxpkxhGnV5x5GtynMIG^xxIVxVtty2z33dy5hxGnGxxCt5GxnkytnytGx5xNu25t25hjOut5x5tkkz;7r3ix5t5hG5VVVk5xd527hxxyGGExnInGhnzVGtnx25dVtKtGKCd5dVVzxGIIGPzIUIGIhyIQntxIhGxGhthy7tGytnknId2idEGVVhEt0hVIhIdznx3tE5GIGxREIIGGGGEI7tx3tnGyz2k25Gxtt",
"hCdIIGGUyGGChGtynt52kGhGRGdGnGtytnhGzn52htViGGhIIGGVzxdtVhzthhtxt2GUhdyn5xn5t;pny55t5%xt%55ytytpt5pnynkkzyi77VhIGVxnxGtk5dxnzx5xVKnkh^IGCURGGhi3555tVhiNVVdxkpkttx^EzIIUGnEUhIIG^xInGGGtxtztVIhtGn5hCyGRxnhxxVPxn0GhiGGPnht5hihGI^ItRnGIy7IGGG3Vz5zVtGnR5dukduxx",
"xxtx5Gnz5tGIty5kt5GG5It7KKtt5tGVtIGzt7N53VIt5IGzIGIhhzty%3t7thhUnKykt2xGVIhyhthytyddh2ty2%t5 2tptd2kxy2jhy35GxGnVtk5t5*kVty2dx2VVGxnI5hhVPhIIGhi25hhnnVt2txttxtxGGGGGE!VGCVRy5xVIGKkRn5txG3G5hI0SNGtdVxtxdknIntGnxE5xVIxxhtVktnGxGIGyInGKgCGIVxGGyGk5xCKVpxnnknx",
"tIVCxI^ytyGxgtIjnx5xzhh7^KtxkIxVCtz77hGxIUhzzt7tIGEG07G0htz53xVzRnttxxxGh5x75Vtht5yd3y5t253x%5ttd2txhtjjhdxd7zQGxxV5kktd5xxy5tktkVGGIttIIzPGIUvvny5xdn5Vkxn55tynIEGVzVGnInQIKn^VIRkkCGRtV57nhIIh2k5tG5yxxRGnGntkt5xGIIVIEtxyG5yxGxyhtGn^GtQ5xd5VKkn5yxtnxGGGtpxn",
"tVRnInIGGGCyhyI2Vx55ntGG^GRGty5n3z77thnI;I5dyyU5thzdGy5tht5xdhEVtntGV555nthIht;xdyV5;;tx5tyyup%55%2ttnt27hxhdxzIVtNVnV5ttVh5zGxktVitixVGVG5VnVdV55hxndVkCGtxxk2xVVIhdhnVQnGGnIGnCIGGIynt5GGxVMGtyxntp5yttkGGkttCVxhCUNIVzxVtK5n^^G^IKCIkyCCR5EKGttxxktxkpnk5knxt",
"kIyGxyIEGIGk7hCgn;n5tt7VkxKkxdd5nd7h5htynhIthhUhyUEEVIUII7zy0EVvyyxnkkttt73hxttyto5%%t%tyd5xtttpk y5kyjg733d5ttyKkkVG5n5htthtxk5xI5GdInzhIEVI7VtGtytEVx5R5pxttxt3zizht3VGRnKxI5nnnRnnCn5Vx5tGIGCpSppGnyxyxh5tk*2ynxhVzhV7E^xIGGxxnGGCGkGGnGIxxnIxGxttkku5k5n2xnn",
"VGVIzdGG5tKthtG2Go5;7;GitK5G;tidx55EttGhhGCG5IGxhznInIGnntd5V777dxtkyhIx7yt2h5t;t5xxykhttktt52kd*%*ktkkj5ttGxtxxnyxidnx5tnyxpy5yxGGGVzxVztnGRtuxkVkV5VGnQkt2nny5txhtt5zxCGttyGnGIVIIxtInxxdttVKKnCt5u5GyGppntt2SzytUd7t5hPMhnxxR^VhPIEGGxGxxKEVGgCGydtu5xxknGptx",
"GhGthzxUxV5txnGzV2%2d37xyVVxIxV33t5xzVGGG!GzIhInIIGhtnzU3hhddt7dV5yktVVt;25;y5t3tdtykpx52yktpt222tnxtt5KntktGxy55tdtxkdtdd55xttxznnzGIVGn5txRtpuk5KKtKKkGC5xnnxkhttxt2xGGkxykUGGGhxGIIGdnVtxVxtxu5py*txtxnk5utttIttxVNzdV7VvGxnGKKV5yGnxtyynxkn5ytk5nutty5Rtxnxn",
"VGE5ItIhzzy5tx2xG;dV5I5xVxtdh5xGxxnV5VdhnIGIntGxUxnGhGdy3hzVihvidth5t5txh3txdtVo5xkxn555tt2dxtt5x5pxnt5nx5GtxxdVxx5ttyytttxdNukSIh3GVVGVIx55G2*tttxdtVttGSkGGpdtz5xntthxInIKxKxGItIVGEKVnykVttdttxyntktu5x2pj2ppGCGdIztyGGGiyxxGVhIhxnnGGynkttk2t5jyytxttKVk5xnK",
"tIVd5dhhx352;ntGx ;;;V,*5kx5tdtdhtzVzdGtGGGCInCthIzzhGnxytt3hzVtyVnhx25dtdh5htdi5dt;k22tttt5xytkpdxpt5xnGyGIidn5Kktxt5xtkh5dNntnIGdVGPhd32x2Gxkdx2tGx5nG2S5utttthtt5zGGxxGIRxGIGxxhdGIIK5kt555nVxtjKC55222pnjj*t55G5nnzd775M5ttRxtVVG5t5t5dnkty25yjGytnGknKpdG^^",
"hhttxGh5kuut2n5V,t;kkGkk5nG3N5tdxh5nx5xkkCtIjGnGVIGIGddd5xknhtn55tykt25tt5nnthxtttxd5xtxjkpknptptttyytdtjKV5tppnxnn2tn5ttnVVGkt5xxNEGGVVdnCnhy2;p5Gn2uGxxtxx2tx5tthGxVGIIUntztthnGxnRRSnxn5ytVdtynknt%2n2kn5t%gytx5ktxhhxGxpCxt5ktpxxKnptttGh775xt5GyGGC5GCntxKK",
"IxVIdihV2*t5k55*xk5*kxxx%iVx5;IxV5knnGxkjxGRnCIkxGGEGVtGzt22255xh5y5kdyyx2tynxhtxGyxk5k5pkj55pxt2t555x55nNRnttRnGCk2GKKtnyt5ukp5dh!GEVxn2Gdnyhhxyjynxn5nyt2px5xdtGVhtVGGxIx^GG7In5jt2tSCKxynxx5d22xG5xkk5py2j2t5thknnnt5pt5ty5kt5dntt5n2ytyxztd5yyG2tKnGGQRnGnxE",
"IdGxhhGxGtC5xx*xx5d5VtttGVkix5Gxd5d232xxnKGGGkykhGIIxPIzx5;x;x5tx2y7t5h55n5hh3hxyn25%5ttttkkxpytttukdn25pnx2Gk5K5knCkGRnk5;tGnpt7VzzxtxzxGd5GnxxpGkGpnK5u*k5GttxtyGnzItxIGhIIxIUnnxp5tnpt5dktyykknknix2ukt2tCxythtxttddtpxtnykt5Gx5*5Vty5ndtVVVx2t5IRCI55nGGGGGh",
"VxxIP7h,uny5kN5pytG*5G;tNkk5h3nttt222;55yyCppt5hnzxnVIItthkkyttnhxdhxkk2t5xt7nhyttn5y5t5nptytk5ttx5txddxdnGnt2xtxyppjy52t;tdKd5tVEhnntdGGyxytGtidyknjtkt5ttt55xp5ttnGnh77zIyIzzU5pypttptpkpyy;x5knnuyx5*ntGtyxtdhhx3h55yy5t2tnkxu5tpt5knhtyd3hz5n5nnGnCKKRGkkttx",
"5dU5h3Gvp5kn*GpkhnVh5htV*V*,5t;kkxIdtxPdK5tKIttxyGnVEhI522px5Vtkyn;35;ttykty5kx5xx52k55tptt2pp2k52kpV55tt5nkttxng5tn2xnxn33xnhdGdVdxtUVGVyxVd5d2pGRCtk2tttNup%tdt5ky;tV55txhVGtExdppxntp2pp5uxtGxV5kkntty5RIyCI3x55x5ttttp55kyxpt5xVtttk;2523xG5nGyICGKGxith5kty",
"hhhG7,37G5xnkt*G3oGt;xVV2k5Vk%%2xhdxG,iGyIxxxGIGIVGhxdGxpkptttGtt73h2y%52txk*2xy;dt;5kuuyytudtt5pp2pktydyjk55GtGt5pp5yktxh5GVnhiGyhGVt5t5d5t2t5yykkk25tx%txk*t**txk5%xtt35ttthyd2dppd2ppnttjxx5nVtxx5xGn5Gx5t5I5ihd25y5hn5yt55py5V5t5htt;ttthddhyxnGGtKxdhVVt;*y",
"%75ItNzIGxKntp5pVh5Vth;GxkK*5y5dxth3VkxttyhI^xUIEGVGVVtVjtntk5y255h;5td52k5yk25*t%5;2pku2jtkktxp2tktk;txdtd5ytxxjxG55nn52o%5tnthh5VV5txzitxythxtp22t*tt22p2uxp22k5yhtttxn7idtt5x5y5tn5xxnt5txnttGEGxxkpxGxn5txGtxzdtdx7t25tkkxt25x5tt2;ny55t5t5GRIIGnGkk5t5t*5d*",
"7t5hGt7zkknK5tNn;35d5ddhtKd225ykV*;2V5KnyGnGGxnVhEtxdx5hjjktkx25yy5xt2tktyx;2tpy;%t5kptpktjp552255ydtdKxkG5tttxty2Gdxt5*%55thhixhytIGnI7t55G55xdp*odx2x2t*%pttk5dxkxyhxdt%2txGt3%%;5kxuGn5utx55IIInEKtntxktty2xyVVdxxtnt;y5tn%25d5x5hd;%5di5ddxiGQCttGGkd7G5oVt5",
"7ttIhGG!VznVk2nG;Vt,2h%72xhhohtt5,2;ttxxtdhGVGRtUt5dVxtyppt%*5k%tkty2t5y25pk55Ok52tkdy55tnxt5k5t2ktxykKyttnjtxxxxxGnn3txt%d5thxVE5u5nnkt5xntktt255pp2%npty5ddyt*hht5yt3;532x*x5xp%;%5nykkyxydGVkGyznxxGt5ptt5th55Ghdzxt5htdtd2;25x^VN5y5t5t5ytzVVKG5Gtytx3*GtdG5",
"5n,n2IIht3tdGx2nyVtxn;5nhd;z22;tt5okGI2nhIhUzGGVn7nVny5h2222ut2th55y%t;%qx2t*u2t;5*t55dytdytkp tt*2pGj555yttytdttyRK55tdV33555GzxKnnt5yy5n5G2tt5k*2t55Cpkd5i25tynytt;xtdkytkt5xkttt2tj5ndxt5kVEkIGEVVxnkt2nxtx2ttVxyyCtVxtt35;;5ynVyxdhdhV5ttxdPGGtdVItt;t2G5xx%",
"33Vn73tdV;y22n2txNx,nGxxhht7d;hzk%Vt2nhyIIIGU^GVnnx7txkxkj25p*2xk5ptdt*tu5*d25putty2%k%ttt5tttpt5ktt5ytnnp*kxxCykyn2tdtxtdyktxtx5xGGGuyp5thd2tx2pyy5y5pktx5*u5ydxyhh3xnh;2xtkkxtxyjtyx5Gt5tn2GVI5txGxxCtt2dttxygtx5nGx5tk;2dt; GKGxItV7V55tx75hVV5PNxdxGhtnydh23",
"xGnGI3GVkKIn5nkGVGV*GGndGGVhdVGGGNI%ynRnRVI^GnhGtG^Rn5nxu52252tpkx*ydk2kukp5525ndyd2d552ty2ttx2kynpxdt5dxp55CSk25nGnVt3ttx5yx5nxttnnkGGdnxyy5txxtkn5xkpkyx5ttt5dx2tddzxx2yddGGkVnnx;tpkt5VG5yxVGddyInxnyxxpxtynnhtxVt5R3xttth55kItPdIyhGGtVxzVtdGtxVdytGGy5IGtnt",
"5IhIV7VIyknn5x5yNhthI2th7dhnzhyhVVxx5tnnytIxGnnIdIxtnntptp2xkktnkxn5dtu2*2kt*t5t5Vyxttd22tt%k5x*xktxt;ttxyydytGGnnyttidi5tnxGGtInxKnytyx5GVdtG5GKGtpx5t*d;t*y%t2tktotx5Gt3x2dtVdt5txtt5n55VGy5n5t5xGGy5xkRtxhhxyVGxztVGzxxky5ktk5GIxnEtd5yGxnyxxkyGKIx5tUn5zxhty",
"5tddz3thxxGdx5G233dhV%n3hnIzhhhVtxx2ttGGzI5txGI5K5GIRtptxtxtn5kuGtnd%,t2pk2ptttdty5nnykukn2%,xtGxnxtVno22kxdKkGkVxyVxdI5ndjRCtxRGGKVKkxydttttKxyydnkVtno225x22otty%dxtytdt5yyt5VjktKGGtGGd7htytt5tkyxxnxGKGxCxntxVhtnG55ytxkt5ddVV^UytyhknGGxGRGk55tGGInUGUhxxdh",
"yG3znVt3tt;tpKxy;hx3V3;nznh2%GyVhi3GhxKtVItI3IhthhGhGkxnxtttGKNxyRKtx5ut 25ttxtnt555*tuptt5tk5GxxxI5xt3dtGKVIxn5GxGxGVVECCGn5kKGRxIyynG5xRtnKIxGKGxnk5t2tyty5hkt5ty;%2tt%25y5KVxGkkthtkxytndtxy25kt5k*nkxI^GnIGINGytntn52xd*ndx57tGIGdMGGIxR^^GGK5nVVhyIyGdIIzhh",
"ttVhxGxtkxGdkd55GxyoGVddG2h3thnz0;xh2txd7Ght5xdtt5IIGxSKk5kRnxKk5xGndtu5uttt5ttt*d2ty5p2txhkdttxkCC55V5typKxG5GkVV^VGV5VGGRnntyygGnRGQGGGIGVx5RGVGGKntx5d;kxp*t5;55kkhyhxxkyxGGGkGx5tGttx5nyytdhykjkxtktIV5yIxznG5t55tdtxdtkn5xxzInGnhIGkttxGVnyx5nG55dtUxhz5Idx",
"zyiztyxdtyGkxI5tktVkGxGnIGhdtIn3dnGdG;txtxihtik5GGGGQRkCnxttkIGxIxxVt2;td5tk5xttdk2kk55t2h%g2txxInICRIGIxx533yhdCIGGGRCIizGVht0hxnnRGIGGnCGCttGjnKCxxtt5*d%;y*px%5xt5xztdVdtxIUGIGk5xIyndxtt5tt5txtt2yytxx5kCIUR^dnIhtdxz;7y5n5h7hiG!zV!z2xIChIICnkt5IhC5xnyt5I7",
"dGziUdxhIy5thkkkdxttkxxk2;todhh3nhtx23V;kxx5d5;2xxk5^nKRRICn5IGnRI^n55yyttptttktpttkj*kVt55tGtyktzGghnzG5InnGh7nURGyUGnnVVVzVMzhn5htIChQUUxICRGyKRGhttkpttn%kyt%yxxtnhnh7zixxQnIGGkGy5hx35xt5txttnttxynt^RdytIIKRhnVIxdz53735tdN7thVGGG!RkGCItxky5kxhhnt2UIttttI",
"n2z5V55nIxGdtx5x5Gt5t2Gnt23;2xztdxG2h;d;kkttVGn5yk5yGGkGIGKGynnRRCK5d52tyyxttp5xxnp5t%*VhhdtnydxnIGGxGnxdIUttzhVtQzCICnnvVzIGGddty5xIGGGRgtnKt5tGhVItkdxtyk2tyy5y2dxyVt5ht3dGxxGIxnttyt5VziNd5dd5Gnx;ynKxnxyyynktxxIGUE73dyh5ttViG!zUzGnCGCCytxtkxtdhxkx55y7ndGd",
"ynthdihtyhtxdxxVxyGnC*nnzdn5VV2n;5ntt355PVtV5kxkVt2GdGtGICRKtynGGnGkt5y5x55t5nkkkG5t55dxxhhhnynntChnG7tN5dytnh5GhIIhCIIGG!IznhzinIGxGUhCxtxIGttnGGGVxntdt55tktd55y25txd5xGttxyGnyIzthxxtxn5t5yxGGdyxyRInkkjnRyGGz55hGnihnG7t57xtihIIIzzGnQIRIj5KGkktGG5nIGxnIhyn",
"Gt5KhzGGhE5dnnntGxVnKx2d5V3GG25zzhxt;5KKkdydkd5t;tiV5G5NKtnnxGxRVVGkznyInty2yky5txx25txky3ntdn5yxhyxntyhyx2h22tdnGQQGInnVG!nGtVdxyGIIzGzIx22ChGGGGIVnxxtppjkkty5%td5%yx5thGy7hthxxtGVV3nxyxtxyth5dn5CxxIkn5KUt5nInIUIGhxntttdGxzxGIIUhnzGRty5htVK5x5RRGCht3nztIh",
"kkt2GyIIUzhdyknyKtyGd2nKthGtxt77x53t2;Vhx5xPKtxnd2*i;tkVkGxkknGRV^IGnhn552h2xnxtdtdkdxdxt5ytnxtVyx5yhxhthhtztnz5ynIKIzGGhPAGIt7I5xCRIGGzgxxtCktVVVxtzixtjn5ttpt5tx5t2tVkGU3thV555k5xttyGxGGVxnyh5VGxRjCGxnxdGyyy5thhxxxdtnyGz75IGnGxIIUnKkxt33yxtytxRyxC5xG5zzxt",
"yk225tIxInGhtnKyGyttpCGtyGVG5hthdh3GtxiVkK5dxExy**,*xxk5dtkxxnI5t5ddVhy5xd5nV;k5kxnV5GkV5txdntykt5xd5dz55VhxGzhVnx55InxUGGnz5h7znIynGGnIRR5nGntGV0dn35tyt%%ykx%O5knG5xKytGGIhIUttyVVyVykxxn^nzIIGIInGSGt5pkCxht5IzItnG^GhtIVzthdxIUGxInIxx5ktkn5Cyyxtn5IIt3x5Vdy",
"yG55tht55xGGx5IIGx5GxRntykytGtdIVxVx5t,3ktxViVG25dd2nVtxkpyxyGIGttxVEVhGtt3td5GtptnkGtyttRtn5ttGn2h;htV5dnxnth7iVtGnUGIUIyzGVtEIGGhI7GtGGGQyGnxt7hzdnt2t2yx22tytt2tt5GRynxzGGUztG5xttyttyVtGGGGnxVnURku5ntGtx5hhdGtyxxRGnxGnzIUChzxGxGz7tdGxyytyxKVGI;yhdGt3;2yV",
"nk5GxGtGGz;5VItkj2Kk2kxGyCkxkytxzxi3zdGyd5tnt5dtd32;dxtzRxnR5npGIhtnxGhy5y%ktxndpxnCxGVGhVGVdt5kd5*xtnt55V5Gt5MGG55hVGGGInnxhGGVnItytthIGCIGInCtdt22t5t5t5dk5h5xnthhyzGnGxVxtGGVCy2jn5tnyKGVhUtGGIhnx5dztnnxG5RttdkG^Gnx!!CGInGGE5dnxhG5n5htdxInxVh3xtxIttkV55tt",
"dt5xiNhnd7tyxdhxpGxxkKGRt5tyyyx5zGtt3z25tGyRnk;t2x;d;xthx2nGQGppInyhGGIGdxttdyGxk5tnGzVxIx^55t7tyt%xknKyV5hz7E5zt5hGxxGRUdGy5xhIGxtnG0nyGGGGGGIh2p2p255tt255xdxtzinyVGGkGI5xVxVV5CjtpykxG5xGIGGVGxGtnthGCxhtGyxnhykyVIVGhGU!GC7GVVtG5Vth7n5xthhGVhx;h3ttdnt*55t5",
"ni5VnhtI5h25dhthtktpyynGCIIIxIxkhh5x;V7GhnxKGnyVnIn5 dUIkCtp^nGnnzhUyGnCGnyVyGt5VVyxzGGIIxExVVGd5kttt5G5ty5xGVhGxhGtdyyxhGhVGnGGyxdGUh5hId5ynGUttx%55%5*x2titVxtV37VGxIt5KtnxIV5x2yxk5RxGGVGxt5GyQhhdt5IhGIndhxChGtGGGGGhttt7y0GII5UGd5GGx;y5nt;5z5333x5;ntt5k;x",
"V*ktyhdVII2n5ytIt5tGKGKnGnGVGxtxtt;3;V;hkxytdtxyn2dht5y5y5kyGCIxGQnhxtxGnGGVt5kykV5nIxCCzUGIIVnhyyptgyxnnhnhizvGxVI5GIIGzEGVGxVtdxtGIxIyzxhxI^^ntpkkptt2t2t53txGiVtIytVGVt5iVGVt5npnnknQxGGKI5GhynGI5Gy2IdGGtG5n3t;xdGhx5zht0tIGIIx^ItKtd3d33t33Nzzzxh55Inky2GkV",
"ynGGtI5thn2GIhIGxIUIyRxKIGnGEK*kVVxo;t3zx53G555tGdkx5zxIhyGIIGnRhxyhk5hhRG^dn;5GGKGGIVGGGhNtVGGxxy5tnynxIGxGVGKtdtn5GVGxQxnIIGKKyRKGxGGxVyttICnxktG2xxyx2dn5%t5G7zzzI5nnG5yz5yIGtnnnnKGGVGnVyEnVVVKxyGt2thhInyztt55zydn2y5thIRhICItxyyxV532h75G7VVV;Vt5yhIkxkVh*",
"y5tn3xnI5IIhdIGNUhyxKGRQnGxGK55VV,x35x0Ix55zxGn5ttxtx5ytIhhGKxVG5GnxhIGIKGnnt25txxhEVIIhIGIIGzEVndnk2kktGdG5iVVVnyyynI^xGUGhGnktGkG5KGxGGIGnGQGtn55dk5tkpn5py;G5hytGGGyRVGEhtxI5nGnxxKGGn^R^xGh^Kddty5nx53Gy5nt7xG32yGIxtzhxIGGntyGyKnx5%2;zt55t,td;x;333x52yxGV",
"VG5xn5ttnxnIxGnxykIhxnn^GRIhPh2;3ht;35thtnhytzztxIkttGVynzthyUIGh3ntxUGIxKEVnx2tVVkPIGtIzVzVGGGVntxt5xxy55K5V5ykGxxxntnRnQxGCGxtt2nkGInnGIh5IUG0dVGndtKxtt5tktnt5GGznCGtnGGxx^ICGnnkGIGIxkxGRnnxdxKKyyIyt55GVhIhhxInt25hI7zIIgxtG5I5xtIz3GznIxVt3;t7y3dGxx2%CyGk",
"52ttd22dxGIIG;hGkttIGnGCIIGGItIt;GtN5xIGEdhht55hGKxyG^xGVUEIIx5I5KKhztEI^^^xxIynKVNhGGhxIIU^xzxtGdx5Vt5yVIxtG5tGVtn5knRIICGRnIKkt*KRRRUGICGIChInknGVtd5*t*d;d5xnnhGhURGzExGGG5xnnkCG^KxIRxGKI5VtnGkyyIUIdx75Vth5ntI5x3tGhxn5xtndGz7t5xxVxh55t2VzzVdht;hxdznnpdkk",
"K%2yk*55xxGIRytxtxktxGCIIxhInxK5525Gh32IxxxhynGnVt5dGI2VGRx^xCtxx5kKtkGGyKERIgzUIxInyGtkzIGIxnzht*d2xxG2nGnKytntVdhMMVIGnGnIGCRkhIUhEVGGGVGGCxIxG5dknGtnt*pt5xxinxxnkI5RRx5IKxyG3GtVxV^yxhthIhn5VVVxyhtykx;t;55t5dx5dG7,dztV3tGnn2%nxdzh5dnG53VotiVVVttGtdz3hdGn",
"x2kkxt2kxd5IIIxyG5tt5KQ5C5gytyt5G2Gd23xCQyGGCUtht5Gttht3GQRGtnxCIKkKx5ItknnnICGCICRI^IRIyhIERIn5uk55ynnkxxKKk5G50iE7VMIzIIxzCRKnGhIzIVGVxVzIUG5ISGjGGtt5n5td*5knxn5KnGtIGtxItytRGVxVKKKtUItkxUx5V5VNRndnk5yt5V;%y3nVth7GN3NxV3dxn5;3xVnI2dyk3hIV;xdhVdhzdthVdyVn",
"hGn5o52yktKGIGkGKkxGRptRyyyI5IdxntxVx5IIRIxGIGGxk5kGxGC5nGkC5GKG2d2tNi55tG^IGItgQxIRxQGxtdhyCIQGnp*dxttGy22x2t5kd7h7hzEIICxtnGxzVInhGnGzVGh^UVnI5GCnt5V52V5%x%55tpGGxGnGIxItntGttEkIGGnyhh5GtxkG5V;G5tdtIx2G25533n3;72;zGVh,diM7xI2 2 53kGd52k2n7Gh3hzzGdVxVxdVd",
"hGxx55KkyyKG5kytdxn5It5xn5xxxGGk5GyGVyyIUG^QIGCIKt5GIInInynIIGVtdx5KtxGzGhxVGtzIGtxGGRGtdhIUxQGhxuxkjG5kkx5u;55tv7hVvPVMGGnGznGGIGnGGIEIGII^GGCnNKGnn5tt2xtn5htGGnynxkktnnGzIKktGGKGkdGxdV22xnxxxxtGnyGdtn25xkGx;iz7ny%53%z5VVGh335;2G%%2nxyt2x;%dt;;Mhh5nzdCKkK",
"nhddn5txt2pKkjG5GkGKGGVnnIRn2xyttKGhGIxgRnxnCGntxnnKGknxtVIGhnxGKtxCtKEt5GCnQxyRIytInIxdtdIGnGQUdntxpC5k2%pdt5pyxhVhxzzhxn5RGFGQCnhnGGIxzPhGQyxG5xVknnk5tG5ttd55y5n5th7hdyGytjnxVGGzK5GIt5GdVd55zVhGhhy5GVVxxdhI3zdVMhnt;;I;V7h75;5dkVx52kk5;znz73GG2GInGkxKtnkt",
"dnVtx55nu*5d2x2IdKdGGI5Gttn55GtKtKIyhnU5IUUnIRGUtGKKkt5ktV^GII^RtGGtxptthtyghUxhyUytKKG5tItI^GIhkStx5kk*xxpyn5t2xV3hGUI!^GIIQCIxGIhGhV5IGzh^zIyxCnkGKtxnnyt3t5yn5;th5tyG5UtyytGpGRGIEtk5nG5yIhGk,h35ttxGh5hIhtytGhVIhI5ztzhy3zxzttxyVKi55tyn3hGxGhh;thznyGkxdytk",
"kt5k%k52%ttt2tx5dxG5xKyGGtIKG5KntRIxnGgtRxn^GQxnRKknCCGyUdn^xGntxKxxtxKn;%;GnxhG3hxKxGytktInVInGEG2ttyCkytt;tO225yy5znnIxxE5tICUtRUIIIGhVNGznx5GCKxGGtnnGGIhdyhtth3tVdhxCxGGGttpICIGGtnkttxItx5yhdxItxIGh7xtIyxIzGhtzVh3hhGnz,dG55t5,k5Vynn533Vznd;7z5hndGnxkptd",
"x5nVx%2;22nntn25kV*n222nGGkx;httIIGGQIzItGInIxnyKxIInGnn5xIzIGIxtkGGkk5k22h5hyd555xVxk5yGG^nzUnVRnttxGnukty5ttn%tyytnRUzt^UhyIIxItIGExVhzVzG7tGIxGGnGn5GtG5xn5xynh5xtyt7xGnGGG5KRIIG5tGdyxtGhIGtGtttGyttizIxx253G7tnG3V;,Idhh5ynn5dG5i**Gpt5,zh3;;7,35XGdnnnkKkt",
"kGn*t5G5G5%VVGx55nxII5ddxt2yhh7GUUnnz5ttGxGVnK5GhxxyVIEI555xtQCGGtxdt5xn3nnVx;xtIt5h5yIIUGGUIIzGVInxtthdtk*xNo5tk5t%Gxtt5x^nxGV5zCtnIGxGxxGVhGVtGGGhzzGGGnx5hhxtdt5yt555ztIhnzG!xCUUthtxtxknKxxUntII5tntIEGzI7hzhI0nttdVx;;5%55525Gi55nt3xPioI2t3y3;k5otnxkkykk5",
"txKd2;y2n22VGti5tGzGx5t2GVx3GhGGnGzIIziVIVR^KGkktzI5GEzhhGztnGnxGKxntd2p3hx;h5G2hznIGtnRnRIthnUxG^zI5Vt5xk*yd%;%nyt5nxGGhQxzykikIGGVzhGRxnxInGVUtIVIInII5t2nxd5yh25y5*GxGGGEGnGhnICIxt7IttytGktRxnx5Gtzh7PIt3Gd7VIV37IVnnhyd3VVx5hVVd335%VG5iV3,h53tNtV3xVkGGxn%",
"Gytn52t;GupuxV5%t5R,C5z7;hhz0hxGRnIGzihtG^xIEtkyxxzdzy^32nU0CGIxyVk5GtInh;5hdhnG;htkIGIxxzntI5zItInUxnttk%txy5%ttyt2nxxGxIInIIdxyGIIGGIInnIxVGzUzI5GzVhVCyxGtyxhtGdzxGVEIEn^GII!GICxU!GIKdzxKGGxxyGxIn5IPGGnztzdxhhdGnxtGIz;x,;GhzG;5y2tt;3xd77,%23,5tVxGktkxk2*",
"ypdnxtt2unkx5VdxG5xxzy5GtIIt0yhtGVGIzI7GGUnGG5GxdhxhyhxnUGQGIytyxntdnk2xtn5xxyy5x;xntUVGGGyhtICn5InGt55x%*5kh55;xttddUEIzGIGIRtytnnxnQyGIICIIGIE7GthtdVintEk5t7tV5IIGKGKtIUxn5IUGI5UIGIzky5RGVKKyyhzInhI!GGzdhtV2ythGzxtxd2tthdhyht;%tt5h35VtG3v5xdV7h;dk5;xG5;I",
"tkpG55Gxdx5tVGxhIyyGdt2xxynxyIxGExRKdkt5tnyGGGV5IyyxhzzGvMhPxI5tGn55y;hnGxhIGVhtG,d,VhGIGG33VzGGzVxztKtxtyty3thh5%5tizhIIQGxVVGtICGGyGCnGRICyzxyEthdyd5xtGVGGtk2VVVxnIdIdzVGGnIVx^xUzIGtx2nxGxCyytItnIGIGGxVG5hxx55hhdnnC%5;;;ddhV7G52x23oh3%t5dxty5VxiVnt5d5kxk",
"nGKn;k5hGtG55Vxdnx*5;5VhG5ydhzxhIIxndIn5nG;IVGtV3httthtGIAEPttytVt32IIn7nttyIGyxhNVx2tIkh3dGyn!I55zExtyx53232h55hyhti3GGzCxzGGGVCIUtkGICGG5tdd57zGn33Gtt5thh^ndkNxGGnGIt5G^nGVGxnIGnGIUtkIttKkGtKtUhhhztIEGGGthntzGzCGtyz25;t7IhhIGh5x2;5hz35xdtdttV5xVdy5552xkn",
"y;%x,,%Gxht5GVVtVt;x;n3GxhGhGht77ICnKkyn2hxtV5xVx3htEdtVGzPGVGV7xn,37hIh5GGGVGtttdVVtdIIiVVxtVzViVdxnInytyyh2tnxGzntz0x5xtzy5tyVIUx5GRkKGyxdyhIGGUGnthihtGxICx5xIzVnx^GEnxGxIhhIGttGGxh5ttxyhIRxRyUzIhhIGtzxGzhGhdxzIGtG;2ntVNIPt77GVNdxdVVV;xxG5t7;tVnxKt;t;;55",
"p55;GkVtt33t5t5k*kk2;5xhzIxy3GIh0VGI5pd5GhhGdiy;t;2tVhthyIVhPV!EdGz7hhyhtIGGhtIz3dxtKK^nG^hItGdGGzIE2GGxkt5t52kGdynMP!IxdyyIxtzyIIGIRyKIGRnIyIG!Vx5IGVVVVRVnhGGtGhKVI2hUxG^^Gn2xVht3IIdyhhxIhGGInGGyt3tN5zGttUhhdnhnI5dh5GxxhhzGzh7hN5t5hVzIh2G;Nz22x*ttIG3Vx352"
};
