/* XPM */
static char *mat0[] = {
/* columns rows colors chars-per-pixel */
"256 256 30 1 ",
"  c #4F2C1D",
". c #532E1F",
"X c #56301F",
"o c #552F20",
"O c #573020",
"+ c #5D3422",
"@ c #623624",
"# c #663925",
"$ c #693B27",
"% c #6D3D28",
"& c #713F2A",
"* c #74412B",
"= c #7A442D",
"- c #7F482F",
"; c #7F4730",
": c #7F4830",
"> c #80472F",
", c #81482F",
"< c #804730",
"1 c #834930",
"2 c #8B4D33",
"3 c #8F5035",
"4 c #935236",
"5 c #965438",
"6 c #995539",
"7 c #9F593A",
"8 c #A35B3C",
"9 c #AA5F3F",
"0 c #AE6141",
"q c #B06341",
/* pixels */
"@%#%#-&&$@&#+@+%&+@&&%@#$+@&&$$&&&&&$%#@@@$.$%$&&&%+#@+$@@&@+$$@+++%*++#+@+#+#@##++@+%%+$@@$#=&#%$#%+&+#+@+#@&$$#-%$+++#@@#@##%=-==#@@@#@=@@#*%%+**$#$#$@@$#$#@@$@*%**%%&+$+@$#X+$%#&&O+@$%$&&&%&$#@#%+@$#&$&&&@@&$%$&&@@%&%####@#@&&&@@$#$@@&@1#O@+$#+&#+&$&%%$",
"&&$%@+&#@#@@#$#@@&&$&&+#$@$$+&$@&$&@%%++@$&&$@#%&&+@@$#@@@++#@@@##@=##+*++@+#+%+##+@-$#+O%==&O#%#&o$;%@@@%#+#%%=&*&%#@@##@+&O$=6&&#%#+=O+##*$#$X$+=@&#+@%@@@#$$$@###@*=#&$%#@+##+#&$>##+#&&$&&<$@@@$#&o&&$$$&&&+&@o@%++%+#@&&#%#%+###+@@#&&#@@@O+@#+@++@&+$=2&$%",
"&&$#@#=+#$@@#$@#@@&@&%&@$@=&+@+&%&&@=&##@$$$#+@+&@@@#$$++@@@+@&++#+%%*O+++@+@#@=%@**#*##@@;%&&;&&%@$#@%+#@$@#$&&=%&%&++@@@@+@&>&<&%@++@#@$**$@%&$#%$#@#@%$#$+@&###@#@$**$###+%$@O$+##@+@$$&#$&%$@+@+$##$#%&$&+&&%&%<;@@o++$&%##%#@@>&&@@&#$@@$+@@@@@+@$$&X&&&&%#",
"&@+#&%+$#@@@@####&&&+%#+$&$%@++$&&&&=$%&+#@&=$@&&@%$#@+@@##$+&&+#+#O++@#-*##+%$$#@+@@*+$&@@#%%+@@+%&#%@+$++@$&%;===#@++##@#@#&*&&$@++&#++#=&@=%&&@%@$$#@#%&&@>@%**+#X=#+@@@@@#@$&@#&&o#@$&&@#%$$$@++&$&+$&%%&&$&%&&&&$<%&+;%#+++@@+&@&@#$$#@@$$@$#+@@@+@+%$%=%%$",
"#@@>&#%##&###@#&@#&@++&#%#&+@&<&@++&&#&&&%&$$$&+&&&&$#%@$+%##$##@++**+#%#*$$$$=O@@$@+%*&@%@#@@#%@%#%%%@@@#@@+%#@$=&-$+$@@@##$&%%*$$#%$=+#$*#%$$@*@%+@@$+$@%&=+#$%*+@*-X$#X+@$$@@@&@>+@$&$$$@$@#&$@@@+#&&%$+o##@&;&$&$&$###@=#%+#####$$$#$%+@#$$$#$#@X$X@+&%$&%$%",
"@+%O%###@+@O+&@@$+@@#%&#@$&&1@&&%#@+@#&+##&&&&+@$&%$+&#&$.@#&$+%*@++*$-@+%%*X@@+@#+++@+%&+%#+%++%#+#@@%++@#$%+#@&$&*%@@#@+@@$O##@##@@O+@+=%+#$$&@#@%&###@#$+++@*$*#+*@@##$=&$$$&&@#@+#@%&&&#$#@$%$##$+##&&+#@#@&&&@@;&%#+=+o@&%&&%=@&@+&#$@&##@#$&@@@#$#$#&$%%@$",
"$**-%&##+$#&#%@#$#+%+&&+$&&$&;%&$@$&&<@#@+@=&@<#%#%X+&=&+@+#&+&%*++%$***@%%++@$++-#@@@+%%&&%##%+#%##%%%@##@@%@@%%%#$%#*$@+@#&##&@@@+@o+#&&%+1#%+=$@$$=$$$@$@@+++*@*-X$@%&$&+@@&$&&#&@##$$&$@#+@$&%$$@$#$#+@$++$+@&&&$#$$&%%%@#+#&=&%###+#@#@##$#%%%#@$$%@$$#%$#+",
"$#&%$&&@#@%#%##@@@$$&@@&+&&&&$$$+$&$&&+#@&+&$$%@%##$&$X+++@&@%$%*$+%O +$@1$++$++@O##%@*%##+%#$+$+#&$@%%*+##+##%&$$+@%++@@@+&$@+@+@@+%%%=*+#&$*#O+**%++@X*X+@#@@@@@*+@@%+*%&$&++$#&+##@%%%$$%&%$$&&&%#%##@@#o$#&#&&&%+%;%%#@;%%@%&&%&@O@+@$++###&@&>&&@@X+@$$%#+&",
"&&&o+<%#%;%O@##+&#$@##&#=&#o&&%%%&@+=&@%@$%&&@@=+@$&++++@@#&$&$$*+#**###%*#$+@++@@+@@@+=&*%###@@=$@-&#%##%@@+$%$$#@#+$+$@@##$#+#+&&@%=##&#&#&.+@-$o+%%$@@@+++#%#@*=##=**++@##*##%@#&@@@%$%%+#@#&&#%$@@@@%#=$O%&$&@%@@1&@##$%#+##%&&.#@#@++@@$@$##%&&%#@#%#@#+@$&",
"$#.&&+#&$+##&@$@+$#%@&$&&%%&&#@&$%+&&%$@$@%=&&>&@>&%@+&$#&&@#&&$%#+:#%*O&&*.@@#@#@@++#+$*@@+++@=.$##$%$&@#%##$#$%@$$#@@-$+#@#$@+&=&#%&&+#%@#o@@#@+#%%%#***##@+@@++*$*X+@@+=+##+*$=$&+#$$$#&++#@$%$$+@#&$#&@@+$%%%%#+++$%&O@@#%@##&&#@*=%@#@&@%++@&<@#@$@#++@@$$&",
"*&%%&$%&@@#&@%%#@@@@$&&$%+@@+#<&&+#%&@$@#%#&&&o%@#%@@@$$+$#@@#&$@#+==%=;%*#$@@@@$+#@$@+@$@@%$%*+@&=%*%$%+&@+@@@@+$$@$@@*%&&@##$@O#&&@&+$@>O&@#@#+@%#&#%%*$@++@#$@$@##+@+@@++@@#+##&%+#%%&=$@#@&&%%@#@$#+$%=O#==%&&&@#+@&@#$@%#@@&@#@@#o@@@@#$$@@@@###+#@+++@$&&%",
"%%&&o=%@%@##@+#%@$&@##<&&&&o@@+@@#&#&&#&%%@@@@&+%+&&$@$$+@@$#$+&*@$+%*O@&@=@=*+$@@#+++@@+=*O%+++##@+#++@#+@+###$$@$$$$@%#+$@OO##@@<&;%%&&$@$+@#+###%%$-##@#@&$#@@@$#$#+@#*#$**+*&$&&&#%$$&#@@&&&$@@$$$$#&@++++#%&<&$+##%&%#@+&##&&@##@+#@@+#$#+&@@####+#@+@@&$$&",
"+#&@%##+#@###@@O@&&$$>$&@@@#@++@+##%$@&=&&@$&%@@&@+X&@&&&++%@##&#@+@@@%$$*$$=%&X$+@+@#@@$=**@+@#@@#+#@@#+@#++@@++@#@##$=%@#@#@@$+@O$%##+@+#+$#&&%@#%#%%#+@@$$$@+*%$+++#**#1**#**&####++@@+##&#&&$@@%$$#@+###+##++@&@+&$#&@@$%&&%@@%&##+#%o#*##-@+@##+###@&@&&#$#",
"#+@++#%O+@###+%@@+$&&&&+%@$@+&&%##+$@%$@&o#&%@@@@#$$@<&@%+&@&+@#@#%+@$*+$*%&@%&@%+$@#+@++%@#++#%$$#+@@&+@$##@+@@##@@+#&&++++@#+@+@%#@&$#@==+%&1&%&%*%$&$#+++#%%%#%$@$X*@+#*++$*#$#&+#=%$+#+$&&$@#@$$&#$@#$##@@@@@$%##+@#%%@$+@+&&$&%$#@+#%%*@%@#@@%$&+&$&+$$#$+#",
"#@#@+#%#@$##$@@%##$%+@@$@@$@@$####@#&&&$#@%&&=&<>&$@&$+%@%$@&=$$@=@*@%+#+%=$++&%@++#@@@#@=#+@+@@$$#@@#O##+#+@#$#@@+%&&=@&X@@@$#++#&%##=@$&%+@%#@#%$$=%+#%@@+@@$##$#+$#+*@*#@+**++#&@##%@#@@#&%@$$+@&#&##&&#$$#@+#&$@+@&#+@@@##&&&&$$+=&%+%+#-%%%&&+&%&#&&$+&+&$$",
"+%#@+@#@$$.+o@@$###=&++++@+$@#+#@++&=$+@@@@$@$$%&&%<&&#$+$&#+@@&%#+#*%@**%%#@*&$$#@#+$*-*#O%%&#%%@#$%%#$#+@+$@$&%=+$#%##$$$&@@&%@@#%$&&&&%&%####%$&%%@#%$#$$$@+@#+#*%#@=***@**+###@&@&o@@+@##$#@+#@#%$&&=&$$+@$&&#&@+%%$&@&%@@@&@&#@@%&+%o#+#@%+#@$##$+o$#@&&$&#",
"#@#$%#+#@##%#+&@+#@@&###@+++@+#+@+@@+*@@+#==$+=#%$@@%=%$&$+&+#$@$@&%+#%+&%&$$$$#@%*#*%%%#$#+@@$%$@>=&-$#+#+@#+$*@*-%@++$#&&#+#$@@@>&$%$@@##++@+#&%%%@+@@#@%+@@##&%%$%@#*%%*%=**#$&$+$@#@@@@@@+@@@$$@@$#&&%&%@@#+##@@#@##+&&&$@#@*%%&&&&&%++@$###$@$%$+%$$o#$%&@+",
"@###@%%#@%@+#&@&&%%@&1#&#+#@#@#@@%$+@@+%$#$@=&&$o#&==o%$$+@@&<#$$=&#%%#%+%#+#$*$%+#%%%%%%%=%@@##$&=64$$#+#$@#=#+#$++###@@&&%##@@&#.$#&*+%#$$+$%@+%&$++@%+#+##@##%%#**@@.+@&*$+$*%+@$#&&#$$&$%&&@@$#@%@&#@&##+=##@#$+@$@$%&##@&&##@$&=@$<#$#%#%@&+#+@@#X@$%##&@$#",
"+@%+##@+#@#O%@#@&&+&&&#&&@##+@$@@#.@#&+##@%*&&@$&@#$%$&&&##&=o@=#%+$O*%+%O#@@$@+@%@**#%%%*%.@@#&%&-,5=&@@@+@+#=+%*%=+$%#$&=+$&+@@#@%&%$$%@&#&@%@#$+%#++@@++@#%#&%-&=%++@#*=%#==*&%@$+#&%@#@&@@@X##+@+#$@#@#+@=%%@##+$O&$&&&%&#%+$$<+$&$$##$+@&#$%$#@#$+@$#@&+@$@",
"%+$#@@%$%###$#%&#&@&%&&&&++#&$@+@@@%@%@%@@$%@&#*%O@$@$$$$&@@+#%&@$#@&&%#=###&$*&%@++%###+$+%$#$$$&-1=*=@+@+$@@%%@%%##+##@%&%%&#@%+#$=+&$%=%+@*$$++@$+%%++#@<@+#%%&&%%#@@@*%%#*O+@@++&#&+@@%@$@+@$+#@%%@###@%+%O@@$##&&$&$$+#&&&$@%%$O$%&@+$@$&#@+++@@++++@%%$+%%",
"#@#=&%@<&##@$#$%&%#<&%&&+o#+@+@#@#%%%++@#+@+@*$@@@#%O&&@O#$+$#+#+##%-%&@&%=%.%=@@%@+@@##-%+$%#&+&&%*$*##$@#@@+@+=&%&**O@&%#@oo++@#@*$++*=+#o$$$$%%@@#%%++%##@+&;==&&@o#+@**=*+@@&&##&#=$+$$&$$#$@@@#&#@+++@@@&#@$#$#@$&#o&#$o%%%#&O$&1&+$&%&+o@#%&$#&+@@&@+@+###",
"##=&&$#++%#@+&$&%&&&&&#&%#+$@@@+#++#%+@=*@*###&+#@##@@;&$$@$#+%@%#;%%@@*&#&O@+#===*&#O+%%o$%$$%#+$@%&$@$@++++#@#%*%$&$#=O@&+@#@+@+@$*%#%##@@#%%&%@#+@#@@@@@++#%&4&%#+@+#@O+%*%==+&#&#&%$%##&X$@$@&&@#+@@@#&#+&$@#&#&+@+1#@@&$&$%@@##&$@$&&%#$+&#%&#&&#@+#$$$%+++",
"$#+#@$&@$@@#%&$#$#&&%@&@+#+#+@@$@#+%@#*%%%%+#%#@$@$$@&+o@&@&+@$&=%@*#+%&#@@@@#++&+++*%@%=$@$&%=$$%$&$$$@++@#@++@%%%%&%*$;@&+#@@##@+*@@#=%@+#@@#%%++#@++#++@@@#%;&<%@+%@@@#+#@O=@#&&@#&##$@=&%.@$@#@@$+@$%&&$#$#%#@#&&&&@&@%@#+&&=+@#$$@++#$+#%$&#=&%+%##$@@#++&$",
"@#$&*%&##++&o#&+&#+&o@#@#+&&&@+@++@@+%#%@=@@+###+@#=%#&+@%&&$%$+%&;Oo&#&@##%%$%@%++%*%%.##$#=&#&=&##&X@-#*+@@##$#+*@%=%%@O#@+@O##$@@%@+%+@#@@@@@#@@#%$%@##+@%o%&&*&@#@@#+*=*@**@&&%#@$&$@&=&>X&@&&++$+@&#&&&&$$@#$@o$#+@+$#&$&&++%%=%$@@+#@%#+@>%$%+%#@&##&#$@+%",
"#$@=&&$$@@+&+@&$+@&%##@@@$#&&+@+=$%@@%@@$$#$+#$@#+#&#&@@#++O$&#+@+@+@#@%@+#@##%+@%@@%=#$@##&&&$%&$&&%+#$%X%+@@@+#@=#%#%+@#@#$$@#&%@+=+@+&@@@+@@#$@&@%$%@@+#%@@#&%#%+#@@##*@&&@%&$&&&&=$@@+#&$@X$$&%#+$#+%=&&@O##@#$%@&$+#&+&&#%%@#@+@$@@@@%%@@$&&&&#$.$%@+@+#+$$",
".$$&%#%@O$&#$&o#&#&@+@#@##%&@++&X*#+=*$#*@&o@#%$#%#+&+@##+@@&o@#$$+@@@+%###*+@#+@#@@=&@#$#&&#++&$$*#@@*==*$=#@@++%$+#@%@O%%&%##&$$@=$%+++1%o@@++#%@#%++#+@+o#&%%%&@@+@%&#%%@;%<#$@%&&&&&@+@#@@#&&@.@@#+@%+%##&##@###@+&+@+@#&$#%@+@#*%##@$&$%%+#&&#@o@++++o++$$@",
"+$+$#%&@$%&&$@##o#&%###@#&$%$@%@@$*=*+$=#%%%@@@@$#$+#+##$$+&#$+&#@+%o@&%@+@*%@%@#@#@%#$$=#@%##+#+$##@$&@#@@#+$+*%=@$+@#+@@&%$@@@#$@&#@@##%&@#@%%@##%@+@%+@#@@%###@%+#;#+@%&++%+%#@#$%@%&@@#&+#O@&@@@$+@#&%%@##+&@&#$$#&&&@&&%&o$$@@#@##$#+$$@&#$$&%@++++&++#+@@@",
"#&@#&$$#$&@%$#%%@###+$@#@#$#+@@+##+#+**%&%%+@#%+@#%$+#%@+@%@#+#@+%&%*#++@%@@+@+#%+%#*$%$&#&##&+#$@@#@+@+++@$+*@+&$%o+#+@&+###+@+###=%@@@+@+&@#@@@&%&#@#+++++@++###++++@+&++%%++@@@=&$&%O@@$X+@@&&O@@+@=O@&######o$@#$1&@&&++#@@#%+@&$%%$$@+$&&%&&&o@###$%%$@+&$$",
"@+@%+@@%$&%o$@&%@@@%&&&##+@@@#$%@+@++###@%%%+@#;&+@O%+++@####o@$o%&%%%@%%&@*@#+%@%+@O%%%@$$$=&@#&X#++@@$##+$$#$X@@o@#@@#@+$O$@;#&#@#%@@+@%##@&%+&@%@#O@+##&%+#&#@@+##@@#;@$%%@#@+@o@&@O@#@###++@@@@@&#@@#&##+%#@@#&$&&$#+@##&@@#=+@%$+@##+@#&#@o%+$@&%%#+$+%@$$@",
"O+O##+@&@+##@&&&<&%&&&&&+#<+#+%%@##+#+$*@@+*@+@#$&@&o#%+@@@%#+@+%%*%&@&&##%++%$$##@#+$#%&&&O##&$&#$$@+$$*X+$#$@#+%o@%@@#@@&&##&&&%%#%#+&&&$&%###@@#$+@@@#@&+@&o%%*@@%+@%%&o+++##@#@@$@@$+#@###+@@#@@@@@@#+##++%++&@$$#&++@+@@@@@@+$@+$@#@@@@+@+#%&%&&+&+#=%&$$$o",
"@$@##$@&$@@#+&#o%&&&&o&##&o+#+##%%##%#@=#@%%++%%%%&&@@o@+@#%#$%o+*@%%%+%%+@&#@#@*++%##+&@$$$$@$@+&@***#@X@@*O=+###+@#&%+#&&&&$;&&%%#@%=#$$&@$$@@+@@@#@%#+%+@&&==@&+@++@&+o++@#%o%@@$+$+%$&#$$@+###@@#%@@$&$#.#O@#+%@%<+@@+#@@@+++#@@@#$&$#+@#+$$@$+#++#&&&$=&@+@",
"$#+&#&&&%$%&&%%#@@&&&#&+#@#@+@&&$+%+@+@##&#*-&&$+%;&&%;%@;+&+&&+%%&#*#%%&%@@-+#*#*#####$$&#@@@@$#&&O$$$+#+@+=##@@@#%@%%%@#&&$%&+@%=*%&&%&#&#&&$@#@@#$%&%&O@@@=O$%###%@#+&++@++@@++#++++&#&=&&#@@@@@@%@@#%####O@#+@@@&#++@%o#&+@#@@##+@#%%$$@@@@&%+@##@#$&&@&$o@@",
"@$*%%@%%@+%;#&%+&@@%&&$o@#@@##$$$$X@@$*+@=*@&$*+=#*++#@%*@-.@@%&=@&O@&%*%#@*@#=##%@*X####$+@$+$%*%$#%+%+%@@@@@+=%+@%&##%++++*@#@@##&O&@&%%&&%&@+@+@##+**%##@+@@$@=*=*+#@@$$*@++@##@#@@@%$&#$#@#@&$#*&+%#+@#@+#%%+@@%X*+#@$X++@#$%%%%#+%###*%++##%@$+%%%+O@@***#@",
"#=&o+%@++#+#+++@%@$##++@$@@&&$&$&##@+$&+@$&*=%&=#$&%$#@%&+X$+*$.@&%@@%+%*%@%****#%%$$#X%&@@$$=$&@+%+%%:@#+*@@@@*%&+@%$$#+%%#@;%%@##&#+@@@<&%o=+.@%@#+*%$+ @@=**+#@*#*-O+$@+#+%=+%#@&*$$@$%&@@#%&%@#%%%#++;*@%%@@+*#+@*+$$$++#%@$@#%#@#&%$**@@**++$**%@%+$@#$=##+",
"&%&%#&O@+@++@##+#+&+&+@@####$$$$@+#++@#$#-#&#%%$-*%+#&@$$=&@@@*&%+#++@*+#O#@*$*@%###%@%#@$#@=@$=-*&@#%O++@#+@@@*%#@@#%##@=@+##@O++#%++@#=%&X=#&#@#$#*+*.#+++$$*=$**X#+++@*@@+#+*$+$#%$%#%&$$#$%&$&$$@#+#+;&++#@+#@$$$*@#*X@@@@#@##%+@$O%==+%*@*O@#+$$$@+++@%#*#%",
"###+%%+@#+%@@+*+@@+@+@@@#+%#&##$%%@@@@+#$&*++-@=#=#@#=&%=@&@+*X$*@&#@@%1@%@=$*+#***#@#@#&$$#&$&%+###$%#%##@%*#=#%&%+#@%#%###%%@%&#&@#&+$#@+#%%@&==@@$++@@#@#*$X@%@#%1O#*#+O##+$+$@@++#+@%&#$=#%#$%#+@##+@#&@@%@+X*@+*=*X#+#@$@#@%++@@&&#*@%++#++$#*++@+$+@=*$*%+",
"&&#@#&@%%*%#%$+%&;+##$&@+$+@++&&&$%####+**%#+$*&&%$*$$@+*#%*@%%X$@%O$,#%+##*$#$#$@$&*&#*$#$$=$&@+%+&*O@*@**#=%@#&&%#++#@@#%%+#%##@%$@&;&=&O#=%=&+$+@#@+#*@+##+##++%@+###++*##+@##$%%+#+@$@&$&%@@#$@#@@+#+%;%%@++@@##**$+++@#$@+@%+@%%*=%+##=#*+##@@#$$++@-#%@=$*",
"#1$&-o@1&%%%$%#%#$%@&#@;&&#o@%$&=*%*%#@#X+$+#+@@%$@=&@@%+X$**XX#+#$+==#$$$+**@#@$@$=#%X=$=.#@#&@$$%+@@%%+@=++%+@&%%@%@#*%#@#%@@&%&@@#$&@++#=.@=##++@%+#@@++@###++#++#@$#@+++#@##+@$o@@*@O@#&&$@#$#&%%@@@@#***#o@X+@%*#*X+##@@++@++@@O++O+#@*$%++@#+%@+=%&@&+%+#&",
"$#=&+##*%%%#%%*+%$#&#<$%#&#+@@&&*&#%*$@++##$#>%@%$$&&#$%*+@#@@@@@%#$=%$@+$+%%*@+#$&$=&$@++&@$=$@%#@%@#@++++*%*++@%&%++#$+@@+@+**#&&@$;&%+#&#@=&#$O*+++*+@@@@+###@+@$@@+#++=O+++#%@&#@#+@#+@$%%+@#%@@#@+##@;##@%+##%$**X#+@*@@+*+@*@@&$+%@@@&X%++@X+@@@=*+=$$%$%=",
"&&$$#&*#@**;%%*++%+#&+&#&&+#@@%&%#%&%+@#+%$%@=*@@@#@@#+&$#%X#X@@$***&$+##-=**#-%$=$@=#&#+@$+&&$++@&&@+@@$++==+%@@%&&#*++%%%#***%&.#%&=&#@@+@&#@@%*+###O#*#+++#*#@#@*@@=++@##+#+*%+%+@@+&=+@##%&#++@++#@++%+&+%@*=$@*#*@++#@@@#*+@#%@X+@$+@%%$$@@+#+@@@#+##%@=-&+",
"@#&&=$%#%&+*%**+%$#@%&%+%$o#&@#+#%@$@@@$+#%#@$%#@@#@#@#$+,X++#@@@@#@&$$&&%&#$=&=*@@+*-++@$++$=$$%@*+#+##+#@#%%+@<#$O#++@%%@#O@*%=#$=&&$%&%+#%+##*#%*%+#@##++++###++*%+#@*@##++$*%#@+#@#&o$@#%$$&&@+#+#$#**$+@%*++*=##$$@@X+#=%*X+++*$&*&&#@@%##@@#$+@+&+#$X@&$$&",
"&+#@=$##*+O$%%*##+%+#%#%<&&#$#@+#+$+#+$+@#$%=+*@#@$@$#@@&**@@@#%##=$*=*&&$o*&&++#+$&%+@#++$@$$.$%*$$+$#&#%@@=#**++@##@@@+@@%%#;O.>&+=++%#%=%+<+%#+$@$%*@O+#**X#+O%++*@%@#+++**+%@#&#@@#&$&$$@#@&%#@@&&#&%%= +*+@=X+@@$*+$+#=#*%+#*%&@*&&@=X@##@@@++#=&#%@##$@$&$",
".%-%#&$=++#&%=O+&#+&@;%#<&&%#@@#+#+@@@++$@$@&%$&@@+@@+@#@%&$#X#*+@&=&*%-%+-&$@&&&+***+@#$@@##=X@&%%@#$$#@#+$=#*=#@@#@&%+@+@+%*O+@$=&*=#$##$$%O+#$*#+$*++#+#*+@+#@@@#+@*+*+@++++@#+#++@#&@&&o$#@$##@;;%%#@@%@++@*X$@@+$+#@@@$=%@@#++*&$#==$@##@#+#+@+&&<#$#@##&$$",
"$%%@#%&.+$+O$+$+%;&$&%+%&&%&#&@$@$$*%#@#%@@##*%%+$#@#@$@@,&+@#%X##+@&%*&$%@+@#%+*-&@#@#$@$@@@&=&$%%+&$$$%++*%++++%#++@+@#%@+%**+$#+=$+%%&$++O%@@#+@#=+#@##++++*+@#@O#$+*O+@++@+@#@+@#%*%&&++##@#@@@*&%o$#++%=+*%%*$$+@#%@#&@X@X#@##*$#&&$X@$$@@+#*$#=+#&&+@$%###",
"$&#$=&#+&+*$**#%*+O#+@*$&@##&%o+#+$*%+@$#+#$=@+#@&$@$$%#@%+&@+X#@@%=*%$=$o&$@#=;$$+@+##+@X%@>$&*+*@+#@@#+@@%##@%#@+#@#@+@+%*+:++$@@++%@.@&&&#@#%+@$1###@@+@@+++##+@=*$%*##+**@@#$+#&&##&=#@++@#@#$#%&+##%@%+%$=+$#%+@+#@@@$%@@+@@$$*#%*#&&@X&@$@&$&&$$+.@&&#%$%#",
"&O@=.=@%++*$#+O@%O$+;%+&#%$%@@&+#@$*##&++$$**##%$@###@-@=%%X@@@-&+$$#&$+#$+#&%%%@=+$#+@%X@@@+**=#+#+&*@@@+@@#$=%##@==O#+@@@@*$@+@@@$#@+#@@%@&&%#*@+**##+=++@*+@@++$%*+%@%#+$#*+*$@&+@&#&$%&$;++#+=%&##%@+$$#@$*+*+==**+@$+@$$$#@#@X@==@=&+@@@%@@$+++$.#@#&&#+@@#",
"@@==&&@#++1&$o####$$*%%*+##+@##$$%@++*$*$=$%%.+#&#+#$$+#+%@**$$$@+*%%#%@#@+$=&##$$+@#+@+#+#X+@+@+@@@+@@++%@#+O#*%*+&O#+%+@@#:#+*$+@@+@@%%++.&%+@*@*@+### *=+++$+$*+%%%*#+*@++##+O@&@%@@=%&+&o&$%%&@O&+$+@@%@$@@%+@*#$@@+@@@&%#@#+@#$**#%XX@@+@@#+@@#@@@@##$&#$@@",
"@%$&&@$@#$+*@#$%%#++%*$##@%@@@@@@%@$#%@**$#+#@#%@#@#@+@@#$=%%$%%-%@+&&&#**$$$$+@@#@#%&&&&@X$@#$%$+@%%$++@##+@@@@@O@*@%+#%%+@%++@@#@$#@$$@@%%-@=#+#++#*+**=$=*+#+OO+***#%%%$@+@+#$&&$&&=&&O@+#&+#+$@@$@##$$=+$@@++=***@*#%+@@X#$@@%*@X@@@&$#&&@+=++@$$@@@#+%+$@OO",
"#@@@&&%&@$#&&+#&##@%##@##%@+$$$$#@@@$#+#%&@$$##$@##&@@@#$&@@#$$&.&###&&%#@%&&#$####@%%#%%#@#$@=&*+@*#%*#$@@##+#@++$$++#$*++*%+*@@$#&+@+@#+%**%*%%@=#$%@@+@*##**#*+%=*@@+O%=$@$%%#%*+%=$$$@@##%#@$#$@#+$%$&@#%@##%%&=&&#%%++&++@++@%X@$+###$@%@@+##@@$#X#&%*&$++$",
"+O$#&+&%$$&&X@@+@@++#&#%+#+#$$++#&#O@%&&&$+@$%+#@&#$+#=@&+$@##+%#%#%+=O@@#&+@##@%#X$###%$$%++#&$$%$$#*$$#$$$*%%#$@$+@@$$$#+*#**+#=&@#+&$%%1&@*@*%;+%+$O+$*$***@****$*+@+#+=+#-*&%&+#&%%&@##&&o#o+$@$+@+$$@&%%%*&&%=&%*%@+#++@#+@@@%+#+**=##@+@+@$#$$$##,$@+$@$+.",
"X+@=%%&&%=X+#@@@##@&#<#&#&@##$##@%%+@+&&$@&@$@$&@###@@%o$%$%+$+&%.%+&#&@#@#++#@##@+@@@&%#@%+@@=$$*##%%++@@$@$###$@+$++*@#$+%%*=@+=&@$+@@#&&##**$$#@$@+#@++$*#$@*+@@**@$$$$@&=%&##%##=&#.@#$+&%#@@$@@%%%#@;%@%*&@=&&+&%%&#+++@$###@+++%%%$$#@%%@@@@+%#@#$##+&@@+X",
"@@#&#+#+$&&@@#@&&#+&#&%&#o######%#%#&#&&#%o$O$$%$+###%@@&%$##$=#+&##&@%#&&@&&#&@#@@@@@@%$#$+$@$#$@#$%X#@@++#@@#$@@@@*$@$+@@%*#O++@@+@@@@$%&#$#%@++*#$@#++*@*#*#+++**%+@@@#@#+&@+&&&%%&%#@o#$&%#&@@##&+@+$%%##&%*&&#&%O&%&@@+&%+#@%*#@**$@$@%++@@+++%%@##-+$$%$#@",
"@$$%&@$##$$+++@@#&%+@#%&%@#%%%#####&%&#%%%&%$%$$+#&$@$+>#%##&&+%&#$&$$+#&&@@%O#@++@+$#%$$$++X#@@$$%$$#@#+@@#*%@#@+@@#+O+@+*%#@+++@+#$$@@+#&&##&%*=$@#@@@@%+%**$*$***+#%##@=+=$@#+&=%>&&$%&%&+$+@$$+@$#%+#**+%##;.@#&.@+%+@+@*$##=**#$%*++@#@#+@&##@%@@$@+@>$=$$#",
"$+&<&&#&@@-$+@@&<&#%@+#&%O#@@#@##@<&$++%#&&##++#@&&=$%@#$&##$&&$%%@&&##%&#&&$%O@@@#+$@+%#@#@#@@@@%*#+@@X@@@%%$&=;%@$+#+#=%*@#*%+$@#&$@@@@@@&%&&#***%=@$+*@%#$@%$$#O%+@$@%&%+%@$@-%&=&&##+#&&&%%+o$@%#&&&;;%&&%%o&#&&##@#@+$#@@=@$**##$*$@@++@#&&$%#@%&#@+#$&$&$$",
"@&&&&&&&&+$@#@%<&$#@#@##&%$%#$##%$$@###<&&&#&$@@#=&&$&%$++@%$&+#$%&&&#@@#+@&&o@&##@#@####+@@&@@#@+++#@*@@@$&$%$@@%++$#$* =#@@+%*@$$&@+#@$&+=%#==*@@@=$++#@#*$#%*@$=%*+%++#&&&&%&#&&#@+@@%&@&&&&$$@@$@%$&%&&&+#%@#%&@%@+#@@@*+@$%@=%#@-#@$#+$+*&#++@##$$@$@&$X$$X",
"@&&&$&&@@#&+@#%&%@@@@@@+#@&&%#@#@%@%%#&&&#@$%&$%@&&%&$$#%@#<&&%@++$=&@#+#@+@#@@O@@+@@@#@$+@@@+#%*=-##@*=%@&%%$#$%O%:*O*==*@*++$#$&@++@+@&-&%%&%#++O***+*@#***$*%=*+#%=+@+++%#+&O+#$%#&+#&&%&&$#@;##$&$@&**%@O%*%$#%++&#&@&%+$+#@%&#$***&$+$$@+@+@+O+#@@#@@@#%&&%",
"&#$+O&%$#%%@@#@##++@&#@#@@&@@@#+$#+&&#&#&#@@$#+##&#&o$@@$@#%%&&+##$%$-&&@+@%*+@++$X##$#%@@++@#=X=*@%%>&$+#=@@*=%*@$O$+$++*+X@@###$@+##$&%&*$%%#&*%*%#%%%##*%+%@$#++=%++&+#$%+##&#$%@&@#&&&&&+#%&@&#&%%@$%=+#@#%#%&+@@$##$X@X#@#@&*#&%*%%%+%*%#=++@#&@&+O@#&#=#+&",
"##&&%%&$&@##O@@@%#@@%&@@+1&&##%+%@%&&$&&O&+#&++&#1@&&++#$@#$&&&@@@=$O%+&$$#-@*+#@#$#+#+$=#+%#,##@&*#+$&*$=.X@#%&+*$+$*#+#+**@@$@$&-$#+*%=&%+@%#%+@O+%@***+@*#@@+@+#=$@$+**##@#*$@%&####&##@@@@@&;$@$@#%%%%+%#+%@=#@+&=$@=@%#X%>%$%%%-==#+$@%*@%O#%=%=&$%$=&&@+#@",
"#@&&#$$&+&=*$@@@#+@#@@o@@&&@+$@###&&#&&%%&$#$@#$&+@@#+@@#@%@@# @@$%%&@@&+**%@$$$*+@%#++#@@#X#$%*%$%$$&=$#*%&$.&#++$@+*#$#=**@$##$$+$+=&$*$#++&@+O@+%%:=$%%%**$#+@##=*##*+%#%##+$#%%##@#%@+++%#@<$$&&$&#@%%%@+@@$=$&&%#@=&#X@@@#@$=@%#==@%#$#%+&%%@&%&&%%@##&=&@@",
"@@#&@&&&>%*&@+#&+@#@&o@@@+&<#&+#+#%o###+##+#+@$&#+##$##@@#$+$+@++@;&&&$$$%=**#&+$$#@*%=X@$@@@*#%+=X@@@&&$&%@%@##%%+**+#++=#+@*#@@+@@#=&%@#+@%##+++*@*+%%#&=*@@@**@$$*@%%*@*$%#@%#%+=###%&&#%&&=$$$O%=O++@@%&+%*=#X+&$=&&%X##@$@%%@@$#@+=%##@@#%*&+=%+=O#@@#+@&O#",
"@@&X&*#*&&&@@#$+@#+@@@&&@#&$@&@@$&&@#+#&@&O#%@&##&@@%#+#@#++#&+$$@&+=$=+&*X#-#%=*-@$%*@#@%&$$#@.&-$@+@#+$#>X####O*%@O+$+*##@@+@#@#++##@+$+@$&=#@$#@**$+@@$&@*%@&#***%*+@#++*@##%+++O###@#@$&@@&@$o@&$%@@#;&%=&%%$+@$##X@@$@X%$#@##+%*%%$%@+##+@+@@%=#=@O&@#@@#@%",
"$$&&%+%+*#=@#@++#@@###$&###&@@##&@%#%#&&$+###%&+&#+@+$#@@++#@+#++@%++&&*.%&&$=$$*%+@$#@@@&%##$@@@&$@+@@@@X+X#*#%$%*@%*%@+$*@#%*+@@@&@%#&%$$@$$=&#=#+*==:**X%#++$*@-@+=+%*@&%%@+%#@@#%#@%&$##@&&@@@&o#%%&&&&@#%%&+@#++$@&*#%%=@%&%$%#+***%%%$##@@@*&#$+#=@##&+=%%",
"*-&&+%o#%=#++#@&&$@@++&<&$&+&%@@@#$o++&@+@#@#@@&+&o#&&#$$###@+$##@@#+&#+$*$*$$%%#&#$@##+@@@@#$$@#@#@$@$@+@%##&*X+$*+@@%#@@@+@$$+#$&X@$#$&%&*$-&=%$@+@*##*#%$$@%=$*%@@=%*&%+%@%%@+%@@@#$O@@$#+&$@$&&%+#=&&#+##&*+@@@+#+%%$#%$X&$#%@%@#*%&$#@#$@@&%$%&#@%$*+&+#&OO",
"#$*&&#@@++%@%&=$&+@@$#%&&+@@@%#$$$###+#@#&@@&#$&$&#&&++##&$@@@##+@+%%=*#%+-@=*%&$#%#$#*+@&@#@$$&$@@*$=$$$X@X>X&=*#*=%@@++:$#+@@##%>&#@$&%&-$=&5%*=##@***+*;*&=$++*%O+#=@#$+#+#+%%@%+&@#&;&@$$;#@$&%%#=&+@=&%##&&&#&&$@&#+@$+@@@$X#*%&#+$%%+@%@#+##@##&@&+++@&$%=",
"$$%+#+%+$@+=$++@*+*$@##*+@@+*##@@#*@@$%*$$@&#$=.%&+$=&$$&%>&@#%+&#@%*&@=&@=*%*&#%X&@%#@=%=@X#&%===&&=&=##@+@&&%@+@@@#%@#&*&$@#+@$@++###@+%*=11->*1&$%#*@@+@++$#-%**@@#***+#@+@$$$$#@*=%&*+@$#%++@$%&&&&##@%&@#@@+@&$$@@#@@@@@+@$$@$$*#@#$++#%+#++%=$$$$%-&&&$$#+",
"@#&@+$+@@*=**$+=X*#*%+@@@+@#+=#$@@&%@$*#%&$=#+&*-.#%=%&$&#$#@%*++&@=#=&&$=&@*$=@+@@>@@%X+=@@%*=,5&===<&$%@@##$@#$@#@#@%@%+$&$&*+@+$+@+#@@%*=92*#25*$%%@@+@#++@$#O=#$#=X+**$@#$@@$##-$+%#*%@#@+%+%@$&&&=&#&&&@@++$+&&X@@&$@$+$##%%$@%%**+$$$%#*@++@++@&%%#*&&&&@+",
"&$$&@+#@@X$*#*#*=#**#++++##==*#+@$@$+$=&*+#&%@-&$&$&&=-&-$$+@+*+++&+#@%@*%$&=&$#@@$=**+@#$@X@&&,2&=&&&&&#$+%&$@%$#@#@#@=&@$@@%+@#@+*&o@#++%#%%8112,*&##++@#@+@;@*%%*#*$#*#+#$*$+$@*+**%$*%%%=%+@$#&&#&&&$o$@&&##+$&$@@$X#$$@+##@*%#%%*@@+#%+##@@@++#@&$&+@@@&#+$",
"@#@$@*#&$$+@X*$#@@*$+#*++#@+*#%@$$#=@%@+%=@*$&$&$%@#&#$$&&#$@@++@@#=%++&&@@$%%$$$@+@%#$+$%@@#@#*&@$@#&=&$@%&@####@&&#&=##+++@@*@X@@+$#%#@@%+#*51-4O+++###++++#@*%#$+*#=@=*$#@$#%=+#$+*%*+****#=@#&%&&@#&&#%#@#&@@#*=@@@@X#@@@++$#+@*@@#%&##@#++#++##@=O#@@##*#%$",
"#$+%%#%**$#@#@*$-@*#++.##@@@@++#$%@=O%##%&*#&-#*@##+++@=%#@%#@%@#&#+@@@$X$#$&+@###+$.=#@&@#X@@#=&%#@@###+#+&&&%###&&=>#%&&$$&@#@$@$@+@++#@+%@*2%*+##+#@@+%@@+@+=*+##=*$++=%%*#$+=@@++%%@%#O++*%*%%@;#$&&=%@@+$*@%X=$X#X+#@@++@@@+@@+*$+#@+@@#+%#@##@#%&##@&*####",
"#+#@#*%%#$$#+#$*@@+++#$+$#@++@=$-*&#@X+@@@@@&%#=&#@=$$@#$#+#$#*$@@@@%+&+@>&=@@+=+=$##=@@@#$&#$&==#%@+&*##=+&%&%$##&%@&&#@%@@#$&&*$$$#+@+@#@@%$**$%@@@@##+++#%@#++@+++@++#X@++=$1&&%$+;;%**##+=*=$&$++&$&#%$o;%%+$&$+%@*%$@$@@@@X@#@@$$+@@@-*@%+%%@+#*%@>&O@@++@#",
"@$@-%%%%%X+@$@##+#++@#@%+#@@@*%*%@@@#@$$%@+#=&==%*+##%##&#@%@%&%&$$@&$%@@#$&&@@*&&=+#@@X@$#####%$#@@*=&#&@+++#+&$#@%=$&#@#$@@$&$*=#$@#+@@@@+#@%&%+X@@++&+%@@%#++@$+###++@++@#***@@&@#%@@%+@%$+=@+$@@@#$$==%$=&#@#@%#@+&=%#@##X%*%%*++@+++%#%%%&%*%+&$#*#&@#&#+$#",
"@+%%%%*@@@$%$X#=*@+@#@###$+*#+*#+@+++@+@+$+#$%@&&o@*$@@$*%$+#%=$$@@@X%@@&&*$&-=+@*&&&+##@#%#X#@@#+%%#%@=%@@&@@%%&%@@@#&#%$@+$@#$*%@++O#@+@++@@%+X@@@+%$+%%$*+@%*%+##++@+$$$*%++O#+@$#%@++#+%++++&+$$&#@&+&%%@@==+,#@##X%&+@@=%X#++*++%#@@@&=#%%+#%%%&%@$@@$@O%@$",
"@%;#*++O+#+@+@@+@+#+@@@@@%%*%@-$%&#>$%$@@@@%*%=$+#@=+=O@@++@@$$@@@@@&@@&&-$&*$%#$XX@@####&@X#@@@@#+#%%%@$+&$@+@@%+&+@$@@$+=$@X$&$&&%+@@++#$$#@#@@$#@@$+#=$*+@*#%$%$%@@@##++-+#+#*@+@+%%++@%+%#%++@+.#%%##@&&%%%#%@##@@%*+*@%X$%#%==*$##++&+o@;#@&#=%&#&#%@##&$##",
"%+#.+##%#+@+@&%*#%@$@++#@$#**#%%&#&++$##@##*$*$-$+@@++@@+@+#@@+#@@@$+$=&X%$&%*&X###&*#$@%X@@#%$%%+@@#+@%##=.$$@+##@+++$#@&%.@##==$*%@@##@@%%#$+$@@+@+@@#+** @+$%***#%@%$+@++#@$@X+@@@+#@@++**%*#@@&##%+$#$%@##@$%*#X#&X%*+@%+%$%@=@@+$#+@@@=&#+###@&#=#=-&#&&$@+",
"#$%@###%@@#%@+$*++#++#$$$%$*&@$*&&$@@@++#+$&*&#%##+$#@#$%@+%+###@$&X$##&&#&%$#X@X%&#X$#&#@@@#%,*++#@+++*&$X@@+@@@+##@&$&#=*#@@$**&&#&$#+@@&+$@@@++$+&@@#:$+++@*:-*%%##@+%@%%%@$+++@@@#$##%+%%+@++@=++*#+#+###%@&*@X+@*%#++@@*$@#+*= %$##+@+-%#@@&$#&@=$&&&@&#&&+",
"#@&@@++@*$###@$++@$%&#@*#$=&XX#@@$&#@##++#@%$&*&*=%*#$*%*$#@$&#@@#@@$@#*$@&%%@@@@%&%#%#%%#@##%X@&%%@@%+#@&@+@$$$@#&%$#$X$&$@@#$$&$@@$@@#**#@@+#@&#@&&@#=*%:*@+**4%#%+@@@*@+%+%$+@@#&=@@+%+@*%++@+&%@+@*%+@%#%&%&@+##X#&*#**+-$-$++*=**&$&%%*+##%$$%@$&++@.O@#@&#",
"%&&@@@#@#%+$@#@+@+$%#*=&##*@$#%#&+@$#+#+#@@&=&$#%%#O$%*&*@#%@+++%@$#@@@&@%%@$#@+##&#&##@#%$$%#@#+++@+@#%$+@&#$&+####$$@&@<*+@@++#++###&@#+@+@@+@$@%%$==&$**$++@:**%@%#@@*+#@+#$+##+*%@+@@+@+@%&%&$%+#++==%++@&<$*@@#+$+*$+++X**X:%O+++$$=*%+++%@+&@O%&&.@+##@@$&",
"*%#@%#@@#++%%#+##@$@@*$###@#&X@#@#$$+#@+*$$=&+$$>@-&$@*%%+#&%#=#@@&$+#$.@*&+##@*%&$$&*%@@#==&##@#@+@#@#%*@#++$%+#@@+@=@+&%@$@+-=@+#*&#+#++@#@+#+@@>&@=$&:#OO$@@+$#$%#$@@+$#+@@+@#@@@%##@+#+#@@*;2=*@@+@%@&&-&#@#=&%*-@++@++##***%O+@@##*%$+%++#%=++%&#&=#@@#%+#@",
"@#++@%+#$#$@+@@$+&%%#$$%#%@@@#X$@&&##@@+@&&$&&&%+%$+@-=%@$+@@-=#X@#=&=#@@&$@%#@*$*%%%*=@@%*@%&%#%$##@@@#&+@@@-#X@@@$@&&&$@@&$%*$$#-%#.#%#*+#@%%%#+%+$&@$++*+++$%++$+#@++###++$X#@*@&#$+++@@@#%&*&=%#@@@%%@$%*=%&.+#@+%@@+#@@$X-$=+%#%#@%%&@<##@=&@###@&&&+@#++@@",
"@+@%%%&%$#@@@#+++#%@@%$#$#&+$$*&&&$##++@#+$=%X$%*&==#&%&$+#%@%%+@@###%$#@+@$#$$#@$%$&$#@@@X@%X#%%$@@%##@-+@#+&+=+@#$&&&*#*&$$=X#==%+#@++#+$+##&*#@@$=#+@#+*#*+$$@##@@+%$#@@%$$**@%==%$@#@###&%&&&-&#@#@+@*#%#&&+%-*##*@+#@$++@*#%+@#++$*#*%$&+%@#@###=&&$+@@@#@@",
"@@#&%*%+@%@@#@+@$%$%%%#@+%%$%#%;#*&@##+@##@#@@#$$$X&$&=>%&&&&=%&#1%&#@@@##@%$#@+&*&$###@#@##$#@%*@%@@#%##X@#+=%$$@=$%*@+%@%+###$&+,=X@$@@@@@%=$#+*+#*O+@@$=*@+$@++@+#*O+#++=O*#+;@#$&%&%%#;+%%%%=%$#+#@&%$@&=@%%+@&%@&##+#@*++**%o@@%+@&#%##%%#=#%$$%%#%#o#+@#+$",
"#@@-**%%###%&%+&%%%=%#@@+@#++$@*%%&$$#@@$X*X#$%$#+$+=#&$&=@#&$&%#&&&&++@@@@%$@o%#-1@#@@@#%#+##$=*$#X@@##X#@>=&$&+-$$=@%@+#+@#@#*+@=#%#@@%+@&*X@X*+++O+@$+#+*#@$%@+@@=++*=**#***#&+$++$+#%&%#&%%%+%&%&@#%&%%@&#+@#++#%&O#*#@+*$#@+@+##&+@@@@@+#=@#=&#%+@%%%&%#%#o",
"&#$@=&*@#+@$+@$###@*;#++#$@+@%;&&&%&$@@@*%*X#$&&$*+@&$=$&&##@#&&#&&%#$+#@+#%@@##&$&%$#$$#&#+@#=&#@#+@*X@&X#=***X$@*&$+$+%@@@$#*+@*&+@@+$$@@$+@$@++*+*++@$+$*O@+$$%@@##$=O++****#&&$#@$&#%%%+#####%&$&#@&#&$#&+@%&@@#@@@#$+#@++#*%@@+#O#$+##+%@#&&&&+##+#%#%@++##",
"$+++#$&%#%@##@#+#@%#%&&%%###@%$;&&+#@@#+@>X$@*#++@+@+@#%@$&##+#%$&&&#@@%%%$@$%%%@@#$$&=$##@@@=-$**-@@@##$#@.$**@%*$$@*@#+##%#++**X+@@@$$$%$+==$@++*+X+-+*+@X++*%+++*++++++#+*#**##&&#%%*&%++#**%%%#%$#@=+$%<@@%*@&@#=&%++@*@@*,X@##+%$++@@##&@*==#.%@%+%%@%@%+@%",
"#%#@#%=#%#%&%&#%%&%%@#@@@@$##@%%%$#&#@##@+$X@=@@@###+#=#<O$@@@%=$#@+@@#$%#@%%&##$@&@@&=$&&@#$&@&%#*#@@+*#@X#@X=$#%++**@=%%$+#+@*@+#+X#@$#$#*%@$@#++#++++O+%+$@@+O@+++@+++@+=**#@&@@$$&@+@%@@+%%#$$$$++@=%&@%#=##=&#@+#%+@@+#+#@@$+$@#&=#&&=&&#+&&#+&@%#&&#+$#@+#",
"@#&##*;%*#%=&#-2;1%+@@@#@@@$$#@%$+#$#@@+@@@=,@%&$&-+$@#++#+@&%+O=+@%###@%#%#&%%#$$$$$@&&@#@@$.#&@@+$%++=+@###*@+@++++@@++@@**$@@##+&&@&=##+%$@@@++#+@*@+#@+++*$$#++$@*#$*@$++:++#+#+$o&##+@@@%@#@#@+@@@@&#&$+$#@+=+#%#%@@@+@%*@%&#%+##@##<&+@=$&@@%=&&*&&O@#@$+@",
"#@+##%%=#%;&=$&$2&%$++@#@@%@#@+@+#$#@+#@@#@*$$#+++=&+@@#@+@=%o%=$%@&+@#@####$&%@@@%%@$#&@+@@#$#@@+@+@+-@X@+#@X@#=+@#$++#%$*@%#+#+####%%@%+@@$=$+#@#++@$*++++@$@#+@+++@+@+@#@#*$*@#$@#&#@%@+%+%%##@@@@#@$&&&o#%$%%%&##@%++%+=* @%#@&@&&+@@=%o##%@@&%@&%&%%@+;+++@",
"&&&$++@&121<**$**&@@+@@@$$&=+@$@&@+$@@@##+@&*$+&*&*$####@@#&#&%&%**++#%&%##%=&=#@@@$&$@$#@##@#++@%$$@$++#@#X=#X=#@#%##@#+%*$$%%+@*$#$+@@&++%@#$%*=+@+@@O@+@$$++++@$@%+##$++@@**##o$$%$+%@+%*@%&+@+$@@##@o@@+#&&%+&O@%+O#+**@#++%%@+$=&=&&@.#%+##@@+&;&%*#++%*%&#",
"#O&@$=@$-&*>%$*1<&@+@#@$@&#+#&&%%#@+##$+@@##+&=&*%=#+#$@+@##==%#%o$#&&#=%##%&&%@@#@%##+++@$@+@#&*@*+#$%X@@$@&+@++@@#@$#@$$#$%@+++*#+$@@#%&&.@*@%*+*O*O*$+*#*+#+@@%@@#++%@++**++%##@&&&%$%#%&%&$@#@&$*&+#@@O#@#@@$+@@++$+$=$=%+@*&+#%%%&=&*$&@%@$###=@@&$$++%%@#%",
"#%%@$@@#*&=*-=*=%&@o#$#@+%&;%%@#*#$+@@@@+%@#@@=@X@##%@&=%###&#=&&%=%;&=%$&++&&$@#&#@@+#@@#&#+@&&**@****$@+@*$#@#++@&%%@**-*#@##$@++%+$@+++&$+*****$*O++**@$+$+$+@%+#+@@%*@#*+***&&&o#&@&&<%&+&&$&-@&$+@@##@@#@+#$&#**++***%X%O@%6##&%$&o&+@&@%@%##%@+##@#&=@&@@$",
"O$#@$&+#*%%&=***&&+%++&@@&&&=O$&#*@+#@+@@+#;X$&&+#$$#+$&$@@@>@@%*&=%%&&#=#+#$$&@#%%@@@@@###@%=&#$+#*#*$*#+@@++$@@#@%+$%#$$#$#+#$&+@+@@+@++#+$*+$*#%O#+$*$$#+%@%+%o%+@+@&*%@#+%%%+&<#&&#&&+&#%%$@$#&&O##+#+#@+@$@#%+%*+###=@*+@@=%&$+&=%&$##**&O##%&@#@%@+%%&$+@%",
"@$+$@=@&%%&*$%%*#%@%$$+@@%@&+$+&=@+%@@+#@&@$#&&&$*>%@$$%$#+*#%@#@*%&#=#++@#+#%#$@#@+#+@+#@#$#&%%$****X#$X++#++@%@#@@@+$@$+$*###-#%@$=#@@$+@%*%$&+O+++%$+O#++O@%@@++@+%#==#$#%*O@#@$&&@$$+&&$+$##&*+@#+++O$@+#&#&%+@@@+@$@$++$%*=$++#+@&%&=%++#=$&@#@@$+&;&@@&$&$",
"+#$%#=@#+@+#@&$@#+#@+@@&&%##&@&##&%&+%#@@@#=$&&+&&&O$@@@@+@&+%@$$=&#&@@&@&#@$%@@@+#@+%+@#$@##&$&$@****@+$@*@#@@X#%@@#+#X@+*##+#@%O*%=#+@##@#+$&&$+@$++#+@+$+#+#@#%@@@$%-$=#%@#++&$@#&&&#@@+#$$%@@@%=@+@@=##@$##$#@@@#@#%*+#$@%=*%%@+@#%#+%$+&%$&+==##@@@&#+&###@",
"O@##$@&+%@=@++#@@#%#@$@+##@&+=#@&#**%#$+#+@+@&=O=&&+@+&#$#++@+-$#@=@%@==&+@#@@+@@$&#;=O%&%&#%&%&*=X*$$+@+++#%+X$++#$#@+*@$$++##@@@+##@%&%%#*#>*+%*$+=*+#@$+$+*$@#%*@+#*%%$%=%$%@#&#&&@%@@#++#@++$#%@#%+++@@%@@#$+@+*=@@$*@$**$#*%#+@#=%=$$#&%$+#&O+#++%#o&&+#%#@",
".#O#+#&$+1@@@@#@@+@+@@#&&$#&&#;&+%#%%#+++@@+#&#&o=#+%%%=XX@@+@#==&#$##$%&$O$$#$@@++$*+#%=%###%&&$$$*#*@+@@+@@&#*X+*@%@@++%$##@@#@++%#@%$*$@&@%X-+**+*O#+$@$$##@%**%#+%&=,$$*%%@++%&%#@&#&#o@@#@#$$&+*+@$+##+@#@++@%&@X@@+$%$**#*%$@@+%&&&=&%+@#+o##@@@@@#@##&@#@",
".++@@>$&$@$*++#+$&$+@@@=&&=##&+@&++#@@#@+@###@-=&&O#$%&&@X#@#@++&o@@>$=@#O$&&@@@$@@@+%*##&;=&@&&***=#$+*@+@@+#+#+%%@@@+@#@%@@@@$@@+@##&%#@+#=&&@$*#$O+###@+@&#%1=**=***2=1$%=%#+$++%&%&$+@#+@#++@+@@&+@####@=$$#@+%*#@X#&#***@#$%##@@+=@*$+o+@+$#@+%@$@@@&;$o+o+",
"+@+@@@&&=&%+#@#%#$%@+@<&&&$@&&=&###+@##O&++##&%=#&#$%$#+$%@$#@#+@@@@+&$+++@@#$##@+#+$$$*+*$$@*+@%@$**++$+@**%%+$#&%#%+@%+@#@$+#$@+@*+#@+@@#@#$%*&$*+$@$$%@@***$$&;&&&<$=%@%>1&#++##+@@#+@#@$++++@@%##%##@$+#=$+@@@++@#%**2:**@%$##++@#+%X*X+#**#$$%$&%&&%*%@*++@",
"#O&$$$$#@<#@+#&#$&@$@@+$+$$@o%*&=%@##@%$#++##%%+#+$*&$$$@$#@$+@+@$@+@@$@+$##$#+++@@$+++*=@*$#=+@+$@#*%$+@@*%*#@%@##$$#$@#+@++@@++**%@%@+##&#@*%@#*%O@%%$$$$$+%%*&;&64;@&#&%=&&$@@@#+#&&&@$o+@+@++%@%@=#@@#&&$%+@%@#@@+%1245%*%%@@%@@@=#=**+#$=$@####$+@+@*+$@##+",
".+#@@#@&#%@=#@%#&##@&@#%$+%@%==@#&@$#@$%#&@@+@=%&$@&%%%@#%*@+#$++@##-@$$++%&$+$@@@@++$****#$+%+%+$+%%+#+@+$=*O@#@@+$%+#X@#+@@#@@@#O%%+@@@$#+#%%+%#=+#@@$@$##@%$*&&&2=&%&&#$&$&#+@#&%%#%$$o+$#+o@+++#%O&+#@#%%O##+#@#@@*-2&-$*$+@%@#@#&%%X##+$#**#*@@=@@#@@$@$++X",
"O#@&#&&$&&&#O@@&%&$%$+#@@@$$O#@%#@%#+@@+@+@+#@+o#$-#.-X#=@@+@#=$#$$%*+@@@%#$%@@+@##@+@O$@*+++%$+%+$*%$#%#*+%*%*##+>@@+#@$@+@@$#@@@#@@*%@++@%@%$@#=++@%@@$#$*%@+$@@;$%##$&>&&#@$@@@+&@&@+$@$+#+&@o+++#+&+$@$#@&###@$+@+%%#%%*#%@%$++%@-%+$*#+$#@&=*$@$%$+#@*@+@&@",
"%#@@@+&@&@#.@##$@@&$#@@%%$&&@&&o#$#@##@%**%#++@@##+++%#&#&###$@$@#$&+##++#@##@##+#O+%%*#$* @$+@*%%%@@*%%%O#=+$=%=@X&#%+@+@@+#%%@@@+%%%#%@#+++=$@+@=##++@X#&%$$#$+@%$@+@#&@#$+###@@@@##&@$&#$#$O@@O++#$&+#@@@$%#@@$&%%$#%$%@&$$#@+@@@-+$%+**#++@*#@@#*X+##%%*@##+",
"$O@@#$@$&#@@@#@X@&&%@#%<$&#$@O###&%#+@=&+*$+@#%%#@@##+@&%@++@$@++*&$@#$@##&$##+#%@$=##@+#+=$+$$@@#+%@@**@*+*%%.%@$@++@@@@@*$#$++@++*%@%#+#$%$%%#$*%%#$&-@@%%$#@@+#+@@%@#@#&#&#@@@@@##+=$+$@##@O@+@..@+&%@&#+$$*@#==-$#$%&=&$+@+@#+++&#$#$*+*$X#**+@@$#@$+&&=*+@+",
"@&&%@#+&#+@&@@@@$%$&@O&%@&&@%O%@@&#++$@+%%$&#@%@&$%$##+#=*+#%@#+@#%$@-$++#$%$@$@%$#===+*+=*+O@#++#*++@@%+#1+#&=+%%%@#+$+@#*%##+@$@##=$%@@+@+@&+@###+@#*$*X@#%@@+@+$#+@####+#++@@#$@@##@%##@#@#O##.$@O@&@&@@@+$#$%&&$-$$%*$$$$#$@++=+@&@&*++$$+@*+##*%=*%&&=%#.@+",
"#&%&@&@%@@#$@#$$$+$@#%&&&o@&@#%%@###@+#*$%@==*%%#$=$#@@1%$@*+#+#$@++o++%@@#@@++%+@***@@O$+@$$$+$*++$%+@%#@O+%O%%#&=@#$+$@$%**#+#@##%%+@@@@*#@*@*$**#X=X**@@#X$#@@@+o%@&@@+@#@#&%&%@@#@@@$$@@&##OX#@@%##$%$&+$+#@#@#%@%%%%**##+#+@$=@$X&@+##++@%@+@%*#$*X@$%#.%=+",
"%&$%@%=$+@@@$@$%$@#$$$&@$@$+&%1@%#=X#@$+@==&#&O@$$&$@#$$&#$O-#+#*#@#@#@#@#+++%%+@#*%@*#****@*$#+@@+*:+*+@+@$$%+%%##=*#X@#@$$#+$#@%%@%@+@#-$@&%*$&**$+&*&*#%=#+@*&++#o+%&&#%@@$&&$X+$==&+#=$$@#$@@$**-+@-=+$#+#$&@#$#&$@@#$%$##%#+++1+X#&$$+@#+#$##&=$+$@#+&@@$*+",
"&=$@$$X&#+@@@@$$&#@@+@@+$++&$#&$+&@$+&*+%*&&&++%@@@@#@@@#@@+#+@%$&%##@@@@#@#+@+@#+$##*##@**+#=+*%@$+#$++&#+=@*@%@%@@#+@@##++$+$*%@+@$+@**&*&#$&+&$+*=$-%**@X@=&+##%@@@;&&&%@#$&#$@@@@&##*$%#O%@++$@*%#&&=&$+@$$&&&#@+$@$%@@@+#&O#@++@@$@@@+#$$=@#>&&&@+@@&%@$$++",
"@@&$&$@%&X##$%+&$$@#$&#+&&$&&$#&#$@$+@$%%%&&&+@$#%@#$$@@$@@###$&%#&##@#++%@&@@@@#@**%+@*#%$**+#%*++@##=+++#%O*@$%$#=O$@#++##@@@%%@#@*+%**#**$$X#+@@@%$*&%$*$%$#%&@@##&$$&&+#+#%#%+$$$$&&$###&$@%@+>&$&=$&#&X@#+&$#&@$$@&%@@@#&#@+@@@+@$$%+@@@*$*&&+&@@&@###$+=%@",
"@$>#$X@%%#$@@@%&$$&&$@+@#&$O+@%@#++@@@=*%#@*&@#&$&@&&@@@#@%##@#@+@@@+@#+#+@##@@#@##=$*+*#**#@@@#++*+O*O+1#%%*+@:.*=+$%%%*#+@$@$#@#$@X%*%+@X**$$@@@$@$@$@=+$#X&**&#%&&o&@%#&&%@#+##&O&+=$&##%@#@+@&@$&&%%$@%$##&@+&#+$X@$#@@$@@@@@@#$&#$%$%@$$*%@=&@#$O@##%&$$#&#",
"$>+@$@@&X$$@@#&&&&&&%$+#%###@#@##@@+#@X@&&=++%%&$#$&&$@#@$@@#@+@@++##%++@@#@&+++@@@++@#=@#=+%+#*+@+++#**$#$++%*+$**-*@+$$#@@$*+%+%$++@#X+#@#%@+@#++$@@+@@=$$=&%=$&&+#&;#@&$<%+##$&*&+#+#=##+*##$+$<=$%%&=#>@.&&+=+%@@%$@@+#&$@$@@@@%.@$%%$$$@#**###>&&=$=%&&##$$",
"##$+=&&$$%@%%@%$&&&6&=%##@$&&&@#@###+#=@$%X%*$*#$%$&##%&&@+#+@#=*O@#$@@$%%$++@%;*=+@#**$=@O@@*%#@@*#*+*#*+$@@#=++$*+@+##*#@+++@++%$@#+@++@$@@@+@+#@%$%@@@=.%@%@#&%&##@$@@$&&+&#&##%=&&$$-#%&%###=+%%$&%$$&=@++&=&+@@%&$&#@%#@@@@####@###$*@#@*X$&#%%&%%@#%&&&&#@",
"#&#&&=@&&$&XX$&>=&&&<&&##&<;&=%$$#+#@%@@@%$@&$%++@$$&$===#%@++&&#@#$&+@&$%%#@@+%*#+@@+#+#++***$#%#O#+#*++$####*+#%$@@*#@$@+@$@++@@##@@+@@@@@#&#+@##@#+@@@&@%$+$#@+@&#o#@%&&&@@#&&$+=$%$&&%#*+#+%&%%%@$@@X$$@@@@*@=@&@=$@+$#@+%$@%%$@@@@&%*@@@***%#@&&##%####&%$@",
"@=&&=&%%X$X$&$$==&<&$&=&=&;&&@%%*#+%@@#@@@+&#@+$#@@&@=&&$#@#+>&=*%$@$@##+#%&&*&#+#$##@++*#@#$###%+@#+@#O*+$*#$@*-X#%*++@$@@%++@#++%++##++@+@@%%@@@%#@@$@=&X##$@+@#+%&#&&&+@##&%&+#@$&&&$#@@%o#O##@&$#$&+@$=$@@&*%*&@###X+++@$$$==%+@@@$@##@$*#@*&+$%#&=&%@%##@$-",
"#%O&o=%&@@@#%%&=-&$===&$%>&&%##&@$$@%@@+##$@#@@+#@@@%$#&;&#@#$$%*####@#*%@%;#-##&%@@@++$%%+@%*@**%#@+#%%##$##*#&%*=##++#@+@$@++#*O$#%@+@%#%*$**$@%@#$$#$X+$$X+$+$&$&&+##@+##@+@@$$&&%$$%&&+$$#$@$##*#@+#+#++@+@&*%#@@+&*X#@+@$$>%##++##@%@##%@%%&%$&=@+$@#@#$#@#",
"#&*#@=%O*%+**%$&-1***&$*=&=$$%%##&&$#@+@@$#@+#$@+$+#$@%&&&$@+%>$-@@+%+*$$%*%%#%%#@+@+#*%#%$#+*$%%%#+#@#%%+@*&#@*o=*%%*+#+#+++$@$;%@*#%%;%%%**=***%%@XX*@#+@@@@%$$$+$@$+@@#@#@#+&#&#&&&&&$#@@+&@@@#@=%&#+@&#@O@+>@*%%#%-@+#$&*$@&&#+###@&$@&&%#O%#&@&&@$O#+@+O$<%",
"&&@#=&=&#O#%*$&=&*&$&%$===&&&%#&*$##+$#+@@&O@$@+#+$#%&&*&=#@@#&&$@+$+@#*%%%##%%@$+#$@#@##+*#%****%@%*%*=$##%$&*+$==$$@#@@@*+@@##+@@%$%*#@=**@*=$$$@@@**@$#@*@#@+$@&$+$#@#@##+#%#+$%@&&$&$#@#$=%$&+#&#&&+@#$@#+@@+-%+++%++@#+%$#%&+%==O@=##%&=+#=&$&@###$+@@+@%%%",
"%%&@$$###@#+##**&=&@@+#$&&&=1=&%#$$@@+$$#&%@+&#$+@+*%+&%&$#@#@@#@+%**#*$%$%&+$@$@##%%+**#@#*$##@@$++#+%*%+@*@&&@&% @@@#++@X@##@X@@#%@%%%##*@***1$**@@@@$*@##X++@+$$&;$$+&%#@#%#@%+@+$=X%%$@&%&+$O%@+&%=+@&%$@@&$%+@=*#%+#@##$+@&&+$@&+#$&%###+&O#&@$@@@@$$$$+&=&",
"%@@%&%@@&+@#@#@#&%&$%%&*%=&=#&&$$%X#@@@%&&%##&=&%%$<=$%&%&@@$#@@+++*=*##;#%@@+%+$@#$+$+@#+@%@%&@##+$@@%*%++&$$%#-%$@+*+$%+@+X@#@#++%%%%$+#%%@*$@$**#@#$@#@@+@$@#@$+@@#$@&&###%+##@+$+=%#+%$%%.#$%#+@$<&#&&++@@&$#=%+@$$@+@+#%#$&%%@@##$%&@$&&$=O@&###@@#$#&+$&&@",
"%@@@@=&@+@%%#@#@+&%@#$*&&&>&&&-&=$%@+@#&=&&&%&%$&-&$%%<&&&$&%+=##O***#*%##@@@@+*@#@+#++++@@+$##O@##++%%+&@=%*#&***#=*++@$##+#@%%$+##%#+++@+#+++%X$X$*X@*-$$$+%$@@#$$$@+&%@##@@@$$&$@$@$&#&$+=&@@##+##&#&&$@@@@@&=*$#+##+@+#@@%$$@+@+O$$==+=$&@@@&#@#$#@=%1@%#%%%",
"%@#%@=*@*%+%%+@@%+@+$%&*&=%&%%$&$+@@$@$&&&&#$<>&*%&**&*&&%#%#@+@*+%+*##$&%+++@#%%+@@@+%+$@@&@@##@@@$#$@+$$%@#$&++@%@%+%%$@X@$#X#$@%$+%+#%+@%%+$+#@X$$@+=%$&$$*%=$&#@#@#%&&#%@#$&&+%+$@#$&%%&@+$#&%&%&&@%+o@@@@@#**=X@*@#@$$+@#++++@+@#@$%+$=#&=1$&@$+@&#&#$$*%o&",
"#&&%=$+@%%+*@&=*%%#@#%%*&6<&##@&$@+@%#%$++@##-&&%$@&#$+&=&##+@+@##+##@$*=%#@%@*%@=#%%$++&##$@%&&$++$*+#@@=#@#=$&%$#%+##$$##@@+#*$%@#+@#+#@++$+++$X*#+X#*=#+$+$#$&%$&%&=&&@#+&&o#&&#$#%&&&%&>@&#&&&%&&%>+@#$@$@@@++O+#*=@#-$%-@@&#@=+@@#@@@+$%#=&&$&#@@#+@%+%#@#+",
"@&@#@+$%@##<%=+#&&#@+#%&&41&%$#$$+#&$=$#@@++@$&$&#@%=#&&&@#+@@#@#++#++*%**+#+%%#*$@%##+=&$*#$@@O&*=$X$&%%%&#$*#$$=&%@+$$-*%@$@@%@#+@@%=&+*$+**+$*=@+#=@*&$#%&#@$@Oo$#@.#&@@&%+#%%=%#$@<+++@&&#++$.#@+@@@@+@&&$@&@+$=#*%*%+@$@+@%&%%+#&#+@@#&$&OO#$@$$&@@&#@+O@$#",
"%@&#&+@.-.$O#o&&%%@%@#%58146=##&@@$#@$$@@@$@$@@-=@+#&&&$+#@#@&O#+:%*+#$%@$@+#*O@@$+%=@*&%&X#$+-#+=#$%&&%&$$%$$%*=&%&+$*&#&%@.@&#&+#&$$-%*#%*@O**+#+*=*+=&*@&%+#@+#@@@$@@o%@@&#@&&#&&&&$&@$@@&#@#$#@@###%+#O$&+%@@@*%+%$+X+*@&@+@=*+#@@@=&#=+&=$%#&$@%#$#&$=+%##+",
"@=@&*+@#@#o@++$&%&&++#*q6&&&####$#@@#&##@&@@$$@$&$+##%&+#+@@##@%+$+**+$+@%+$##*#@$*@%*$$#@#@#&&#%**@$@=@@==#+=&.$$@X@#=&%=%+@$$&%+#$+#&%*+$*#**O*$@+*+*$$*@#*++#@@@@@@++@&+@#+&%&%$+&&&$&@+&&&&##@@%##%#&#@@@#$@@@+@*@+#@$$++@@@@+*%O$1#&$@&$$=#@@#$$$@$@@#@##$O",
"&+$+O++@O$#+%@&>&O+*+$&1=%&$@@$%%@#%$$$@@%%@@#&-#$&++@@@@@#&%+&@*$$##@#+@+@1*O+@$+=&$%*#$=#@#&@$#%.@@*%+&&X+@@+$%$@$%$&&**++#+$&#%%#@#@-@++@$=$**#++**$#@%**$+#@#$&@@+@@$#%@+#+&&&#&%$+$#$$>&$&&&@#@@=&o$$+@$$&@+#@*+=@+$+@#=+@+%-&$@+@##&&$+$%$&#$&&X&+#%@#@%$&",
"=$@@@+##@&%##+=&$&%&&#&q2=###@&$$@@$&&##@#&@@&*$&&O@#$@#+@&*&#&>%**@O@+*##@=%%*%&*$*$*O@$@@#@*=%#o*+#$&&$=@+@+@#*$@##@%=32$%+@@@&$$@@@>&O#+$*+%**+#**@%@+@@=%*++@&%$<@@%&O@@&&%##%&&1#$%@$#&@%&##+@@@&&=$&&$$&%O@+$&-#%$&%+=&++#$#++@@@+#&&X#&$@@&&#>+@@%@@&@#+@",
"%#@++%#+#%%#++#&@&@@#@*$%$&+O$&#@$@#$$&$#%@+#&#=&&&@@+#@@#&#+#=O$%@#*=%#$++*$=%#+@@**X++X@#$%%&#*&#$*&%+&&#@+@+#&*$#+@$-8-#$@@+%$%$+##=@##*@@*@++*#*****@$@*#$@#&#$$&++@&$&#+&+&&%+%&++++$$&=+%#@&@+$&&O++;#$&$O+$#@X@@%%**#&+#+@$#%@@+@&@@@@+@+#$+=&$%@#@%$@@&$",
"&%#+++#$&&%#@@@#%$+$$#$-%&%##%%&%#@@$,&$$##$=#$$=&#$$@@##&@##&$@$%$=*=$+@+@+*%#+++%##+@$$@&+@@&$#%&==$$#=&$+$+#**&#$@&#>&##$#@+$@###@@*+***@=+#+*#*X**+*+$@*$X#=&$&$&O#&$&#&&@&$&@#%&&#%#$#&&&&@$&+@@##@+&&&;&##+$@@@@+%&&@*O@#+@$&@#+#@#@+##%@@&&&$$$$@&%o%$@&%",
"%&@%#%@%%#+@##+&##%@o@#@#$%+%&&#&##@#@$##%-&%+#%=&&@@$@=##+%@+.#+=+++O++@@=O+#@@@#$$##@%@-@$%+#$o#&&@@+&&@$$#@$#+&$$&%=&&#+$%@%&$+#$@@$#%@@@#%*$*+*+++%+#%*=@@+*&<$@&@=+@>&+#&&.%@&=&+&##$##@&&&+&@@@$&##$$$@&$+>X@#+&=@%X@$&#+@@@+@$+@@$>@2&&++@+&o&&+&+&#;&&O=",
"%#$*=@+*#*@#@+#+@$%+##+##$*&$&@##+#@+#$@@#&#@+#@#$&#%@@&#%@@@%#=&#$&#####@#$&%+&$#O@$&%&@O@$#%%&+&$&@#@&o@$@@#+#+%&%&%&@###&#+%%$@@#@@&#%++$+#*$*=%***O#*++@+@%#%#+#$&+@#@#%#%%@##&#@+%%+#@@#=+#O+%+&+=++=##1#+==*&%*$*%++###+#$@+@&%@@O#$#%@@+@@@+@@&*$+&%@$=&@",
"@*#$++$*#$@++$#%##%$*%%##*%%%#&#$@+@++#+@@#@%+@@%%##%@&&%&&O@&&=$O&&&@@&##@&%@@$%+$+#%%%&@@$#O#+&$$+#@@@@#+@#@@+#%%%&#&@@%%%%#+@@$$#@&*@+$#*O@+*#$%%****@+*+#,*=%+$@%&o@@@@@@&@@%+@%%%+%#$$##+@#$@@#X*$#$X&%**%*&*@O$$@%@+++#@%%&@@#&&##@+$#>#&O+#%@#@@&$$**&#@@",
"$#@*@@*$%%+++@++#$$%=*$@X%#%#%#XX@$@%##$+$%%%$#&$#@#+%&+#&O#@&&#$&&+&$@+&&&+##+$%+@+O%%%&&@@@%$@#&$>#+#@#@$##@@@#@%=&&%++##@+++#@$@$###@@#=@+#=**#*$***$*+#+#=@*&@$%%&&+o@@$$#&#$##%%#@$+%@=+##$@%&@$&@$*#%@$#*%+@*#%1%*%++@#@@##@##+@###@$&&@&@@@@@@#$*%>*$*&#$",
"**%@#@#$+++*#+**+$#@@++@#$$%*#@@@#+@@$%%%#$##@##@$$&##%=#$#%>O&#&&$@+&$@##%$@+@+@@+#%#;&@&+%@&$++#$#@###%#@#&o&@&##%=*&%+%%@+@$@++$@+$#@$$=*#**#$@=*+*X##+$+#**$&&%++&+@&@@&%@@@@++@+#%@%#$&&=&%&OO=&=##$+%*&*%##%@*%#*%*+$#@+@@+#+#@+@+@@@+#@@+##$#$&*$$#*=#*+#",
"%++@#+#+*+@@++$#@+++$##@#@$*$@@#@#%$#&&&&&#&%++@@#&#@#+$@@@&%+O@@&$&#%@@%%%&@+@@+@&$+&$&1+$&$##@&##@#&@#%#@%&#O%&@%&%$&%#&$+##@##@+@&@&#$#%$$=*+***#*###+#@=*%@$&;@%%%&&++$@%@##$#%=%+#+%@+#=%%%+$$&=#$@@@$X++#@%+*%=**####$@@@+#%%%@@@@@@X@+@@@&@%&*&@$#*%@+@+#",
"+@@+#+@#@+#+#O$$$+-*#+++*@%*%####%$#&&&@@+$%#@$@@@#+@@%+@%@$@$+#$@#&#&%$@%=&@@$@@###&o+@$&&&&$#&%%#&o$#&%+&&&##>%%%@+@+@%+@+##%#+++++%#$*++#$*#=*#=+*#*++$*%+$#%&&%&%*&o@#$&%++%@$@&%%&@$%&%#&+%++&+++@$$#*+$++++@+@%@$*%+@+&@@+@+%#@&&+>&+@@@@@@@&$=&*#*+&##+##",
"@#+@++@#@++%+*++*+*%#@%#@+%%%#@#@#$#$%%&#@@#+#$#@$@@#%%$>#&&$##@$$&&&@$$&&@#$@@@@#=@%+@+&&&&&O%&&=%&&%@@%+&&&@#&%%@@%%##@%@@-+@@+#%+@#%o#$*=****##++O+**&&$$%@#+$&&&@&@&$&&o@@#$%%%%&#@#$#=&&%*@@$=+#%&$+*@@@++@+@##*%#+++@$#@O##&%%+#%#$.@@@@@@###=*#%&%@$&@##+",
"@+#%###+$***=*O*@$#+#@$@X@@**#%*%@$@#=%++#@@@@@+@+@@1&O$@@+@#+%&%+@&&&@%%&$%@#@@#++++&$@@#&&+#@+#&&@#&%#@#$O+@#&@#+%%++#@@+%#@+@+@%+@@+@X+#+XX****##+#*#X@#*%%*$%@&@###%$#&%+@$$*%&+++*o#*.+%&#%&=$$&&%$*%%@@##+@%+#+++#@@+@@@#%*#%##@%#$@$$#@@@@#@#%+$*$@1@++@$",
"+##$+#XX+$%O#O$#*@+%+=*$%$%%*%%#$&$$@$++@#+@@#@@@#@&@@%&&&&&&+###+@@@@#%$&$@@@@+@@@@==X%#@$=&+##&=$&$&&$&##@@@#$%%+@$@@@#@+1#*-*$$+++#@@#@+#++**%&+@#@@&%=&@*=@&+@#@%@%%&%$+$%@#&*#&&&&$=%#%@&$#%*@@%@@+++#+@@@@@%#+@++$%%#@@++$#@#++#&%##@&##$+@++%$+**@@@%O+#*",
"++$@#+%#%@@@#+@@@$+@@#**@+$$&%&*&&>$@##1@#%#@##@@#&>>&#+++O$&+@@@#@#@++#&&$+@@@##@@@&&X#++$#+++&&%&@&&&@&&@#&@@@%%$++@@+@++%%=%*++@++$#%#+*+#+$=*%@#%++,&%X=*X@=%+@#@##%%##<$@$&&@#&#%%%&@=*%##%+*+@**O@&+#++@+@*@@%%+%*%#$&#@@&%+@@%%;-&$@#&&@@+@@+*=#*+@+*$@+%",
"+@@@@@##$++#O@+$#%$+*@*+$*%@$%*$$&&$$+@#+##++#@@#@+&$@+@&%%&$&##@+@@%@&#$&+@@#@#+#@$&%$$#&$&@&%&$&$#$%&<&&$$@###%@@@&+#@@+#==+%#@+#*$@$@@@@#$#*#$&$%++@$&#==@@+@+%%@##+@##@#&$+;&#=%=O+&=+%%@#@%#%$-#*@@#@@@+$+#@*%%%@#@@$@#%%#@@+@#@#%%&%@%###O#+@#*@=**@%*++++",
"+@$++$@@#@@+@+@@@+@*+=##*$@@##*$@%&$+@@+&+&#@+@%$@#&$%+@#@@&&=@+@@$@+#++@+@@@@@+@$$&%&=%*$@#&&O@#O$$#&$%&&&#&&@@@@@@+@+@+$*%+*&+X=&#$+@#@#%**#*@@*$@@#$@+$=$@$@&#o&@+%#%+$@$o@#&%%@%#++;%+@$@#$@%###+*#%&+@&&%@#$X%*#+##+%@##%%@$@@+#@%&=#+@$@@#+%%#@*@+@%**%#+*",
"@@@#$=***++@++@@++#*##***%%#++#+#&@+#+@$+@@@+@@+@$%&&X##+&&&@++@#$@+#+#+#@@@#O#$$@%$=$&>&@#&=%%@##+;&%$&<&&&$$&$@&%%&$$@+;**=*@*&&%=.@@$*#$*O++#+&%-+=@&=&&X#$$$*&@@o$$#@@#o##@&1%=&#%&#%@@=%&*%#**%%%+#%$@%@O#+@@@&@@+#%@@%&%$@+$@@@+%%&O@@++##+@O*@**:*%*+*+@@",
"@@*$-$%==+@@@:%$*+++#+@O+$%#=++%+#@#+###+@##@+@%@@$$##@%=%$#&&$+++%@#@@%+%@+#+%&*=$+@=+@@$$X+$$+@#@+$+@#&&>&&&&@%&#$$&#&@=+%%O=#>&-X+$&$*%*$#@#@&#++$.@@@#$%@&#*@%@%$#@@$+#+#&$@#+&%o&%+@$+@&o%&o+&@$+%@#*%$%+#%@+@#+%#&&%%=%%@%%&##%#@@%@+###&=#*++**$$+@@=%%*%",
"X++$*=*@*$$+#***%= #+O#+#*$*%+#%@+##@#@#@@#@@+@+++&&+&@#@++&$$O@@$@@#++%%#$#&#-$*#$#=$###@$%#@$++@@@+&o%%&+#&&$$@&#&%#@&%=+%@*+#+&=X$#X$*****$+$@@X#=$@$@@$@#@>$%+%$##%@+@@$@%&=%#%##&%%+%#&###%+&%%#@@@#%%%#@@$+@@$#++>=&%%&%&##%@+%+@@@+@+@&1&$*XO+$%%+@@% $+=",
"$#**%$%*$+****%+$****=*++%$$@+@%&%&&%+@%%@+#+@#@&+$$%&$%#%#@$@@$*%#$&%##%@##@%$@+&&$&&&=*%@%##@X@#@o;#+&%$&&#%>@&o###&@#+=+*#%*@@=$X@++=***#=#+@+@$%=@@=%#=X=&*@%$$&$$#$+@###@&@$&#%&@@o1%$@@@@%#%#+*1@@%=#+@+$+#@#@@+$&&&*%&#%%#%%+@++#=&$++&#&X@#@+$@O#+@+=+*O",
"*X#*@@$**$=@+**@@&+%&+##$&%%@%+###&&##%&&&#%@@&#+&&$&$$&%@+%+#$$+%*+@#%##@+@=&##@$@=%%&$@$*+$#$@+=%&O++++++#@@@*$+***#=%@%O+#*%##@$###$$&%&&&@##%$#@$%#%&##&&%++#&%+#&+%@#%&@@;#&%&##&O$@%&%+%+#;%@#&&@$#@&@@@@+++@@&$#@%@%&%+++@$#+#+@#&&&=;%-&O#@#++@+%++=*-$+",
"@@@@X*=%$#++=$#*&##$%$$<@+#+@#$@#1$$@++$+%$&$&%$#&$&&$@#;$&+$&$@&@$+##%#@++@#%###%&%&@*#+@@%#$$>&%o&$@@@##%@%$+*$@+*%#++**+@@1%@@&&=$#$&+%<=&%@#@&@.#&#&$+@#$=*+&*&%@&&#+%$&%#@@#=+&&&$&@&%&*+=%%=+$$++$$@$.X@$$@@$&$@@+@++#&%++#+++@@@<%&+@&&&o$@@@+%@$:#*=.#+=",
"*$X@@**$*@#=*%#*#$@@&*%+++@&+#$$+%$&;#@&%#===##@&$@=o&1$+@$$#&$$&;*+%@@+#%+@@>&%$*&&%@#%$$#%#+##&%&<**#+##@#@+%%$+#**=%@%*@##%%*#&&+&@$@&=&1&#@+@O&#+=&$$&$%&&#$$&&.&@@#&@&%#=&#+#%&&&#%+#%&@=&+#X+#$&+@@@#*@@@X@@@@#@+@##@%%&+@+#+#&#@*##$%*++@$++*+@*@*@#**$&$",
"%**$$*%%@=$=@=**$&@#@#&%&-&o@@@+#+@%&&&&&&@#%#.@+@@O@&$$@@O@#&$<+%*@=++@#$+@+O#&@&@-%@&*X$##@$@&&&#+@+%+@+##$$****+++@=%@*#%=#*%&X#*@+$$#%&&%@@++@@@&&#+#==$=@$+$+@;%@@$O#@&=%+@#&@O+&&#%@++@#$@%#$#%#$@&&=*@@$@#@@@#@#$%%#+@#%@##+@+##&%%+-%%+#O%*%@##+@+$O*.+-",
"$%**X*X-#*%*=#*+#$$#>$&+&$+#&&=###&&$$@++++&&+@@+@@@@%O$O$@@@&$++*#**%+@%@@@*++@@@@%&$$$*@%=+@$$%%%@@@**%@@*@=O%*+$#@@+*#**@**##X@$$@+@+#####@##@$#+@&&+$%$@#%%$%+&%$@@$$&=@O$@#O$+%@%+=##%%%#+o+@##$#$$$$@&#*$X+$#$$#$*#%%###$.$&@@@@+@#@%&%+++**#=$=$+*%+#+@@*",
"+%@*$++=$#+**OO$>$&%&+&&=#=#$&O%#$@%@@&&%#$###=#@#%$++%@#@#@&&&+@#%%;+@&%%+@+@+#X@@$@$@$@%X@&-++o%+@@%#++=%@%O+@@@%**@#**@+%%#=*%+++@@+@+@+#@$$##@##@$#%#@&.+o#%@@@;#@+&=@O$@#@%#&@&&%@#@&%+#&++%###$+##%@+++@@@++@$+*$$&#%+%%%$$#O++#+@+#%&&##&%*%@+#@=*==+@+@+",
"+*$**#**$++=*++*-=*&&%*$%#@&$%&&$+&@+#$$&#+%%%$+@@%O@#o#@+$#&$&+@&%*%@+#+@+#@@@@@@#&@$$@%%@$&&%%+&%+@@@@@=%++@@*++*#+@%**%+%*%+*++@&+@>&@+@#@%%#+#@@@&*++&&##@@&#%*.#==#%#%+$#;@=#&&#+%%+;%*@##$@###$$#@$$@@@$%@@++@+$@$o+#+@@#&&$###+@+@##*#+&+##*#=%*=+#=+++++",
"#+*+X=*=$***@+*=@%.@+%=&#&+#$#-$%&&&&+$&=#@+@+.#@@#%+#@#@@&&%&%$;%+;O@@+#@%+@%%%##$@@@+++++$&$%&;%%+###@*$%@@%*%***%##*=+#*+*+* $&%&#$@O#O@++#+&&@@@&$$=&$+=&*&&&&=$o+#&@+$$$&o@%$&##+++%%&%#@@@@@#$#@%@$$#X@@X#+#$++@#$%+%%&##@@##@%%+%#+;O*%+%@%***%*$=$##%++@",
"o*@%*@*%***+%**+#&&#$%#*+#&$-&&.#%&*$$#=*%@@#+#@@##+@+%O@%#*o@&&$@&%$#@#+@o@$%#%@&%%@%$#@+*#*$=@@#X@X@@@$&#+@=%$+*@O%$=+=$%+@*###=$%#=@%#@@@+&&=@=$@@$+#@+#=%&=%@*++@%@+##&&$&%@&=&#%%@+@##=@;$%&%%##%##$#&+++#@++@###%%$<%&O+%&&&=$#@@#+++*++#%@@@O@@**%**+++$#",
"##@@#$@$#*%#+#$*>&$+++$%%*+=##+##o+.@&=1=*$%&%##+@$#%++#@#%#@+@%#=&&&+@@%&&$##%+@#$$$&@++##+**@*+*+@@@@@+**+@%@#%#*@$@*+@%+*#%=@@#+&=o@1#X@##&>&$@@##+#@+-*$O&%&+%@+#+@+@=&#@@#=&&@$&o@&##O&@#&#@=%@@&@+$@%#==++###@@&#%#@@%#@%==&$@$@#@+%@%@@@%@%%*+%#%+++#++@@",
"@*%$%*##=* ++%*@$*O$@@$$$X#++$+$@@@+#$##%$%&$#@$#+#@+@+@+$=&#&@+$$&#&+$@+&+#$%%+@$#*&%@++##@*+#@*#+@++@@#+%+#*=+@#+$##++@$@#++@X+#&&$#@@1@@+#&&&$&&@@$$+++#<%%&o+@+@%@@@&&$$#@@%&$@%$@$#++@&##$@&&@&@@@$#$%&&X=##@#@#*$&O=#%+@%$$&&&#+#@##@=#@%%%@+*+#+$*+@++#@@",
"&$+%%&=***O:%=+$&$&%@**X#@$$@#$#++@@@@@%#$+%o@@+@@#@$+&@@%@&##$*%#+$%%##+#+@+%%&&&>--@@#+##@++@#++@+*@#+@=##1%%**$+$$$++#$@@@+@@#$#%+++@@X$$$$=&&=$++@*+#-%#*&@*#&+@@++++#&%#$+&@+#+$+%&$$#=&&&#&O@@##@$#&+=@=@$-X#%&#&#%*&@##++$$$&#@@+#+%*;%%+$#**=+*==X@=*@#=",
"#%&%++*+=#*##+#O++#@*$+@#$+#+++#+##@+@@$@#$@%$+&&*%@#1%+%@@O+=#*%@#@@+#++#@@&&;$%2*%#@++*++#@#+#%@$##+#+#+@%=O%+@X@$$##@+%@$#@#+&$&#++@@@@@+@$#>=*@X#+-%@%O@&%#====@@&%@&$#&@@#+@@@#=&=$%%-@=@+&@$+%%###+#=&$$&&&-&&$&@**&%&+@+@@%#@@@+@@%@+$=+=$*+*#+*+#+#==@=+",
"@+#@#+&%%*#*$*%$##$#+X@+@@@=%+@$*@#++@@@+$@%%+@%+%%*%&&+@O@$$+#%%+%+#%#%@@$#%&&;*=&#@$#*#+#**$@@X%%$@@*#@@@*%*@%+@@$**+%#+%#++$=$&$@#++###+#@#-&*$@@$++@@@+@$@@*+##%&o+@@%=&-#$#+#@>$&&@+&+#+##$&+%##%@=&@&.@&#&&&$&&#$&&&#@%@@@#@%O@@@@+%#@@*#**O$++$***%*#+*#@",
"@#@+#%***#O==*=+#+@-$@+$@@$&@+@&&%@@@#$@#=&&#@&&#+@+%%+@@+$o@-+*%%&$##%@@@#@@%%&=&*%#$#*#++#$#$+@@++@#@@@++&$@++$@*#*@###+@%#@$X$&$#@###@X#+@@@@#@@%@##$@@#+*+@*%o%+&+@#+>%%&@#O##@&@@&$$&@@$$$&+$@#%+&%*&++@##$$@$%=*&&@*-&+#$$+#@#@@+#%%O%#O++++$++#**+%=O+@+*",
"#%#*%%**+%+O++=%=$&&.=-.-$*X@@@$#%+$@&oO+%=%=%&##&@&+$;&#%%#*$=*%=%%@#%@@++@@@;88%*$%-=#$****@@@+%$#@++@+@*++@@-*X++*+#**@$#X+@%@&$@@%#+$#&@++$@@$+$@@+O@@+@*$%%%%%=#%=##&+1@%%#$=%&&#@@+@O&#$$#&$%@#$@$%&&$#@@+==&%&%@=%=&@+$&@=;@%%=&&%+*@@@@%#$+$+#@%**#*=*@#",
"#++&&&@&%$=$+***$*-@<@#@@%%@+@@1*#@+@%@#+$&&&+=$O@+@;$@&%+#%@***%%+#@#$O##+#@#>61&11>%&&;&&#O@+$#$#$++@+#$@@&==@=%+@@%$=*=*$#@@#=&%#@++@+%+@@@@***O@%++@+@==+$+#+$%$%@*##%%#+&%+=%=&%##*@#@%@@$+@#%#$@@+%@@$##o%@@<=%###%%%*#%=O@%%&#+&&o**@&+%#%#@@@@+O+$&%&&@#",
"$$####@%+@@$+#$+X%$==++%+%o@++###=*&%@##@=+@@=%+$%@=#&O@X**%&&*#=%+##%&&@&&+$&1=12&1$&1=&=###@#&$+@#$$$@+#@@%+*#&%+@#&>84%*==$@#.&&$++@++@@@+#++O+@$%*$+*+:@@%&$$###@%&+#+@%%#+#*%&%@=$%$%$+@=##&#=@+@=@#@@#%+%@#+<@@+##+&#+=$+&%&&+@@#=&@+=#@@+@@##@+%$+##$=&%%",
"$.$##%&=*X$**#+@+@=#%@+%@-@@%###$*$@#@@@@*##@=#@$*#%+=+@$#@$+=%++$@@+$%=$O#+&&==8>61&=@&=&%%%@@$X%@$#$+@%++$+@@X==@@$*$4*$%**$#@#%$%@#@++@+++%+#*O+@##*#+*%O%#+$+#$@#@$%&#@*%@%@@*$$@#$$#@@@#+@$#@&@=+#X#$$@%@$#&+&@+$&&@@+#&&%=+%@%##%@@=&$*%+#+%###++-%%1=&%O#",
"+&$$#&#&%$+++#+@@=@*+*+@%%&+##$#%$%@@@+$@@*@%*+1$=#+%&&@+$+$%$$*&&#-@#>#%+O#&=&&1%8#&&$&%&$##@@@$*%+@&@&@+#++$*#&+$##$-@*=*$@$@+@##%@+%+#+@+#%@%@@#%**+++*%%%#@$$#$##@&&%#++@+@$@*@##=%#$$@*##&%#%@++$@>O##%&&@&%+@&&=$O@#@$%#=%+&@@#%#%&$$=&$O#+%%%@+#oO#&%&O@+",
"$@#$%%o&.X$#@+@$#%#%=*%$#-%+#+&#%+@@@@+#*+O@##+#**$$##*@++@@@#+%+%#&#$&&=@##$&%4=1=&#&$%$&%&&&@#@@$+#@$X@@$@@@@+@&++&$%$*%@#@++#&#&$++%@@$$@%+$+#@#*@*#@*#**+%@#@$$##&+&%$@%$@$#-@$+$%@@@%+o+%o####&##$$&$#&#%*&#&&%%&&#@##$=**%%;&+@@%+@#=.o%@##@@#%@=##@&&<+@#",
"@@&@@@#++&$@##@&@#*@%%%%X$%+@@&@@*@@++#+@+@=+@+#++*o$$+o#*=@%@&#%&<&&&#@%+#+@#&11#&%#@@@##&1&&#>=@@@@@@++++&#@#@&#$&%&$%*%#@*@$@##o+&#%#$*$+@+@*$@*@%+##+#*%#%#++,&%$@=$#*$**#+#+@@*@$+@#+%@@%=&=&#=&=&#&$%o+>+@+@&%$O@&*.%$&%=%#+#*%%+%@&$&@#@$#@++@+#=o$&o+$$@",
"O#=+@@@+$#@#@@##+$$%*&$+*%@+@##+%#++@$#@@#+#@@#$+@%@@*+@#@O=#@+=*$$%%&o%#++@##*-&&&=&#@#@@#&%@@#&+$&%@+@@@#&@X&&$$#&@@+$#+#@$%*X%+%%##@$+#$+#+@+@$+O+#@$&+*%$$@%#+$@&*&@=#O**=*$=*#%#@$%#%@+##&$##&O#&&=@&&##&=##%&$@+$+$+#&&&&&##+*;%&%*$++1++&@%+%$&-+@o#+&#$@",
"&&#&&##++$&#@.#&##+$@.@=*@%$@##@*+@$@#*%$@%#@%+@$@@%%#@%#$*@%%$*@%#o+@$##%&#+@&*%&&=##@##$@@+@@@X@+$@@@&*@@@@$=&&&=@$$$$@+@@@$%*+@+@$++@*+#@#+**#+@+#*=%@*@*#%*++#&##$&=*$**@$$*O*@%**@#*@*+&#@=$=@&&@>&$+@++@%$&=&$-&#=+@#$&*=&&%=@@@+++$&+@@+%@&#=&+@$&$$<&&&$",
"&%@$%#@#@@+@@@@@@#@+@+@+@#@O@++@++@++@@$$@@&$=#@@@#@@%@$#-$$#$*#&=##@#=&**++@#$+#@&=&##%@@@&$#@@@#%@@%@=%$#++%###@$$#+%*$$$@@@@X@+##@#+@O#+#+$+=@@@@$+%+#$***&&@##+%@=#+@O+@*+$$*@*+*$*%#*%$@@#*&%#@@%$@@@@#$&+-+%%+oO&@@#%%#%%+*&#+%+++@%$@$%%%&@&&%##+%$$;$o+&",
"O%@>#&+@-X$>$$O#%%%$$#%@$%$@@%@$@+@+@@@@$$>$&$=@@+=#%*$@%*&%%+#*;+%#$=%%&###+++@++@&##@@@@&++$#@%#%&$+&&&%&&@@#$#%&$$@%$&*#$$+@$@$=*=#++$O#@+@=X#=$+++##*%X#&$$@*+%@#*$++@@+@+#%+*#*@#*#;*%%*==*$$=$$>#$#&+@%%%&+++@####&o@#@+*@%=%&*#+%$+++&*%@+#%@&#$#+$$&#+#+",
"#@$#$$++X@+#@$@%%$**$+@##++@@@@@@+#@+@##+=&X+&.@+##=%%+=%%%$**#*%%%$+$&%@$#+%#+@$+#$#+$@@$$+&+@@%##%#@@$&-%%+*+##%$$###*@##*$+#$+@$$$@@#@+#+@,@**####+$=*%@%$=%$#+#%%*+@@@@@+#+++==++**$*+@+%**@&=@@@@#O@@+#%+*&&+#+#+@#&%@#%=+*$*%&*@%###$@+%&#@##@+@&>#$#&+@$@",
"*++#@X+$%@#@@@$&**$$@+$&$#&+%++@+%%+#@+@@$$#@$@##+@@%o$+%**#%*,@&+%$%#$o@+@&++@#$+#@##$###.#&#+$$@@%@@@&&o#$#+#%&#&&%%++@$@&*@@$#%$&+$%+#@#@*$O*$*@+*%#$%O@=$+###@+@*X@+@#$++##*=*@=**@-@%%#%%%*@&&+@@@#+%+##@+%=#@+#%+#@+&#*O%o#%$*#*#%1@**&$=+$#$&$%$$&$$o@$&&",
"++%#*#$&&####@$%%#%%#@$+$++@+@#@@-*+@$%#@$#@&$$@*@+++@@$@*%&%&$%%&#@++=###%%@++@@@@@+#+@$@$@@@#++@#++$@=#@#%%#@&%$#@&%+@++@.@&$$$$%$*$@@@*+$*++*++@@$@@#+@+=@#@#@*+**X+@=#+##++#+=#%*+*@$%@$***%&1##@$$@&#@$@@#$X+@#=@#@@@%@&%+@**+#$*=%*%%#*+&@&##$&&&&o@@@@&$$",
"=@$#$-&->=@$$#$%**#@#@+$@@@$@@+-*%$@#+@@@X+=&#$$%%##%@#$:=*#$*%*$+@%%@*+&&++@@#+@$+@&@@@@%#@&#@@%@o=+-=%#@#%####+#$&%$%==X@$$&*%&#%%*$#@%@+$*@#O+%##++##%$+*$=+$$$%O++@**X++#+#$**O*+*=#+%#:****&$#=$#+@@@+$&+#+@==&%#%O+%+@@O*&*$+*+#+*%#*&&+&+@@@++@#@@%%#@o+#",
"@@*$#-&1>&=++&$&%@*+@+X@@##@#$&$&%+$#+@@$@>%$X@$#@@###++&$==##+@+%#@##@%#+;++#+@&@@@+@#@+%#+@#@#&@##+@&$%&#@##+###@@#%@@+@%##$&&+%%=%&$$+@@@$@+%@+#@$#@@@@+@%=$%=#+@@@=*$#@+@#*X@@:*@:*%*+%O*$**$=##+@@+=+#+#$#$$>$&%$&#*##+%#&&**+@#*#=&&$$%-%@#$#@@@+&%O@@@@@=",
"@+++#&=%&$&$#&=#$*@+@@$@$@@&@***$#&$$@@*=&$$@&@@@@#@#+##+#@*$$@#+$%#o@+#$%&++@#%$+@@##%#@+@@@O@@###$O$%+#&$@$@%+@+@+@@$&$%&+@$$@@*&*=%%@@**$@+#+@#%$$$#$@@@@@&#%*#$#$*$++@***++*@=*O:#O$***@=*%+>$X@@@#@@$@@@+$+@#$&+#$%+%%####$#+%*=%+=$%&##=@O$#&$+@@&O#%$#$@o",
"+##+$*1*&=$&%=$$$*$++@%++@%+@@O@&@&&#@@&&&+&+=@$%@#@$&+++#=&#+%@+%+$+%%%=%&#%+#%++@@@@#@@$@##+%@+#+#$@#+**$X$#+$#@@$@@*#%#$@@+#%%&&$&&&##&&%%@+#+%%+%=*%%&%+@#+@+#+****$*@-%%+@++%o++=*&*O+@+#**$&$#$@+#%@+$#$@+$&+O&&=o&#%@%@#+*@#%%@%*%@+@+@#+@##$&@+@@%$&&$++",
"#$%@$&2$**&#&%$$%%++%++#*;*@@%%*+%&&&+$$+&+%-.@@@#@&$@+@@+@#&#O%#&%@$+%&&%@+@=%##++@##>%@@&%@@@@+@#+@$#$O$+*$#@##++#@%+*$#+@@++#%#%##&&+@%&%%+@@+%%%&%*&&=$#+#@@#+$%&+*#@#=%%$+%@+@@*%&%*+##*+*$%$=&X#+$@+#=@$#@o@@&$%o@##@@+@+=#*=%%++***@%#+%=&#@#$&%#@&&;;@++",
"@@+@@&%=$&#=@$$&%@+#O+#+@%*$O*%+$$#=#@=&%&##$#+$@%@@&@+@##@&O#@$@##@$###-@%**%%+#++@@%=$$+@+++@@@@#+@@#*@=+$#$%#@#+$#+#$$%++###@%%%#%%%@+%&%+@+@%%%;;*&%%$&+@@#@#@#*@%#O=-%*++++++%=$<*#$$@#+**=@$O@@$@#+@+=*%o-#$@@#&+$$@%++&%&$*$**%=$*@@@@@%@$@$#%#+$+@&&&$@@",
"@@&@@$$&=*$&,%%%$@@#%@*@*%O$$**@@##&=%#%&$#+#+@@#+%#+#@@&%@&##@$@##%#%%#%O#-#*@@#@$@@##&#&&++#@+@$@++++@*$#-+%%*=#@$%+##@##%##X&%&=*=##+#%&@+@#@@#@#*@%%&@+#&++@@@@.*=*&##%&+*%++#@&$**$*****$O+X+#%&#=$+@#$+O#@+$@@@@%%+#+#%@##%%@+#=%@@%@#++@+@$@#$@@@+%&&#$$@",
"+$@@@#$%&$$%&$$&%$@++@*$++##$*%#&#=&&+%&&&@#@@@@@#$@@@&#&#&+$###$@#O##%%#@#-*%++##@$%%$=&*#++++#+@#*@*-#=#%$%,$$#&@@#@@@@++#$@@*;&;;&&$%#&$++@@@@+%#@#%##@&*%#+#+$+**%*@&@%##+$@&#&*%++**#**O*#*@#$=$>%#+@@$#%&#%%#@#$$%++@%%@+@+&=&%**##@#@%@@@@O+$$+@+$%$+&@%$",
"*@@+@@$$$%&$%$%#**#$%,*$#@+#+$%*&&&@&#@&&+&&#@+$#%@@#%#+%&%&#&=@$%&#@$#$&&=%=O%=$#%##$=#@&$+$+#%#+#$**$*$+%@$=@+-&$@X@+$@@@@+@*$<&&&&&%#%#++#o@$@@+@@+%+$#=%#%&#@#@%#%*%=$%++@##%%+%@@<#X*@++#*=&=&@%&%&+&#@$&==&@$@#$&#&<+%++@#+#@$%&O@+%@:%++@@@@@+@@#$%&+@+#$",
"$+$@$#@&%$$$#$#%*#@+$#*+++@#@*#*&1&&$+$@@=%#++@@&@##@#+&&&=&$%%#&$$$%#+%&%%%$O@$&$&$@&$+@%$+$@$#$#+*+-#*%$**%*$==*@@@#@+@+@@&##&&&&$$&%$%+++@@%%%#@%#@@#@$@$-$&%$****#+&=&+&@@@+#%&+#$%O*X+#@##*=#=$#&o+@+$&&&$&;@%+@+@%=#+++$@+%@#&%+#$#=*%%@@#+$@@$@@#$$###%&$",
"&%%@@@$$###+@+@$X+@+@*$X%++*%+%%&@&;#@#%=%&%=+@@+@@#@+@&#$@&%&$$+@#&%&+@@#++#@@@$##%&#+#%$#$*$@&*++$+%%@***+@%*+&X$#@@$@%@@@+@%&%&&$%#&%o@#%+%&=%%#@##@+$$++=%&&*%%%%%#@+&@&#$&@@++-*%$++++@++@#@$@.$@@@+$%#%@$&%@@o$#=%+*@%%@+=@$=+*%+=@%+=o%@@$@@@@@#$##@@@&&&",
"&$#@#@#@%#%#%@+@@@@@@#%++@@**@@*&=%&&&&#@>&#&+##O@@@+@@&$.+@$#&+$#=%@$@%#+#@@#+@@+##*##*&&$$$$$&#@#+#**%+%$#@#+#X&%$%$#@@.$@#%%$#%*%#&#@@@@%@&&&;#%++@+<*$$%&#%o*=&.+$+>&+%$+-@-&@@*@@@@$+#@$*+*&%@#@+%$$&$$@&>-&%@@@=$#%@@@@;%$#+@=%##@&%&##@#%##@+$$%#&#$@+%&&",
">=$$#@@*%;%#@$#-*%%#%@&%##+%+++%&%@&#O@##&##+@#@$#$$@@&+$+##@+@>&&O@#%&O+@@+@+@++@#@+$**$%#%&@@$$#+$#*=#**+@@@@+$@$@&+@#&@+@&$%+%&&#%+@+@####&&=@*#++@=+@##*%$%@-#o#@&$&$*%$%=%&=%+++@#@@@X*$$@@@%=$+$&&-$##&>=5&$+@&+&+o@@=<&$++##&+=&+o%$&@$&#%$@$#+%%$$$##+&&",
"*&@X++#*%%#+@$@**&#%@&;&++#*%*+=&@&%&%#+=&=$@@@@@+#@@@@@@@++&#+&&&$%@%O@@++##@@@@##+#$*#&#$$#@@%*+#X+$X%+,X+#@@@%@&$%$+&.@@$$%$%#%#+&+@++@#@#@#&%*#+#%&+@#%&$&+=+*@##$@&@&%$&&&.$%++#@++@@#$##+=#&@@#@##@$#%&%=&&&@$O##$$+@$@&$@+%+%*%++%@$o$#$%###$$@@+%#&@##&<",
"=$$$$%%$%@%*@&=#&@@+@+@%%++*#+@++=$$&##@@&&&O@@@@@$&$&+@$@+@@#@++&&+&%#@*+*@@@+@+@%%*##$*@+@++%&$++#$@@$*$*+$#@+$@#&$$$*$X$@$#@$+#+#++@@%@++#%&@#%#@@#+&%$%@++%$@@++&=$$#-%+@++@@#&@##&%$@+#X@@X++$@###+#$#@@$&$$@#@#@@&$@@@&%#@+&@%#@$$&&&oo&@+@#+@@$#$@$#++#1&",
"&#$$%#@@@+%&#%#+**%#%%@&$+@+%+@$&@+X@@O#=&&.@#&##@$%$+@+$@#$++$$@@+#+%+#@$@X#+%+$@@#*@##$@@+#+##*#@%#@+@%%@%%@$-%+@&$+@=&.@$@#@+@+@@*$@@%@$+%##@#@#%#+=&@o=&&=O#@@#-$&++*X+$@@@@@#$@@##$$+@+#$#@#@@#@@#+@+@#@@%#%&@$@@@%$$&@#&@#&$+@O#+###@#&@+@+#+&$@@+@&+##&$&",
"$&&$&#$+%##*++%%+@+;%O@%#&#@%@%$=$@@@@@$&&#&$@O$+#$@+@=##@@&&+##%#%#=O&#@*@@+**+*++$+#@+@@##-$@@@$$@$@@#@@#==%$=$#$#$%@+=#@@@+%=&+=$@&@=&$.@@%%@+@+%+%&&##@+%=+&@$>&==$$$@@$#&@@@##+@$++#@%$##+$@@%+@$+@@#+@$@&@@%$&$#+@o@%&$#%&$&&O&+@@%&#&$%$@#+###@@&@+&@&@@&",
"$$#$%++%+;%+#@@%@@#++#%*@%.@@@@-,####@@$&@O#%+#####@+%&&#&+$$+##@@++@##&*#*%@+**@@@+$#%+##+#%&%#+$@##@++++**&+$&+#$+#=$@&.@+@+$%&O#$&%%#@=.@%&@##@#%@@-@%##%$#&&=@=$$#.@$#$@@##@%$++@$#@=@+@X@$@#@+@$###@$###$#@@$$$$%+%##+%@&&#$&&@$@##%$%&&%%$@##%&@$&$O@@@+#$",
"$+$@@$-#%+@%%*&@$%@+++%%*++@$%$$5&%@#+@#&#@@@+#$&%+%=&#+@X@@@+&>&##@#@&&$*$@$++*+++@#$@@+@+@@+%+@+@+++@$@+*+.@@@$o#+++&$@=*#&$@$.@&.&%#%&@@@%#%@@@#@&+#&@%$%@%&#*&#@&X#&$#X#@$#%%%$%%%@++*++#*%%@@@#@&&+#$$@###@+%%++@+##+@%#%%%&%@##+@##+@&&$+$@%%$@@+&#&$+$#@@",
"+&X@+$#%*&&@@&X$$@#@$%$%%*@@+$%**#&#@@++@@$&@@$@++#&%@+@%#%#@#@&&.@@@$&*$=%*&##@+@+@+%%%#%#$@##*#+%+%@++@+@++@@@@1@=%++#=@#@+#$++@+#2&&&&##&$#&+@##@&&&#@$@+$&&&$$+$+@#&%#@+#+%$$#@@$$X@+$@+=*&*%+#%#%*%@**$=**$@@#@#+#@##*=#**%@*%X#@#&@#+%@@@+@%%#@#+@@@@@%#@+",
"#@&@@@$#@@%@#@#>+*$+@+@$%#++@%%1624%$$$@$@#&&#$@#@@&@&@###++@@=%$@#%#$$=&&=$%$%O%%#$@&=&;#%%*#@#++@@@+%+@+$@#1*@+O*&%*+*%+#@@++$@++&o&#&&++#&%&&#$$$#&+&%@#&&@%$*++&@#&&&@@##+#@##@X@##@@@@@%$*&=*+@@$%%%-**$$++@+@$%@@$#=#*=%#%%$*$*X#@#+@++@+@*@@+#+#++%+$#@@%",
"&#$$#+&&@&@*%&@$@+##@&@,*@++$%==,%&*&*$%@@##@%@#@#@&.$$&%@#+@@*%%=@@%&%&&$&=%$%&#@++#&@%$:*#++@+@##+$$++@$@+#+%@%%@%*+#-#@@#@#@@#+@#@%&@&%@%#&&##%+$@$+#+$o$&++@+%++@@$&&##$#@%@@$$@@@#@=@@$$%&&&#.#$*#%*&&&*%%%#@##++%+@=&+@@**$*&%$#@%%@@@@@*%%#@@+%+@$+@#+@+#",
"++=&&@>$$&=@*.$=%+#+#+%$&%@#=*-$#*#%%***&#@@@X#@@@@+@@+@@+@@%+%&%&%++#&%=#@#&%@#%@+@@%=%##@+@#+$@@%%%@#+%@@@+$+;*.%****@%@@@&$+$&@@+@#&&%O#&#%%&##@++<%@=&$+@#$&&%@@@&%#$$&###+@@@@@%X@#&=-+@$&%&%@&$%$*%###@@$&&+#+#+$+#%$$$$+X#$%*%=##%@@+#@O#+@+#+**+@@*@*@@@",
"@#@%@*@@%@&&&@#&#%$*+%$@++@&***=&**&&$%#$+@@=#@%@@@#@++#+%%*%%@+#&@#@%#@###@@+O##+#+#&%%*++*+@%+#+@@@+@%$%*@+O@;=++#X$&*$#&-*#.$&####@##O#&%#&&%++#%@&#@$&>+#@&&%%@+%##%$&%#@@+#$&@$#@###$&$@&#@$$#%$@$*##@@%@#@@++@@$@@X@#&**#$@&%#*X=&+#@%*@@@@@+@@*#$##$*@%%+",
"$$#+$$&%%=+$@@&+@@%*+#@*%X###*%$-$$#$+@+#@&#=&=%=$#@+%$@&%1#%=&@@&#+@@@#%@@@@#@@+$#$+%&$%#@***@$@:#++@*@@+@+%+##$@$@@@$-$&=&%+$%#+#@@++++#%#$@&+@#&+$+#@@$&&@&&+#*+#&&@#=&%##@@#&@@@X@+@@&*#@$&$@+#@+@$@@O@@+@$@@$&$@@+@+,*+#@$*=$@=X@+@++##X@@%+@$$%*@+++++@#O*",
"#&$#$,**&#%@+@####&*%@@-*@$#$*%%>$@@#@@+@#=%&&##@@-X+@#%*%&%*@=+@#$##@@####=@@$@@#%$#%%#$+++#*#o#++#@@++@$%++++$%%+#$+X%#@*$&$@++@@###+@@%+##@@###&&&@$$@$&&@@&##%+##%%$&%&@@##%&+$X@@$$@&*X$X&.+%+++@++++@@#@+#@#$#+#%+$%%%%%X$@%$*X+@#+@%@@#++@$%**%%++@+@*#@*",
"$@+@&%#X@&O#@$#%@@#****=@@%==+*-=#$@@#+$@$&&#&O@O%o=&@@++;@*@+++@@@=%#@$O@&%#@#$&%#%+++@+++*+O@@@%%+%@#@+%#@@#+@#%*@+@+$%&*$$X@+@+@$#@#+##+##@@&$&&$&$@@&#$&&$#&+*$@###$$&@@@#$%@@=%@-%&==#X$$$##%%@*%@@+$%+@@@%%%$#%=+=@+@+%##%&@#+*&@@+@@@@@##*#+##+$%#+@@%*$*",
"*+@#@@@@&&+@+###@#+%=#+###**%#**$$@@+@@+#>$$@+#@#+##$$&#&@#&%#+@#@+=$++=+%$@+$%$%##%#%@&&@#+@@@@#*$#$++++@++++%@=*##$#-%$=%%$$#@+@#+$#+@+@@#o&&%+##&&&+#@&&&&$$&+&@#%%$%$%$@@%@O@@%%>=&$$&&@=&@@.-&%*##$=&++#@#%&<#&*%++@##&*$%&&+@%++++@$@@O$#@*++#*###+++*@#$#",
"$#@@++@+++%&+%##@#+#+%#$*%@#%***&#@+#$$@++#@#&&>+$@%&&@=#%=%%++#&#&#+$&$+$%.@%$&%#+@%$#&%@++@@@##++@*#$*%+++*+%:*+++#+%*@O*%&X@@##$+@&$#@#@#$&@#+@&+&&#@&&#&&=@##%#%@+@%&#@*@+#&$@X%=X$**=#$$#-@+-$%+*=*-&@+@@#%##@&%%%###@+$X=$*X$@+%++#%@@*##$@$#$#*+#*@++@##*",
"*O@@@@@##@1%#%@@$*@%=*$1++@%@%$@#++#&&++&@&+$&%@@&$@<$#+@@##+*+#@@$#&&=+%*+$%$*$###+##+&++#++@#@%*+@%++$$@++@+@*%@$@+#@=*#*@$@$+@#$@+$##@&##&<o%&++&++o&&#&=&$@@##$%&+#@#@$#%@=%@$@@@$*@&X&&+&&$+$#%#-%@&$&+@@%+%#+##*@#@%+#@$$#=@*+@@+#+O#@++@##+++X+*##@+*$$@*",
"=#$*$@@#@+%%&&#++#@*+$##O@%@@%+++$$>&#=%+<+&&$$@&+&&$##@#;&+$@@%@=&&=$#&&+#+++$$%&&&%o%&+@@@#+*;**#*%@$@+*$$$%@#&%%@#=*+@%@&X####$$@#+#%$#&@$&&&+&#+#&&&o%&@@&$@+##%;+o+#+@@+&##&*@$$$&@X$#@+$++#+=&@*+%$@@@@@@#&O#&%&%+@#+#@+@+#+$@%@@$%@%$#+$@*@#++*#+*##@$++*",
"*$@+=&$+@+#=&&%@@$@@*=+*+@+*$@@@%@;&+&@@@+&&&&<&&$&@&#$@@%%+&=#=#&$&&%$%$&$+#$$##%%##$@&@+@#+@#*#$**%@$@#@=+@$*#@*$#*=@%@#$+@@+#@+@+##&&@&+&#&&&##$#$#$++&%&$&%@++*%%@@;$%@+@$%+&+@$@@#*X&+=+&++%*$&%$$*%O@%$+@##@#%+@@+@+++@+@$#%$*%###%@+#+@++X*#+#@*##*+#@+#*",
"+@+%&@#@+$@#*++#+$$@@$*#@%#++#@@@&#&&==@#$@@$&&&$$@@#&##&#@#@%&%=++%&%@=%*$@@+#@%+#@&$O@%+@+%+@#*=+#@#%++##@+$%++%*+%*$.@+@$*$##;++@$%%@@@$+#@@$#&&+%##$<&%@$&$$&@@%%&=&&+#@@*=%%$#$*&@+@@>#+@+@+#-$%#$++@@####+@%@+%%&@#@$%@&#%=#@*-$%$@+*@%%#+#@#$+**#+#*+@@##",
"@@#%*#$@$@@@$@##%#@%$@++#+++#@@+#&&;%=%++%$+@<&$###@@#%+#&$@%$+#@$$$+&$#@++@#+@@+#%@#@#&%%@@##@+%*@#+@%%+#;++*$+@%%**#&@#%$%+@+$&@#<&&#+&@##@##&&&#$##+&$#&$@&&%@%&&++=+@*@++%$=&&&@%+@@#&%@$.#@####&@$*+@$*&@+&@#o-o+&%#%&%$$$%*#%**#$@@#+%##+#@$$#*$*$##@##@*O",
"@@+%&&#+#@#+-#&+#+%#@$%*%+%#+@:+#&=#%@O%#+&@&&&&$@+@&+@#@@*+@#@####%#$&&%#@*@$#+#&%@#&%@@%%++#+%@++*#$@+@=@+@;*++**$**$$#+#+@@@@o@%%$&%#+++@&&&%%$$&+@&&%$$o&&#+#+@##%@@+-%$$&%@+@X$@%@@@&+.#*++@&+&*+@+#&-$++#+%@%%@@%$&;%%*$&@@+#*%%**%@@++@+@+++@#$+$$**@@#+@",
"@@*++*+#*$$%%=%+@@#%##*@%++$+@@&%-&@&%#@+#%&;&%%%@$&$@%@%+@+##@@@+$#@=&*=@@&+#@@@+@##@@+@+++##+@+++*#**$@*;@%**++;%&%&&%+#+@##+@+#@#&*@@@@%+@;%+$##&<&&&&&#@@&#@##+&&+$@@&#$%&&$+$#@@+@@%#&@@#+@@O+@++@**&###@@##@$%+#=$%$==%-&#+%#%%+%&3*%$*##+#+$#+$$@***$#$#+",
"@+@#@+#+#@%+@%%+%%=O@@O@*+##%++==&$$$@X#&@<%&%o#&&&&#$+@&+@*=#O++@$@+&+X@X@@@$@+-$++##$++###++@@@=*#%@*O@%%@@O&+%@#&&%#*$+#@@@@@$+#+%o%%@@@+%*%%$@$&@<&$$&$+@+$+%%#@&$$@<@$##&%$%@++@@$&%@@@#+@@@##%+==&@@&*#+@+@@$X@#@%#+%**#+#%+=#%%&2-*@*$$+=$$+**@#=*#X$*@++",
"+%@##+@#&%=&%=@@##%@++#%$@@@+##*$@@##&&@@@+%&%&@&#=$&%&$+%*%+#O++=$@$X&&+*@$$##1#@#@#@$#+++*X@@@#*%+@=$+#*=+&%@#%#;=#;*%+O#@++$*#@&%*+%@%#@;#&###$@&%&$&&++$$+&##&#@@%@@@#+#<%%+$@#$@$$$%#@@@$#+$#$##=%#*$$.$@@@$$%X@@@$%%$==@%$@@&##%*4*$*$*%+#$*#*+@@##*#@#*+@",
"@@@#++**#+$#%o##%#%@@@@#$$+@+##%#&@&=&&@+#+%&#%&%&$+=+&&%@#&$@+@&#@#$$%$%&&$+@&+&$+@@@+#@%##%+@$@@*++$+=*=*++#@%@#&%&%#++##@%%%++@+@%*+$@##+++%&+#$+&$&&$#<&%#&+%%&&$$@$#@&&%&o++%%.$@+@@X@+#@>*$$#&%@#%&+@#@$$$@@#$@%=%#$&*#%$+@@@%+%-$@@+#%@@#XX$=*+#+@+$*$#%#",
"++#:=%*O#&$&*#%@%#%+*%+#@#@@@@@%&=&&@&O@$#@&%@&@;@O$=@%#&$@$@+#+$@X&@#$%%&+%$@&*%#&@*=@@+#@=$#%+#@+@$@@@$+@%@$&%##=#$&$@+##$@%#@#+@@#@&%#@%##%@+$$@#@;&&$&&%&<%@%%O#$&=O#&&%&&%@+#@#@@+&&$@@==&@$#+&%+@O+o#%@@$#$%X&&%*$+&$%$$+@+@&@+##+++@@@+@**+@$+@+$+@X$@+#+",
"**=+++O*#%$+@=+%@@%#++@@$+$+@@%%&&&#%&@#&++&%#+=#$%&+=>o+&#=$#@%@$$#@$#1*$$$&$+$$+$%*+#++@$@%#$@#@+@@#*@##++@=-+#%&&+%O%#+%++%@@o+@+$+@&%++#%+;#$$&$@@$@%##+$#&+#+##=;##%%@%%o+@%##@@$1@@=@&#X+@1&.@#+##+@#+$@@%$%@=#@@##$#$#$@&##@@=++@@@%@@@*+=*$+*++*@&@@%*@*",
"@#+*=++#%*+****@%&&=&@@@@@@#@@+&%$&&#$#<%+@&%+@+O@@&&%##+=&#&#%%$=X$@###@+-*&@@+@@#$*@:++++=$@##*+##@#%@#++@$$#++&&#=$%=@##++@@@&#%#@;;&&#%%+@&%@&O#@$#$$#@&o&%@#%@+o&;%-$%&++#%$$@@$=@$$#=$$$+=+%#=+###$@@@##+&$@@@=$@&&$#$$+$@#+%@$=%+*+$+@*+@**X*#++1%$+$*&+*",
"+++#$++$##%+%*@*+O%%O%#++@@@#+#=*&*#$%$%%+@#+&%+@#@$=@*&@#.*#%#%=@#@@#$+#*#+#$%#%@@1%+++%+++++$@#@$@+@+*@@#@***#%&%@@%=%*#*%%+#%$&%#%#+@#@@o#%%#$$&+#$+$$++&%&@+@#@%@oO%&+@%+%+#@$#@%&<&==$$=$=#&#&+#@+%$&%=&$*@@@@&$X##$+#%@++@%@+&+*+#*@+@*@&=@++@+-*X#%@$#%%*",
"%+#+++#+@#@*#=*$@@%&++@+@@$%+@@%$$%+@+%##*#@@*+%+#&&%%*==@@@$&=&#@@@$##+$*&$@+#@##$*+#%#@@@%@++@+#+*$@*%@*#+$$+*&-%O@+-+&%@$%&=%%#&&&##$&&@$++%%X$#@$#+###&+@$O#@$$+@@@+%o%.@+##&@+@&&#$#o##%@&&%$+##@@%@##$*&&@@&+%$+@*#$#%$+%%+#-$=&&-*X@+@@$X+#$#@%%$*&$@%@$+",
"#=+%*+@@+#+@O=@*=%#&+#+@+#+$$%#+=$#@#@&#%$=*#@*&%#++==*%%$@#@+#%%&+#%@$&%&$$#+$@+$#==#####@*%*%-#++#$#%*$$+*$##@&=&+@##@+##*=$=&%&&%##&&+*%%#+++$#O%@$##$&###+#@%%#+%@@$@&%+%%@@O+@@+%@&@#@#+##o&&O@@$$@@$%+##@#%X@#X+@#@@@&%#$++@+$@+&$#+@#@$.#@#&@+++#*$&&@@@%",
"@*O=*+++++@@**%O$&#&&@@+#@@+#++#+@@@+&$O##+%$#&*$##%%*%*@%+$+@@##&@%&#&&##.#$$$.+$@@& ++@++$$%#+@@-*@@=*$%$@$+@%#&#@@#%#@$@#@&*&#&&+%@@%;%###+####@#.###*=+@@@@%=%+@$+#%@+$@#+%+@@+&@&@&%##+++@+@X@@#@#@+$#%+#@+X+@+#@$#%%@&$+$.$++*>&+=%#@+#+@@$@+%+@=*%*#@@#@=",
"O++%*+%@$=****@%+%#&#%&+$@+#@#&&*.##+@&+$+@*#++@#++=#%%+&+$%##@+##@>$%@$@$$.$$#$$@$#%+##+##++++%-=+X+#*#+$X+$$++@@##@#&%>%&$@++&&%o@##$$%;&+@@%+%&@##%%&*%+@+%=&%%@$@@#@$+#$&-&@##&@#&&&#@++#@@@@$&#@+@@$@=@@+%@#@@$=X$$#%@%#@##@+@+#$&%+@#$%#@@@++#@#%@@$$$++&*",
"+*+=*##+1+%*+**#&1>%#&.#$@++#=#*o#+%$===**+**X@*-%%***+**$+#@@#==%&##&++&+@#@@@$@#@%#&++%++@+$+%$#@+$@@@#+%+#@$@@-*+@1#&$$&%=+#&$$&&$;@;+&%$@#&&$&=%$#%@$+#$#%&=$%%@@##$#@@&+#@%&&=#&&%&%##@@%$+$$$#&#$@#@+##++@X@%@X++##++#$@#+#$#$@+>$$+%@#+#@#+#@##-=%&%X=$&#",
"*#+$*#+#*+**+*%*%%@%@$#%@@@#$;+++@@&&&&&+#** +@-%&*+$%#@+$&+#%@$&@&@#&#O$$###$@#+@&&@%$**#%@@@@#%+##*@$#$#+$@@+$%%@#%#=%$@#%=&=%@$@&$%#$@+$$%%#%@*&#%*.#+=#+@@***#&#&@@@@@$@+@###&&&&%+##O#%&&@$&$#$#$$@+%@###@##$@&##@%#@@#%@$**%@$#+%%*%$##@+++@#&@*+#+$$#+**&",
"%*+**@@@%@+#%=%;+;&&==O#+@+>%#$+@##$#@&$@+*$@++@#%$$*##+#%$+@@$%&&####%$##@$@#$@#&&$=+%%+++@+@#@*+@@$$X@#+@@@##+@o%@$@%%#+@+&&&#&@<&#%%&$#%;%&&@+@#+@@+*#+++#%%;%*@%$#+@@@&+&##%#+%@=&$%+%&%&&@$&@#$#$$@@#@$%@#+$@+$$@@%*#@@@@@&$@#&%+@$$@#$@#@#++%&%*&%+1&@-%$$",
"++X+O@@#+##++%++&&&O$&o#&+#++*$*#1#@@@%.@***=+@@#*$*$+++@%*$@#+@=%&#&##=#$#&%&&@$$#>&&%@+=#**+@=+#*+@##@@###*#$+#%+#@#=%@&#@@@+%;&+%&o@+$&&%&@#o#+@@@&+++++#=12%=%#+++$@@##$##+@+#@=#&%@#%$&&%@$&#$$@@@$+@#%@&%@&+$@@$$*$$$+##$%%@+#$@=@#&@#$&@%=@@*$=*@&=@&#+@$",
"#@#+++#++@@@#=%%%#=#&#$@#+###@&$#++@##++#@+#O&@%@%&$O@$+%@*#++##@%&&#%%$&+%%%=#&#+#%%+#@*&@@%+#$*++@$$++@$$=#**#%##+@@++#X$$&$$&#&;%+++@@$@.+=+#@%@+@X+#@@$$#*@$#&#@+@@&&#$&o$##&##&&$o#$$##$%%<;*%#%%$$+**#@#+#+#+@%&$%*@%#+@$%#%+%#+&*=@@=&#=*X$&=%&+#%#%+@@++",
"+&&#@+@@@+%#+#+@.*%.#%=##$###+@+&@%@##%#$@=+#$+#@-&&*=++#@@*%++##@@&&%&#+%#@#%&+&&#+%%*&$=.%%*&*$*$@@X#@#%%%=**$*@@=#@%@##&%*&&=@&@;+#@+#@$$@@@++@@%%#$=%+$$#*$=<&$+$@#@%@+&+##$%@+%#&+&#@@@@#$=*#*;*=%$$**+@@#+*###%@$=%*%$#@#%%#+$#@@=&%*$#&&*,%%++$#$+$*+++$*",
"%&&o@#@+#@&+%%&+@%%@&%1$>=@@@@@#&#$#@@@#+@*&=#%#$-&&#++#++@#%@%@$%#&%#&$&=#@&&&&&%;o#%@o@+$$%$$@*X@@+@@@+$#$****%@%$%+$+#++#&*$$%&@&.@O@$#@X@@++@#@$#+##$#%@O*=$&@+++#O#$@@&#$%#+@@$$$+$$@&#+&;&***=***%*=*$#@++O*#@+#%**%&+++@#%@+$@@+#=$@+*#$$$=$#&+@+#**++@@%",
"<@O%+@@#@@@@+*%&#=#@%*=@#++@%@%#%+#%$+%@##@+%$#+%#*+@@@**#=@@#*@@$&$O&$=%o&&##&$&&@%@@&%+=*&&.#**++@*@+*@X@%*$$*%++#+%#+#@@#@+&*&%*&=@@@$@##$@%=@+@$+@#@@#@@++*$$$@@@@+$$$$+&&#@&+#+$$$@$%%##%&&==***##=#*@++*=++%+##&*=*#+%+#@@+%*+@@+%&#&$X$@#+@-*$@@$#&#@$@%@",
"&#+%@#%@@+@#&+@#%&=&#%+$+@@*#$@$@@##%@+@+%##@$+&&%=&@#*#*&%*#*+*$;$O@%%+%+&&&&o$#%@@%&&o*%X+#++#*X=##+#$+*$$@#*#@@@@@@@%#$##@+@&%%@&@=%++@@X@+%++@+@%+#@#@@@+#@*%@$&@@@&+%+@+@&$+#%@%&o$$&&$&$@%@#%**$@@@+@**+++#$@@+*%#%&+*%%+##$@#@#@+=#+@%%@+@$&%*=@#$X@=#+$#",
"+%@+$$@@#+##@#++#%#&%*X@$@$$&+#@##%$@@#+##@#&$%&+*&%#=O+#@+#+%*%@+#@+%+@+#@@@&+@+@+=+$&&&#@@*@#+@+X@@@@*#@+$+@X#@%*@+&*@%.@+++@$%o#+#+@&@#@@+%$#+*@#.%+%#+$++%*$$$&$@%&%#$@#%+#$+%####@@&@$%&$@##+#%$X%@+@$$-#+@%@@@$%@@@#%$*#*%%@#$#+@@&&%$-%%@@$++++@X@#++&%#*",
"@@#%##@#@@@-$&&@%+=&X#@@$%##@-+++$$@##@@@#@#$#++@#&%$$@%%#%%$$+##@#+%@%@%#$#&&&++%%+#%&&&$##@++#$@@+##=+*$+@+@@@@@+###=%%#@$@@#@@%@@#@*%@+@++##+&+%@#%+$#@+*+#$++%+%$%##@%@$$@$%@&+@&+@$%$$@@$$%%%%#*@*#+*#*#$*#@@@#@+@@@%%%&;*@$=&&*$@>$$X==&@@@@@@#@+@+@@%@##O",
"%+$$#+##+@#@-$&$==%@#%@##@$@%++*#@@#@#@@@#+*#@@++#@@+%@*%&+&**$%#%+%+##%.%@#@&#$@*=@$<o%++@$%##++@@$#+=@+++#+*@@+%#@@#%@@=+.+$%O+$@##%%$@@#@&&@@%@$##@*%*+##++#+$#%$&@@@@o+##+@&&&&$$&$&&+o$$$$$#%**@$X#**%$#++#@@#@%%@+#$#*&=%&>&&-*@@@&X&&%##@$#@@#@+&=#@@@+$+",
"+#%@@@+@@$#@##*&&%>+*&$%##@%#+*%=%=O@+#@++%#@+@#+++@+@#+#%@&&*%%*%##%@+%$#$@+=%+%%%@%&+@@+@#**@$@@+@@$**+#$@###+++++@*$$=&=$@@++@$$#*%&##;+#%###+@@$$@%%##O#+#*@&@+@#+@O#+#@@@<&&+&#&+#@&@#$$&$$%*#@%@@*$*$+*O+#+@*-@+#+###*%%2=1&331##$####=$@X++++@###X+#+@%+@",
"%%@+@%*#@&#==#+@#$#*%#++%+#@+&%$=@%#+<$+@+O@$#+@%*+#@@+@+@%*%$*+#@#%@@+%$####=+@+=#&&@O@%+@###$+#$%#+@=$+*$####@*@++@$$%&&$@+##@@&$=&%#-%&&@$@+##%#&$#@%*#**+#*@%&+#$##+@#$@@@&%++##&&+&%$&#&@&%%%%%+@=@+%++$*+#*=#*#=$+++#<**=855&3,+.$+$+%=@@@@@*+@#$@+@@+%+*#",
"%@+@+#%%%$&&$@@@&.@&%@@%#@##@%@+%&@#=@+@#%@%$+@@++#+@@+%#%%@%&+@##$##%+$$@#==.@$#+@&++@@@+%%***@*#*###&+@@++@@++@@+@@:%O@=+#@@#@$@+$$*&$@&++#@%$&+#$*#++$#*#O**#+&@#$@@;++#$@@@&;&&&o#@&&$&&&@@$%@%&@##+@##%$+*#***#@**@%+@%*=2@112=*#@@@+#&$.@@*+$+@#+@@+*+@++@",
"*#+@@@@#&%#&@+=@+@@+##%+@#$@#&+*#$#&%O+#@+@@+@%%*+@#%#@%O%*%@*$@@*@%@$%#+@&#&%@$%@&@+@%@#%%**#$$+##@+@+@@##*#@@@#+*&:+O+&#X#+$@$@#$#@&&*$##@#%@#@%&&&$@%+$##@O*+@$%o%o#%&#@@#&o@@+#@%++%@&%%$@#$%%%%#@#%@**++*O+@$@==*$+++@&%*=%$=&$%&$#@@+@@@#@@+O*$@+#@%$$@$@%",
"=@#+%&@##+@@@&o$&$#%###%%&*#&%#@&#@#=#@+@@@#@@>$%*+@+@@@+***%#***+*%##+####&&$@&&#O++##@%@$%$@#%##$@@++@#+*O@@+@@+$==+=*$@#@@@$%$$#@@@@&$&+@+@@@@+@$*%%@%%$@*@=O+&&#+$&;@o##$%##@@#&$@@$%+@#@$+$##@++#1@$@@#+@$$*+#+***+=+@=&=%&=&=$&&##@@@@@&##%#@+###@+%=**$+*",
"##@@$#@#+#@##@#&&%%&%###O*&%$+@%+#$%##%=@@#+#+@+*%@#*%+@%%*%%++@@@$**$+$##$$#@&=%%%++@+%%#+@%@++@++&#+#$++*O#+@*@++%%@$O*@&@##@#=$=#@+@+$@$%@%&*#@#&@#*%**@#*+O#@&@+&&&#@@###$&@+$$&#@@@+@@+$+++#+#@;%#%*%+#*%$%*+@$@=##@%$%*%#*=$$#$=&@#&$%%#+@+@*@+@@+#$*=3***",
"##*$$+%%###&#%&&=%&&%&#@=$$@$#=+##@%#&-%%@$@@#o@=O+*%@@++%@*%@##%o&%&%+$$&=@+#=$%%@+@@%%=@%%#++@+#++@+-%+@@++@++$+#*$@$+-+$X##**&$&#@@@@@#@++#*@&+###*$*=%+#+%=*&$#&<$#&o$###$%&&$$$+@+$+%O#$#@$+@%%+&%@*%*+@#%#+++@+@++@#@*#%%*$&$&&$$#+$&##%$X@+++$#@++***:%%%",
"%*@@+%#%#$%#%&&>><=&&&##@%*+#+%@=+@@%@@#&o%+$+@#O%;+;%@+@@@%+++@%@+@@*=+&%#$#+%$+%%@&&%*%%$@+@##@=%+@@&.@@@#++++@#*O$+++X#@@+$-,>4$$+@$@@#@@@@&#@$##@#*%*%%@=#@#%@&%$%&&%#o@#&@&&&#$+#&#@+#%$##@+$##%*&+#+**+=*@++#+#$*$##@++#%#@X@%&#@$$$#$%++=*@@1*O@%=:3=*$%@",
"$=#@##@#+$#+%&=&=*%@##%@@#%+&@%%@@$$++$$@@=++%%+@@#+:@+@=++++@$$X%@#$%%%%#%++#%#&#@+@###&%##+++#@$ &$+$@+%#+@#$+@++#@@%##%++#%***&%&#%%*%*##<@#**$@%+#$%%*$@++#+@#&&&&&#&&&@@#&&%%@+@@%@@#@@@@+###;##=#@O#%++#&@+@@+$%&#*%##+@@#$@@$%#%&+@#$+@-@*#@#O@#*%%$*%&#@",
"%$#%O#++@@####&&*%&%+$@%#@#@$$#@@$$$#++@+$=#%@+%&@###+@@@@%#+#@+%&$@*#++#+@+%%#%##+@%+#+###+@#@#+@@+@#+@$@*++%=%*$@++#+1@$@@#%=*%*$-**%**%@@%*=#&&%%-+%**@$++#@@#&@#@@&%&&&+@$&%&%O@@@@@<#1;&+@%&@o;&@##&@+$&%%@@$@@#$$$%&&#@@%%%+@&$%$@&=$$+@&%+%+*@+;*=***=*%*",
"#%@+##@#@@@##$&%*&&+@##$#$#@$$@$@$@$$.##@$=&%+#%#@@+@#@+@*@++@@##$@@#=%%%+#+@&%&&#+@O@@@$&%@@@@+@$#@$+@$##&@&>&$%+@@#+%%:@$*%#%=%*#%#%@%%%#+@+%#@+&%*+*$*&$@@@@@@@#%%&%&<$$@@%$&&&%@#+@##&&&$&&+O@%%@+O%O#$&%$&%@%####%$=&##@#%#%$#@%#-%$&=$+%&$%*###%=%*#*%*&%#",
"=$@&X$+@@@#@&%&&>=%+@@+$+@=$&##+$#$++$+#+$%% @&**%%@+@#*=*#@++%##+&@#$+%&=#+@&%$@@##@@#@$@##$#@+$$#@$@@@+@#+@@.@#*+##+%#*O*@%#%&%$$%%%%*#+++#@+*+$@$++++##*@@$&&@&&&@@@&#&%O$&%&&#%O@@@@##&$&&#O@@%+@&#-&$$$+$%&*+#$%%%$++@++##@@+#@@#$@#$&@@@@%%%%+@*%%&*%;*#$%",
"&&&##@##+@#&#$#$%#%@%@%&##&$%#X$#$$=#$$X+#$#+#$$@%+@#%@==*%@@@@@#@#+%@==*%@&#%$$@@@O@@@#$@@#$@@$%$$#$@@@#@@%#++#X$#+@@X@%@#@%##$&%#&*$%**@@@++@%X#+#@+@*&#@@#++&%&&@o$#&&@&$##&&&##@@##%#%+$OO%%%%@+@#*#$#&+@$%$#$+$%%++%+#$@#@#@@@++@%+@$%@@+#=&&@%##@#$=$%##%=",
"-&&$$+%=&#$#$$+@+@@++++@+#+-%=@@@&@@@$##&&$*%+$%@#%++**%+@*@@@+@#@@+%+$$%%$%%+$+#+@#%++&%$+@&#+$$$@@@@$##@#%%$#@@*####$#+@++@***&&$=*%@##@#@@$*+$@%+@%*+#@$@@@,@&@&@@@@%@%o#@#@&#@+++&+#$@%%@$=&#+#+##+$#@@@@@O;=*+##%+==&+*++@+$+$#+#%+@+$%%+$=@+++#+@+#$%+#%%=",
"==$#$O#$$$@@#+%&*=#@##@###@@&=%$%$*@$$@@#X%#.@@+@@+%##%*%%%++@+@+++@X@&@&#+#@@#@O@+#+$#%$@@#@$%$%&$@$@%++@$@@&@$@@$$##@%++@@###*#%*%%@@*%@%#@+#%@&@@@$$&#$@@+=&=#@&@@@$&@&@@#@#@@@@@$O@&+&+#%$#@%%+@@#@##$@@+&@%#& %+@$&%#<#+-@#=@+@+@@@+@##%@+%%+##@+*+##@+%&=;",
">&#&##@&#&O+@>$&#@+#@+#*#*@@$#=X%#+&-+#+.%&@$#$&%$%**=#%#@&+##@@#@#%#++@@+@#&@+##@#####@#+@%&&=%%$$$$@X%%#&#@%&$%+@$%%#@+@@*=%*#$%2$@$*%#@@@$+@*$$=%$++O@X@#$-+$@&#@+@+#$+&%$@@@#=%+@O@;%&+@+++%%o@%O+#@$#@@+%@#+++%##=&&=$-&$$$@%+@@#+@#-##%$@@+#++#%%+#@@@=&*%",
"*@&%%$@%%$#==&&%##++#@%%$$+&%&#%@%@#$+@+@%+-&$=+%%#*$#*O%*+@++*#@@@@#@$%$##&&#@=&@#@#@@##+%*&#>$$$&&&$$&#$%@@#&#%@@=#$+@X@#*#&%@##++#%$$o#+#%%%<+*+++#@$&&%*%@#+##@#@#&$@&++&&$&&&%%@##%$+#@#=%#@@##+#+@###@@##+@*X$@=&X$+@&+X$#+&&@@#@++&%+%+#+@+#&$%+&&+&%=#$&",
"%%*%%%@+@$&&&%*%#*%++@#@&##+*&@@#+$+$@$##$@+$o+&#%:=**$*-$+@++**$@#O#+@&#$@%$&&$=%@#$@$&&+%$+%=&&===&&=#@@@##@@@&@@#$$#@$$=&&=-##@+@*++$%++*&#=%=+@%#@&=&%++@###%o##&&&@&@=&&&&+&+&&&&+&&@$&&#&++@#@@@&%$@@#@+##@@&@+=$=*@@%#%&#@@%$#=&#%%+%++@++%;%#+#$#+@&&$@%",
"$====#@@@@%@+$$*%O*%%#@#@@+#*$%##%+$@#$@@$$+$=#&+@@#@%*++@*+*+X$&@@#@@#$&@$#=@#@##@$@@&&*+@+$@%=$=#&@$&###%#@X@%&#%%*%+##&&%#&@##@#*@+@##+#%@=@%@%@###@@$%#$#%###o%@#+%&$&#&&@%#$%&%%%+;&&$@&%@@@@###@-#%o+<%++@X&++@$$&@#$@+$$$@##&#-&#@+%@##@@@@%$$%%%*X%%*$%$",
"&;2%#+##@&%@#*+%+##*++%++@@#+%$$@%#%#+$@&#$-*-+@@==@+;*+*=**+#@+++@$@+@$&@@##@@&&#&&@&,&%%++$#%#$&@#+#@$#$*X@@$#%#%##$$@@==#@@@%$%%=%*$@+##&%#@%%+@#@@@=$%*%%@&%@#%%##$+$;@$&&@#@+$=&#%&#&@O#@@@#&$&%+++@<=&+#@@$*$XX&*X$+%$#$$@$$@@+@%#%@++@+#O##&%+%*#+@$$%&%%",
"&-&#%@+#*+%@;&%%%O%%#=+@@@+@#%#$%@@#@+@#@@%@%%%**%+##*+*+*@*+=%#@@#@@#+@#@#@+@+%&$&$=&&$=$+=*++@+++#$$@$&$%X&+##@#$@+$$*$&#@X@#,#&*$%$%#%+@@$+@##%%@+@$% %$@%@%*&###@+##$%+@#$$@@@@@==%O@@&@+@%#@&%%#+*#&&#&#<@#@@&==X@++*@@$@%$##%+=&=+@.#@#@%#$&&%++%++@+@$$*,",
"18&++#%=*%%%&%$@#%@#@$++@++@#%+&#%&<+;%@+%$@*=*++%@1*#*O#+++@%@+$+$@#&==&&&#@#@@$@@>&&+++#=*%&&$%%@$.$@#+@%@X+@#&@X&@+&&=@@@#&*=*=*-**#*@#%o#O@&=&&$#####@#=+@#%@$&#$$##&&##&#@@o@+&+&+@#@++@#@$%#@+@#=$&%&#+#&+@&$=+%@@$+$#@+##@&&&+OO@%%@$+@#&=@&@&-%@++@&X@&=",
"&*##@@@**%*%+%+%%%%#@#&%+&#-$#+$@@&##&+@%&##%%*%*@%@*###+#+#+*+=+@###$$@$#@#&#$%@+&&&&##*#++@$&%#$$=&@@$@#@@@@@$$@@X$@#&&&@#%%$=&41=*$+@#++&=&+&+&&&%@@=&&$&@&%@&+##$&$&&#%@@@@@@#&$$&#@#@##@@#%#&$$@#%$#$+%#;&@$$++#X#@$#=@$#@@$@#$O+@#%@@####$####$&$#@@#*@#&=",
"#&#%+@;=%%#%##*.@@@##$$@#**#@%&*$@$#+&&-$*#**$+*%***+#+#+##$#@@+@=&$$&=&#+#@#@&&#$@#&&@&&$$+@&&%&@++$&@X@$@$#$&$#&@#&#@#$@@XX@%=**2#+@@+&#=@+&=&&#=#&o#%%%&%#%#%&@#&&&&<&++@$####o%#&&@@+$$&&%$#@#&@$%%@&%#@%%%**+@#+@++%*&#@$$$#$#%#%#@#@&@#@+%&#O@+#%O$@#+##-$"
};
