/* XPM */
static char *mat1[] = {
/* columns rows colors chars-per-pixel */
"256 256 28 1 ",
"  c #A69A79",
". c #AA9E7C",
"X c #AEA27E",
"o c #B0A47F",
"O c #AFA280",
"+ c #B2A682",
"@ c #B6A985",
"# c #B9AC87",
"$ c #BBAE89",
"% c #BBB087",
"& c #BEB18B",
"* c #C2B48E",
"= c #C5B88F",
"- c #C5B691",
"; c #C6B891",
": c #CABB94",
"> c #CEBE98",
", c #D0BF9A",
"< c #CFC097",
"1 c #CFC098",
"2 c #D0C297",
"3 c #D2C39A",
"4 c #D8C79F",
"5 c #D7C89D",
"6 c #D9C99F",
"7 c #DBCBA1",
"8 c #E4D3A7",
"9 c #E6D5A9",
/* pixels */
"$*$&#;$$$#*&*#@#&%&;$%&&&#%%#*@%:##==&&$$-------,-$$$-$-$-$--,$-$**@-***$*$,$-,*-$$$$$-$*:$*$--$$*@*-$-@-&$$-$$---*@$$**$$-*;$+*#*;$=**$*#**#*o#*=*$-$-*@**#*$**$--,$,--O$$,$$@-$--@-$$$$&$$@&@@-:&$$&-$$-$--&--*;*$$@;*+++*@==#**o%=*==$$+%*+*#*#$#=$#=$;%@=*+*",
"&&&=$$$;*$=>$$@*%&:&&&*@#&$$%*%#*@%@*+&#$-,$-----$$4$$$$-$-$,,--$-@$*$:-$-$$----*,-$$$$-*-#$@*$*$*-@&*-,&&--O$**@O>::@-*-$$$@*$#+#%*#*=$***:##@#*****#:**$#*,*-@$-,$-$-,-$$$$$--$$$$-$--$O&&&$@-$&$$$$$-:$&--:&$--@#$#**###$++*%=#*X%***$**;o%+o*%%%%=$$$*#@**$*",
"#=**$-$@$+$#*;*$$*;$&$&@&$@#%&<:%##o=&*$----$----$--,--$---$,$$$:--*$*-+$$*O*-$@--$$@$-@$$-@--$*-,@;&#*-*$-$,-*$@,O*$-@-$$-+:%%*#=$o$$o3:4*@@>:#$*$#***-+#*#$*-:,,$$$--,$$-$,+-$$$----$-&-,$$$@$&:$&$--$$$$&$$&-=*##*#;**%*$%o=@#*X*=#*#**##@%%=*#$#*#=+$$$+*=#;",
"$$&#$*$-$#=#*%+*&##$+$&$%&#&&&%*%&*@=*#**$$-,--$$--$$-$-$$-$---$-**$@**-$-@*$--+--*$*@-$--$@$@>$$;-$*---*&&@&&&$$-:$$*$$*O$:;$=*###o*2*=$****$=***$******$*#*@,,O$-,---O-O-,$-$$-$---$$--$O&&$@@$&-&:@$-$&$$-$$$$*#*$*$#o%##%*#o*#oo*o*#o*=o+#*o*%+%#$$+#**#$;%*",
"#*$*$$$@@*#*****+&*-@$***%%##&#=#@#=$=*=--$--,$$---$,-$$-$-$-,$$-**-*$@-*$$----+>*@*-,>-$*;-$$$*-$;*-**:$*-@&#-*,-,;,@-+;$$##*###=#$$@****;**+*$*#*@-$@@*$-**$*-,$--$--,+-,$$$+--$-$$-$-$$&$&&$-&-$&&:&$$$-+$+$$*#*#$&*%@$#%$**%*%%**o%%****o%%#*%+$%=$;**&@@=#*",
"$*#&=*$-***;$**#-@*-+$*@&$+##%&%##*&*&&*$*---------$-$--$$$---,$*@*@-*,*--$*--O$$$&--O$-$$@*-***-@:*-$*:$-***--&**$*$$*$;@*&&+=;&*=&*#=.#*-*=$$#@$;*@-+@**$--***$-$$----$,,$-$$$+--O--$$---$&-@$$&:$>$$&-:&>$$$-*o#*o+=*$%%#o*#%*%%*=o=*=ooooo=*#;$*$$*%#*&*%*$@",
"*#*&$;;+;=$$***:&@&&;$*$**@#+2*&$#&+#&$;*$-,*--$------$$$--$----**-#$$$-*$-$-O$,&-*+$@**$*$*$+*-$7-$-***$-$$-&-$-*@*;$-@:+$$*=$####+&*$$;o*#;@*+;$$@****$----$*$-$$---,-$--$-,$$-$$---$--:-&&$$$-&$$&&:&$&@$$&$@#****#+**o###%o%o**+*#%#*%oo#%*=%=*%#$*$*@=$**$;",
"+&*&$;;@;;+:$*$$*-$&$&$$$;#;<#**%###*&$&$-,---:$----$-$$-$-$-,$$--*##--$$$$$$-$$-$&$*$@*@*$$*$*$>$$-$-**$-&@#--$**;-*-$$*+>$+=&*#o=#+$$#+***$**#**@;+**#*4*$-$$$,$,,-----$-$-$-$-$-$-$--$$@$&&$$&$-$:&:-&$&::-O$**&%#&**#@*$=%#%#%*@+#%**%*2*#:%<=o**=$$*==%$*$*",
"*$$*$--*$**$**$$*&*$$$&*&&$$**$%*&#&&&$#*$:=>$-$-------$-,-$$$$--$*$**-*;$#+;@@$$-O@###*%=$&***--*&-$--$$$&$$*-$***-$$-**%:@$**&$#&#%%%*$**@**@;-+$-$$---,*-@-@*,--O,$---+--$$-$-$---$&----&@--$&:&$;;$&$@-&-$$&$*$*$$+=$o#%%#%#*#**$#$o#$=$X::*+*$***$*$#;;=##*",
"$**@*-$-**;$*;$$$;$*$&&$&$#O@&@#*&@+=$#*;***-->---,--$-$-@O$$---*-**@-@*+***.***$O+#;+#+@$#&**-*--&$--$+$--$-$,-***+-$$@=#<*&=+*#**#+%;+;%%;*#$*$--$-$$,$-*$-@*-,------$---$$$-O$$,--$$$-$$&*+--*;&;$@#&&-$$$$$>$$=$#+:$##%#%#%o%o#%@#*=<%#$=***$$$*$$#*#*$@$$$$",
"****+$$**;$:$$$$*@$@&&*$&*%*&$$$%##**=;;$$**---*$--$-$--$---$@O$$$*$$$$*$@-$$$$*$+$>==##:=#+*-*-&-,$*--$-$-$>-&**;;;*$-*&#$*$=*o*&:#$*#;+**$*$*#$-$$$--,:-@----,,$-$------$-$$$$-$-$&$$O$-&--O$-&$;--@@@&$&-&$&$$$*&$@$%#%%o*o##%%=%$*=$;#**=****@#$;*$*$%*$*$$;",
"$$-$@***$+=#**:$$:$-$#$$#&&;*#$&*&&&=:*****--*,$--O$---$--$--$----;$-*$*$@=*:@***$$++#&;:+#*---**---$*-$$*-*-$$$>@-:$$$-=:;*#$*3+*%#&%%$*=o$*$*#*$-$-$$--,---*,O$$----,-$--,$,$--@--&$-$--$$--$$$$&$%$&&>$&-$---**#$##$*&&%#:%=#o=o*+$#$=$*$#@*+$$$$-*@$*$$=**$*",
"#*@@$,**-*--;***-$-$#@**#&*@&&*@%&##%2*****>+;**--$$$,+-$+,-$@-$*:*-*$$++*:$#$*o@$++*#*#****+;$@$--$$$-$-$$----$*$**@#*;**>*##*%#&#$#=$+:#@**$@*-&-$-O-------,**$$-,-,--$-,-$-$-&$$$$&$&-$-$&&*$*&*#-$&$-&&$&--$$&&#@@=%$%$*$@*+==o%#$5$*@#*=;**#;#*:*$-*--@;**:",
"**--@:***-$-*+**$@*&*#*#&@%#*&%-#&*+%=&$$*-*------+$-$&$&$$$$-$-******+*$$;$+*#$$$*;:#%%%+=+#=;*,$-$--+--$$--&$-$*$$$**$$;$$%o+*=%%*#X@==*#**@#@,--*----$-$-----$$--$-$-$---$$--,$,$$$$$,$-$$$$-$*&&&-$&&&-:--&+@=$#+&$*$$*+$#=***$>#=;#**#*@$%+$$*$$*@*$$**;$;*",
"O-*$**-$>---#$@::*&$*$&#&*&+@%&#$&###=X#$$-@-*,*-,$$--$-$$-$--$--*#**$;#@#+@*oo*$$+*+#=&##*>;*;;$-*$$$$,$---:---@$$*;*$*$=*#**%**##&$%;=*$*$#$*#$>>@-$-----,---,$-,---$,$$$--$--$&$@$@-$-,O$+--$&;*-&+##$&:-#&+&#o*$$&*$*%*#*$*:#%#**=&#@***$*$*;;*:-;;*+$-$$*--",
"-**$-***-$>-**-+&*$&;$%%*#***#$##&$&&$*=**$>,$$*$--$-+$&&&$$--$$$**@$*$@#$;;$*o2$$O$$$*##%&&$=;@$-$@--$:$&-,--*$*$$$$$*;=$+***o#&%&#+%#o=$*#$*;*-&*#-O--$@-O-$$$-----,$O$$-$$$-$$$@&&-,-@$-&$--4$%-%$&-&-&+$$$$##+#%+*=+%*#*;#=@*%=%&$$##%$&***;*#*;>:$;*$$*-$--",
"--$$-*$,-$$-$$@$$$$--$$$%-*@&&%$#**@***#*O>*-+$*-O+$,-$$$$,--$$-**-@*@*#+*$$*@*;*#%:#*;+*#-*----O-----$$$+;$--&$-@*$$$$$*$*$$=+o@$@*-,::-&#*&&@*$&$*--,----$-$--$---,$-------+$O*$*$$***--**$$$$$&--&&@-*$*%$*$o**#o;#*%*#@@*@$**&%##;@&%*#&$*##*=$*:--$-&--#@$*",
"-$-$-*-+$,--$$-@--$$----$&%#-&*#$%+*$==*-$**-$$$-,----$$$--O,$$$*-*@*$;$#$@**#****@##%;**#--$*:+---$$OO$-;-;:&-*>$@@*$-$;$$o#$%%**$;-----###&#&*+$*-$-&--,$$$-$--$$$*$$,--,--$$-$+$-*--$*$*&$#>&%2-&$@@&+*##%*%@#*#**#X*:@O*$$*$;&###&%%&*&**$&;@*;-----$&*$>$$-",
"-$*$$:--&&$$$$-$-@$$$&$$#&%@*#*@@=#o=*##*$**$*-$$$---$+-$-$--*-**-:@*$$@#*$**$;***+#=##%*&*-$**;$-$-$*4$$+---&&$$*$$$-&$+*%*@*##$@-$***&-&#**&&-$*$,-*&,-$O@--+-$*--$--,$$-+---$*$*-$$&:$$*$**--*$-$$@&&&#%#o$@*o#=oo**@*@$+$#*###*#*#&%%$#$*#;*;$*-+@*-**$--$>$",
"****-*@*,---$-@$--$---$$&&-&*#%@@*#**$;#$-**#*$-$$$$$-,+$-$$-*--**-@*@@$#***-*@@%*$=+%**;;*$*$*;---$$-$-$#;-&&$:-$@*-$-$=@=@@@$*$-$$-$O&-##***&****$*+>&$$--+-$$---@---$$-,$-$$-$$@-*$*&$**$&*#:@&;&&%O;&*%*$@$%*;**o#**O+-$*$*$%*#&;&#@+;&;@$#**-**,**-$-->--$$",
"$*$$,$-$$--+$$---$$+&-$$&$$@$-$$@=*o*;*;*+*$$$*$+--$-O-$--&$$-*$@$*:=o@*#o*==*#*==$:=$#&**&**$$;O--O**-$#$---$&-*$$&$$@*$$%*;$:>2+=$&*$*,$-#&&&#@>$&&-$+---,$--$$$>,-@*$-$-$$$--*$*@&$-*-O*-$&**--$$$@&&&o#%*%%%**##%**%*+#-*-#$#*&$##=:*%%-;&+#;**+****$--$$$$$",
"$$*-*:$-$--$---$$-$-&&$$-@&$;+$-#$$##*#$$$*-$**-$$,$O$-$$-$$$-&,*$#:*X**:=o=%%*#;*$+&**;#@$#*$;$-*$$$*-$@-&-$$&:$;$**$@@+:#=;$;:;$*$--$$+#-&$&:$->@--&#----$--$$-*$+#-$-$-,$-O$-$***&#**O*@&#--@$$&&#&#7&###+%$&*@%=#*$=**$-#$**#*&%&:@%%3<&&%&%;-**-$:*$--$-$$O",
"-$-$*-*$$$,$$---$&$$$$$$&$&&-@$$#*+*$*@*$@$@$***+$-$,+-+*$$$$$$-***#@+#@*o*:;**#:*$@$$*#*#&;**$$$*-$&$$$$$$$:&&&$*$$#$$@*+***$>-;$&$##-&&$$-$*-$@-@-$>*@$-$$$-&&&-*&&+$:-@--$,-$**$$#$-+#$-**#:*;-:$@*;$*+%##+*o%$%o*#**-*-***#-*=*&#*+6;X**@**#$**;*$*-**---O$$",
"-$$--$*--+,$-$-*$-$$--$-&#-&#@$@#;o*$$*:*-**$**@$$$$-$-$$--$&&-**#$;#=#$**=:;***$$*$#%#+**=;*$**$$--$--$-&$$$---;#;$@#@*$$#;;*$;$&$$@-$@-&&$$$&$-*$-$O-O-$-$--$&->*-##-*$----$O-**$@-$*-*#-**@-+&$$;*&-@&+%*%@*%#$##%*$;$#****O*+**1*#:;%@*&#%&&#;#*-*O----+$$$$",
"$$$**----$--$-----$$-&-$---$+@&$*#***#:**$**$-**&&&*&*$#$+$+-$-$#*=@@#*+=***$*$*=$o*@*$*>&;=**$;+$*@-$$-$$$-$>&$$$$$#&#$$#@%*-->$&$$$$;$*&:$$$*-&$@&$#:$-O-+&&&$$@>-O$$--$--@$*$$**$$*$-***-&$$$&-:-$:;;$:$#+#*#*#%%$***=*#***>$*$-:@$*$@:%;&#$;&---$*---$--$$$+",
"-*$*&*,--$-$-$--+-$-$-$--$-O@@@$o****=%*$**$-$O$*#&=&$**+$$+-&$$*##*****#@-**-@**=*#o*+$;**$$#**$-$$@$-$@&$&-&$-;$$-*###*$%&;$--$$$$$;$$>&:$$-&--&--$&-;*+$-$,$--+**+*$,*-**@,$-$$$**$$-*-$#-O*$*$$#$*>-$$$#&>%#*;##$$=:*=##***@;2@$@$@;@*%;&;@%$$$@----$-,$-$$-",
"*:$$*-$-:$&$-$,-$$$+-$$-$$-$&--$*=>*****@***$*$*##*&#;$$$-$$&-$-*o>@*+**#**$+$#*;*#+****$;@;;@**-+**@$-+@--+&$&:*$=$$$*&***%$$$,-$$$@$**>&:$*-&$--$#&$#O+$,--,&&$$:$*$:OO-**$*$$:-$@$$:$@##*$**$$:*@$:$$$$-.*+#$%##=**@*+-;*:**+;$-:+$;$@&$%*&%&$-$$$--$$$-$$$--",
"-$-+*--4$*-*$-$---$$&,&$$O$$,&&O=%#=***$$$:$*$:*&#*##*&&*-O$-$$$$**#-=*@*#*$#*=o*$#*@**@*+*#**$*+$**$&$$&$--#&&$;$$;###@@=;#,$;-$$*$*--&>$-$$$-$@$&$#@$$$$$--&$$*O$$-$+***-;-*$$$$$@*$$>$:@$-&+&$$$*$:$+$$+$@$,7$*#$@*$=;*##-*$:;+$$:@2X%7&-%&@%+$$--$-$-$$+$-$-",
",@$-*--&$-$**$----$--$$$$$$$$+&&:4;**:***;-*;$*;&**#-$$$@$$@,&&&:@$***;@#**#$$**$*$#**;**$***;$:*+$$&$@&$@&&#&&$$;$*;$#@>@&$;*-@#*#&$&;$+&#>@*&-&:&&$&-O$-,,---$++*$-#&*O-&-+@*$#*@;***-+$$-**$*$$$$@$$5$$*@#7*$==#***:*;**#:;:*+,$;@*>;-$:#&-$+&*@&$---*&&$$--,",
"-*$+>*-$$$$-$---+$$,--$$$$-+$$$@*$$;$****$>*$$-$*+#$$$$$$+@$&--O@*$@***@*#*o*+***;@$:@@2;-$;*$--$$$$&&#,@-&#;&--#;**$$*+*@=>;*$$$o&$$$#&&$,-#&--$@$$&&&$@>&-$&-&$$**-$&+4&-#@*-$$$+*$*$--@*@$-$$;:$**$#;$$*;*=@***+*;****$*$*;*$-$*X**$#$>$&$&+$&$##4$$--@*$$+,$",
"+@$-,$-$--+$O,*-$-$O$*$$,$*$$,&$*$@$$*#;--*$**#**$%&$-#$$>#-&&@&@-*##**-##***=*#*@**:#*$$*$>--$;$-,$$@$-&&$&#-&&*;$+*$+*$;*;*-$$=;&$$*#;$#-$$#*#*$:@$$$:@$@#-&O$$$#$@*+>--$$**#$$;$$@*-:$**-**+$&-&*$&*&$+*@$;+***$*$**+@*$$**-$*--,+;*.$$-&-$$$$*&-&,--$**$,&$-",
"$@****$$$$------$,$-----$-$*--,$*:@$:**;&@-*$$$$$@##$&$@$-+##-&-#*###*=@****$>#$**#>**$=**$;$**-@-$$$$+&@$&&&$-&*$$;#$2&*&$;**$$:$##*#+=&#+-&*$&*&*&&$@@@$-&@#&&$$#@$->>*$-#;*$*;*$$$$$*$-$$*$$*&$&$**$$&@**+;*5;*;*****$$*$$*****:*;=*>&$$+@&$$&*&$$*--$$$-@@--",
"&&@&:$$--$$,$-,&---$+----$---$-O*@***:$-&>*&#&&-&$$--&&@$$&X*&-&;*&&*$#$*$;;>+-*$$$$-$**$***=$-;$*;&&$**%-#-&$-$@&$-*$;$*--#---$;$$$+$*@+;#>$****&**@+%##&2@oo*##oo*%**2$*=+***$$*******$,$:$**-$-$$+$$$$$-O-$,-+@-$O,$$$,$$--$-@:*@$*++$***$##*$*%&$>*>$+*$&*$&",
"&$$$--$$-$$$$--$$-$O-,+$$------$@#*$*@O@$*$&&--&&$$-@$$7$-#&%;*@$;#$=$*$$**=*-*$$$$*-*@$*=***$*;-$@@**+&&&%#&&$&-$--$*+**>&-*$-*2**$@*$;@;**o==*==**++###2o*%%%;o*:o*=o:*$$+3**#-*$$@@--#;$-**O@O@O$*$$$+-$$,------+&&$&,+-$--$--:#-#+**;*$;&$#$=;*$*>&-*@*+@+##",
"&&$@&$&&$-$-$&$-$--$--,$$----+--@*-**@*:&@&$&&&#-@-$@-&-$+$;*#&*=$+***=*$>*;$;$$-$;@$-$:**;**$**$-$*&&;@%&&:>---$;$$&;$***$$--*-$@$$=****$$@$;$$**##++$$%*2=*o%*%o*#**=o++#*$$#$-*$;$----$:$$*@*$&-&$*$4-$-7$$-$-+$>$-$&$*$--$$*-$-*@+@+=#$*&&*#+2****$$+O@;*%%$",
"&#&:&$$&--$$-$-$--O-$,$--$$$--$$*#*@$#+-@$&+-@&#:>&+&-@@&-$@;%*&+**$*$#@*>@;$-*$$-$+**$$$*###$*->$&>;&$*:*:;&#*$@:+*$:>$#*****$-*@$O$##;*$*****+&$#+&$&%%*@*##%***o**:o*%$$=$:******$@$$$*--*$$#---*----,---$-$,@-$$-@$,,$$*-$--*--*#$$$*$&*&&+=&&&#$;;;+#:$%$=#",
"$&&$&&+$+---$+-*-$O,,$,-$--$-$$$$***$@-#-&----#--&-O&$-+3:&:&*$***+**+$$*o$=*;;-:*$$3$$--#:*-**-$$+@$$:#&O&:--@$$$$$#-***#->*$-**O*-*@$$@;#*=+*;%&*#*##%%#*%**=$%*#%3*o;@o$*$**$*-$$$-;***--*--*#-&&$-$$----*$-$&--@-&-+,-*-+-$---$$@*$-*;&=##**=#@#$@&*o@**$=#%",
"O&&&$##$$--,$*$$---+-$$--$$--,@--+*-$**@$--@-@&-#>@@&&-,##;:$X$$$@$*:*$;$#$$$$+:--@@*$+*##*#****$-**-->@&@%-$-:--$$-**$-*#+$-$-$*-*O*$$$**$#@#*$**#%*++#%%**o##%*o=%*#%**$$#*:**$--***$:$*--*@-$$$---+-*$$,-*-++$-,-&$$,+-+---,$*-**@**O=#*;*##&**$*&$&==**#o%+;",
"5@#&@$##$,-$-$*-$--,-@--$---$-$--+*$@#*-&*&*----#&&#-&&*&+&$@##*$##*+$*$**#;***$**$$$$$$-***-*#*->$$--&+-#;&-&-$$*$&$*$-**-*-$+-@$*-$-;@+***$#$#&*%*%####%&%%=;*2*=*o#;=#==$**#$$$$$*$&*$$**>*-*$##&---$*--$--$,,-@$-&$$$$-+$--$*#**-*@#;%**#+%;@;#**#&#=$*$#&+=",
";&&$$$$$,-$-*-*$$-$--$-@$$---$$-$-*****@&---->-#&-&#*$-*&&&;+**##***$=$;*:**$-#;*@$$$*-$-*O*-**-$*$--$#->$##$--$-$$:@-$&#$&*$$-@*$*@*@*$@**$;$$##&&=*&&@&$$#**:*=%*%2%*o#%@*##**$$$;$$##*+*->$--$#-,--$-$-$-$---$-$O&,$$$-$,$-$-**:-***$*+**#%$$+2$&$*=&+.=%*%2o",
":O-&#;%%+,$$$O$--$---$$--$--$--$-$$$--,##--##,-O$-->$;-*@&#+*&=$$$$$***;*=#=@*%2$**$*>*;$*#**$$$-----;:&$&->&$;&&@&&$&*&**-**$-+-*$O***$$%*&@=#$#**$&#&##*%$+&**=$$#%*##$%=+$:#*#*%&&+$*&-,&$-$*$&--$,$O-$-$--,--*$-,$$$-$--$@-,@,--@-@$**$O$%=$#2$@*@$*$==#@*=*",
"&&&#&;#%+$$-$**-O--+-+4,$------$$*-$--,$-&---$#-*@;@+$;$$+&$*$;#@*$$#*$$$#**o**#$$*@@-@**##*@;*;$$*-$@$*$;#---&:@&&$-$&&$-*$$**-*$$$***-##@;*$;*#**&$#$@&#*$@*;-$***$%#$*>$%%$+*&*#@&##*-&$-*$*&&@-$$-+,$+,$-&$$*$--$+-$$*$-+,---:$*$$$-*$O****=::*=$#$$@$@*;$**",
"&#%@%&&-$$-$,-*,----$O$,-,-$-O-$*-$--,@&--&---+#$$;;@=>$@*$$*-=$*=*#$$$;&*++*%oo$*@*;=*o*$@**--*,>--$-*-;+:3$$@-@&&-&&&**$*$$@++$$-$+*$*$+*#*;$#**$$$***%&##*$$*$***$$+2**$$$o*@#&+#=*=@&&*--:*-$--@$+,@$-$,$,--$$-$-$$*-$$*,-$-*$*@*$*O#*$@#<*$*$o**=*$*$*$o@*=",
"<%#%*&&&$--$O+*$-+-O,----$$$-$-$,----$-$&:&-@#&-**$*-$;-;-#$%&$###&$**=$&o#=o#*%@**@$*:>$@$***$>@+*$$@*:@$<;+-&-$#$$&&&#-***-$$$$&$:*-:*;>**;=+#$*****;;#%$*$**$$*$X#=*$$@=*#@@@+X@#+:$$-*$$&@$*&-$@-$@,,$$$-$+$$-$,$@--$$$---@-*-*-*$$@+@$+$**=*$*o$*#=*##=@@**",
"&$$%#-%$$--&O$$--+-$-----+---$$-$$**@-&->&--&&#-*$;**$**@;-@*&#&#$$*$=$=&&#+o#o%+;*;*;#=$$$***$*@-:$>$$*&@@&&**@*@;;*:&*-*@*-$@-:*$*-$:*$-$$$;*=+#$$--#*&=$*$*;##*&*$##$=%;%$@%@#*=+@$****>#$-,$-&@$O-,$-*,->--4---$@&&-*$@---,$*$*-**$-#@$@*$@*o=***=+==**$*#**",
"&#@#%%%#--&$$--,$$-$$O-O,$$--$-*$*$*-+&*&,#-@&-&$$*#$-$$;&$##@*****&#&&;$##%=*:**+##**:>*+-*@#*-$-$--$>@=*+.;&;&&$*:;-;&***$@-@$;--$*$*:$-$**$*+#;$$-$**;&;>-#***#;$#+$$+o**@$**#@*%@@$+&-&--*$$$&--&&,-$$-$&-*-,-$&O,-$$--$$$O&+$--$@$$@+@$#@**+%%$$#*=+*##*#*#",
"-@&%&#%#$-$$-$-+O$+--$$$-$--$$$,$$+-->*#-O-&--$#***$*;$*;$%#*&#*$;$@$$#*&%#*%$oo#****#*#+$*@;-,:@$*-**$+$&&&*&@+X$&*&@**$:-$*$-@$-*--*$*--$$*$*+@;*-;$*;$;$+@@*$***Xo#%*%**oo**#+&$*@$@$#&-&$$-$&&--$$@-$-&-&-$--$$$$*$$---*$-*@$$-O$@--O**#*$@*o%$$$$$*#**#*+@=",
"&##%7-%#,O--$,$-$$O--$-$---$--*$$$$,-$-&-#,-+#&&*$***;$$:$*#**;&$$$=$;*=*o%*%%#=*$#*o#:**$*@*$;**&$-$*$*&&#O*&#;#*&$$*$&-$-$+:$-$**:--*$$**$*$#*$-$*;--$*$*#**$$*$*=#$=*##o%*o=#$@;$*$$$>*#@->-;$--$,$-&-$$$-&-$>&&---+&*---$$$--O+$$*@*$$@$##oo*:*o@=$:@#*#++*#",
"&&@<>$O$1&:$&$&&-,--$**--***---$-$*-*+#@-:;$$#$#$*:$$=#$$$*$*$;$*$***-$**$$+*#**%*##o=**++;$-$:$$$$&&@;#*#@-:-*%$$*:****##*>>***+&---------$*-::$$*$:$$-**$+;$*$$@;@@+$*@+%%@=*%=*=;o*##&#<=&*-*&-$$4-+---$------$*,$,+--,-$$@$>:#=6$*##$%o##%o%*%%=+#$$**$*$**$",
"-&-%$+$&>&&$#:$7-$-$*@--$$$-----*,*-$*@@*;@>$#*#*;*@=*$$$*$$*;$*-*@*O***$@$$$*%%#<*%%oo*$$$---;@-&&$%-$&@$-#%&#@$%@$*;$*$$*-+$$+&$-$*&&-*-$*-$***$-**@*$@#@##$*$;$$$:;*$*%%##:**=#:#&o*o=&:@*&;;---$*$--$,$-$$$,-$--$-$$,--$$-$:@#=&#%#*o#%%##o#***+#**=$$*$#;@#",
"&$:;&:$&-7&$$7---$-@*@O$$$-*-*-$-:--*$*#-@#*#*@*#**$**#&#&#;;**$$**@*$@-*$$*#*=$#%*%*o=#.+**;$;@:@$$*&$@&@;$&&@%#%%%;$**$***+**4>-*-+-&-$$*--*--$$$*O$-*;$&&*;$*;*&*+$+&o#o*%***=*;%o%%*&&2@:$*$$*$-@----O-*---+---*@$,-$----$$,**;;+o*#;$%=#%#%o**$@$+>=$#$*#$*",
"#&:&&:+&-&$-&-$#---,$$O,$*$-,-----**$**##*$****$**#@&$***$$;***>*--*@**#@*@+*$:=$%o%*o*%++$*-*;*$$+$-+&-$&&*%&@*#**2%$*=*$@@--$$*--$+*O*-*$$$*$-+**$$$$@++*=*$$.#$#*:*@*#%*#=****%###%=o*=&=;$*-$****-$-$---$-$$$$-,$-$,$$$-$$-$;+#$@$**%*oo**;@*=#5o**=**%@%#*@",
"#-#O&&&#,&&-$:-&----$@$-*@:$$*$--*-@*O**#$**#$*#$=*$$+##$-$*$$$@----**$@$*-*@*#$%%@$%;*o#;*%;*$@,*&$-&###*&#-&%%@*$:**#$*$-:$$-,$-&>-,--*$*$$:*$&-*$$&&&=%*#+*#%@=@&$;;**###o#*=#+:*%=%:@##$#&&&-$$$$-@$$---$-$$$-$-*--*--*$+,$$*@****%o**$*@#**##*%#+*%*###%o**",
"#&%@&-&1,-&$&--,-$--$$*$@*$*@:-----******:**>*$*$;$#$$=#*$$$;**:**-**--:@$*****+#*#*#=%*#;$@@**;-$$$$@$#&>&%$;#*$***$+*=*-:$--*$-*$-+@,&:$**-;$***;@$$:&%*%%##$**$***$*$#=o***o;&=#$<%X=&%%&##&@-+$+-$---$-$-*$-$*--*-+$,-$$,+--$*#@%@$*@@*o*=*@o*%=+%;o%#*$##**",
"&&%&:&-#--$:+-:@*$-*-$----*-*-$$--*$*-*+*#*.**#*#*@;*#$****$-$-@$$#*$*$:*-**@*$=%#*oXX#%#o#*;*&*&-&$-$&$&o&####O***>@***$>**$-----*-+@&$$@$*$-*$%-$@$$$$&#%#&*#*;#&#@>=$#**o*#oo$=*$@$;<#=&*=$&#-*$,-&@,$-,&$$-$-$--$-@$---+$-$$@+$*oooo**#=**$*#***@+o:#%**o#==",
"@:O&&&#--&&-&:&--$--$*$-*-:$--,*-,-$#*#$*@*#**;@@$*@*$*#@$-$-*;******,$:$@$@$@*+%*o*%o**=#%**+*+$$$$$-&&%=%%%#%+#+#+-+=:$--$-*$**-&>$-O#$:$$$$@;#+#@$#@-<$*%***###&X#;$$%*o#%*****=$=X=;*&&###&$$$---$$----$-*-$**$O:$$--+$$$--,#*3+o**%*=#%#+=+o=%o*#%**#%##**=",
",&$$$$&+-7:$-$-$*$$$$$,O:*$,*-$@-$$$-&-&##;#**+$#;@o=%%*$$&*=*;$*-,*>$-$*=*$@;o**%#*@*=#@**%%<**=++#&**@*&+=##%*%:%*o#;**$*,-*$*-$$$O-**O@*$O*4+$$*@&*=&;&*%==&%+&+%;o$**=$$o*=###=$@*$*@**&&#&#-$,@$*---,$-&-$$*@--@-*-****;#*=#*&@*@**$#*%**$$=*%%*o*;#*$;*@*%",
"@$&:@--$$-$&$$$------+,-$-@$,-*@$-@*$O@$#**;*O$**$*%<+#*#$&#=*;+**--$**$#=o$*#@#%**%##**%=%**%*#$$$=&$*@#*#o*#+%o*o#**;**$*$:@*-$$$-*$*>$@OO@*-;$-&@#&%:$+#+#&&&&#+;@%:**$#**:=#$#*$@&@.*&**$%&=-+$+$*$-$-$&---$--$#*,O&*:**oo%:$#*o+%@%%*%#*X=$=**=o*%=%**%%*;*",
"&&$$&-4-,&&&$$,--$,$$$$$--**$$:*-4*$-,&*$@**;-@*#*@+2$#o$$*#:$$$-*->$**-***##***#$$%*o=o@o**@++#$$**#==#%&X#%%@%*o=$##**$$-*-@-**--*O**+@$&+*---$@+@#%;;@&&**##$@#&%o%o*#$**o**@$@*+=oX2:#=$#&**+--$$--$--$$+-$$****-##,=@*@o**:*#&$@*%%%$o**%$%=%#oo*$*%*#@***$",
"$&&$+&4$-$$$-O----$$-$--**@--*+@--$$$$*$***;-@*@*%*%**##&&$&##@$*@--*$---*#*$:$o*$##=**=o<@%#=#@&*#*#+=o$&%$%##%#*%o***%@***$@*$$-$:*$$$@#*-;$$@$#$@&&&#%#%&%&##*#*%**;**%$#**$$:$+$&+o2&*&####*-$-@$--+,@O,$--$*>--**--==$@X*oo#@&##o*%%*%*;#*=***%*o$@=%$*@**@",
"$-,@$$:---+----$$*-->O**@$$,$*$*-$$-$$$-*#*#;+*$$$*#*%#$**&*@#>*****#****$**$*@*=*=%*#**#o*=#<+o=$=*$#**$*%$#%+#*$***+*@*-***$-*$-$O$*$$-+$-;-$*&*$+$&#@++%%@=#&#+@o;***#*$*$$*#*+**$.o&#&*@&+&=&$-+-,-,-$,-,O--*--*-$$@+#**=o=<%**%%%*o**#%=::#**o*$@@*@$$*+::=",
"$&+$$&$&-,-----$--*-$@$$**@+-$@*$*$*$*@$$$:o$*#%%$%o*#**=o$$$#+&**O-*@**@-#:$@##*:*%%%%##o##%:#***@+@$*X%+*+&##o@##o+#*$--**$-;**@*+@-*:$$@*+*@;$$#$#%;*@&#=##*&*#*#*=%**o$*:*o**##$@++*<&%&*=&+$&&$-O$O-$--+-$$*--*$-*$:=$@o*%%%%#o%@o<#+#%#$*+*@:**$*@*@*;>;#*",
"&&>-$&@-$O-$*$-O*-*@*@-@-$**-$@*$-$$--+,=**:*o$;*%*##$$=#*=&&& &@+@-#*#:**#-$#%#**o##*%$%=**o&;%=***%$#*=%&o%++o*+*@*O*$$--$@>@*+$-$$*O+@@,+*$-@;@&$*&&;=#%%**%#*;o%o*=*+$*=o%**@$**=;#<%&&*+#**$+$+---$$$$--O-$*$*:$*O*@*#@%o*o##o*##==%;%$*3$#*;=%##**$$**;:**",
"&-&:$-$-@@$*-$-$-*-,$*$*$--$$*&@*$$-$$-&o$$$=$$=*%*o##*%%&&$+o###O**#-#+#**-#*=o#*2#**#@*=+#**$#%$&+*%%;@;=%%#@%@@*+**----*$-*@$@*-$+$+@*@-$*-*$#+&#$*#<#%&*&#&#+=o%%*%=*=@$*#o*$$@*;$&,#&&&&**#&-&&&@$-@$@$@$$O-O$$$$@@@$X@*%o%o*%**%*=o+#**=*o;#=*##:#****$***",
"$&$&&&:$+$--$@-$$$-$$$$$+$,$$$$$&&#*&$*o#;%=#+#o3=+%#o*#***o##ooo*#6@==$-$-@***@**-@*%=@*#+#*=$:&&&$@&&&&&%&X&%@@@&%=%&@+%$@$+#-@*#$*$%###oo#**$#*o##@**#;-$$$$*%<@&%&@;@$$*&*-&&&&#-$:$*#$##**#&$$@&$&@&:&&1--#2=#;$$@*-$+##%#o**#o*#**o*=***@#*****+=&#**=***;",
"&&$-$-:$$$&-$$**$---$--$:@O-$$$$@*;$***$*o=#@%#o==$#*$%*%#%**oo=%%%<:%=****$*+*$*$@@$%*#@$+$$;;*&&&%$%&+&&%&#%@%o%%@&%%%*o**=3@*#@*ooo**o#%*:+:$&##@*&*#+$$--*$7+#+*%%*#-$*-:&-#*&**$*-*$#*#o*$#$&&@%%&#&;%&-O&%$:o=*;$$;+##*%#%o=##%%=o*%o#*#$#**&###:&*#=;****",
"&$$-&:$&$$@--$$$$--$:+&&$$--:&$&&#=;$$$*=#$@**#%%@+%%#****$$%#@*X*o2@$;***$*@$*$#*-@$$*#=$***##@&&&%%%&+@&&@%@@+@@@@@@=@%*$*=;$$###o=$#%*o#o#%3;+$@%&*;3$$$&$*#,#=%*&@:#$$*-**&&&#:*$;*$$**#+&*#&&&$@;$%-<-$&&@@$>*#*$*;*#$#o#%=2%#**o*o%o=o==#%#*$+$%$o$*=*-*$@",
"$$&$-$&$+--$$$-+$---&@$-&$&&$$&+#$o=+**#=#&$=%@#*%o=%oo#o*$&%o#%%%==;-$*-**-@**+@*@*;+*$=$$**=*$&&$&$$#:&%@%#%%%%O%%&%%%#==>$#$$*$o#*##*%o%*#$%; #@:**>>#*$$$$-$&*#X%%&&@$-*#&@&=#;$**;,$*+=##$$&+>&&;&&%&&-@@%%$$$$;*$$*+;$#%%o%%%#o*o==*%#o=#**=%****$%**=***;",
"$$-&&-&$$-$$$-&$--$-&&@&$::-&$&$#*%=&&&$=*%$&&##*#*%$*=**%%#%o@@@X+#$*$;-@*$*-$$*-$@$**$**#@*;**&$$%&$&&@&%:$%@%&%@%@@&&#*#*$&*$**@$@$*%#o%*@%$$+*&;&=&@$*$;--*:+@#2#&$@$$-$@-##*#*$$**;@*$;&#$=&@&$&#%%**%@%@&%*$=;==@&$#*$++%o#%%%oo=%*%##*=&$###$*#o*$*$*--$$",
"$&&-$$$-----$-$$-,$--$:$,:&&$$$:%**%+**$$###*#@*%%#%##o%#%%#o*%o**;**;**$@@+@@@@****-:*@$#*$;*$%&&%@;&&%$&%%&@@%&%%<%%&&%*#*#$*$&=@@**#%*o%=%%+%+%&#&&&&&;:;**-+*$**&**$@$*---$&$;$#;$#$$@@@$@&$&$O#+&&++<##%#-&=$*$-$&=$*#*o*o*%**oo*%%o#%#*$$*##*$$*;*$**-$***",
"$#&$&$$$-$-$$-@$$$&-----&&&&&&&@&*&:&*%%;*&*#=#*#%%*%*;%*@=*%%o%o==-$>*-$$$#$**$*$,$$$@$#*#*=#*#$&%+&%@&&&++&&@%%<%%&%&<#+o>*#**$=&*%$##*o**%*+@%<#=@&#&*@&*-$+-$;$*#@+;$*$-&&++;$**$**$:;*$*#&$+$1#&$%&&&%##*&&-$@;**+#*##+%@$$o=%#o=oo=#%X*o%**$**+#$$@*-4-***",
"-$7&$-$$$,$$$$$$@,+---$-&&&&&&O&@&**+*#*#&&2$+$#%*:@##*#%+#%&#o*o**-*$$*#$@$#*$@$*-+-*$*o**$*==*%&@@%;&<%&++&&@@&+%%@@%&&#$;$=$$#$#o%%o2+%=o%%+=#*&;&+<:>>-;$$-O:*&:$@#$-$&-&*-*;$*;:;-:@**@=X*#+$&&@&$+%&#+:1&1*$*,$++*$*#*%%%+%%%*o%=o**#*$#=#$+*$&;:%**-:@$*-",
"@@&,--$*,-**&$$$--O---$$-@-$--O&&*&*#%+&&&&%#@@%#o*#%@**oo#*o@@<##2%***-**@-@@$+:$*++*#+@*@:$*@$&&$&&$&&&&&&@@O+%<%%%%%@%##*+$*$*+$+*$*;+&+#%@%**&*@&%%X;$:--@-**+*$$#&;-&&&&--@;$$--$$--$*$$$$$#%%#+#%@&=%%&-%&#*#*+##o#=%#%%o+#*#oo%%*oo=%%#&$*@*$--O+***@$*-*",
"-$:--$,$*$$$$-$-$$-&--$&--:&-&+$&;%**#&*#&&&&@#@*@%******#%**%%%o%<$$-*-*$-$*$$***;+*$*+o**#****1&&&+&$&&&&&@@@#&&%#&%@o%%*@*#=$$>###@%;*=#>**<%*&<@%*%&-@-:*$-**$&&$$#$-&+*::&&*$*$$$@>*$$$$+#@%@#o*%#&o%&*:#&$==$$&==&#*#%#*%=#%*%*ooo<o*o*;#$--@*$O@-*$***---",
"$:,--$---*-$$$-$@$------$&>&--@$#&&@*&&&#-&@&#&&%*o%%%$*##%#ooo%o:=$:@**$@-,$@*$$$#*:*$o#***=*;:&&$$@&&1%%;%@@##o==#o&*<#*@***=$;=;#==5@=+#$#%;**&**&&&:;-,O***$;$&$&&*#$->---$$;$-$:*$**-$:$-$-%*%@%%&#%%&%&:-&*+#$#*o;=$**#=+%o**#o=<oo*%%=%o*@@$*-*+*:$**-*,-",
"---$-$*-,,$,$$$-$&:O--$@$,&-&&@$&:$:=*&$%&%-&&&&%*o*o*;%%##*<*%%%*:%***-*$*@$@-@#$=$**=>,5#**$;*&#&&@&&$&&&&&&+$%&+%+%%%*%o%**;$#$#=#*=##&#&*@#$*%%=#=&@>->;:*$$**;$@*;=&#>&&&&-:$$$$*&&*+-$@+$$@#@@=##*#%@**@-&&+###$#&#$+*#*#%***oo=*#<**o&*&*@$**#+-$******-$",
"-@--$-,-$--$-O-$$$$&$-$-:>O&$$$$#%&;$$&%&&&&$-#%#*#%%#*%***+%+o%=#=#%*;;*-*$$*$*$;=*@**$:+$$****&&&&&&&%@&&@$@@&#%#%%%%*%@o=%<;$*$$=+=o$$$;;2&*=&#&@*;#&$$*@-@-*+$;-$#*+>*&$$$&-&---&&--+-**$$$+*=o*&##&&&-%&%&;**#@@##;#*+o&=+%o=o%<%%;oo@%=**$$*$*@:**@-*-$-**",
"--$-+$-*$$-$--O-&,$--&-&----:&$$%-%;#@&#&&&;&&@&$###*%#*@*%#%%##o*+#&=$*$$*+@*$*&:#;:$$$$-;;****&&&$:&$1%&%%&+:+*%&###&&*@@#%=$@***#$@@*%@@&&$;$@$@&&%+%->:$+$;$$$$$*&**&-@,-&$------&--*$+$O+**%***%+*&%$*&:&@**%@##%##*#*o&&*@o=*2=o##%o%%&#&$*$=$##*:**-*--**",
"-$$-$--,--O@-$$$@$$$-$@-@$&$:&$$@&&%&%;&$&&%#&%###%#***o@o$##o%oo%o%%=$**$-$@$$$*+***$###*@;@$*$&&&&&<&3&&%@$>-@#@#%%=o=o%@*%>*;-$#*o##**=;-*;*&&&;@##&&*@-$$@@$$**$$***$&---$$&$$&$$--@*$@$*O*$*@%=#%#*#%*-&&#&#@=o%o%=##%:$*=:2*%*%*=o%%%%%@%**#;$O$-:$,$*---*",
"-----$-*O-$,O$O$@>&&:$---,$$&$&&@&&*&*#&$%&:-#&#=*o*#%**o**$+*##%22<=$**$@$*@$@$=*#***$*$*;*;***&@@&$&3&&&%&-&&$@o&#%##%%#%%**$5#*$**o@*+&&+*&$$&&&***@&*>*$-$$;$#$@$$$*-$$$->,,&--&-#$&*$-$*$@*%*&=&&&%+&;&@$-:$$%#$$#%#%#*%&*+o2o%**#=%**o*&=$#+#*-,:*:*$-$-*$",
"OO$$$-,$----&$-$&&>&&$&@$@-&-$&&O,-$-&&&-$&&$@$-$-$$$-*$$4$-$++$$$-$$---*$$$+*$$$*:*>*-:*-,--**$-+$*$&----$&$-$@@&%%$&&&$$,--$-$*$****+@**$*$+$*$&$:$++#**&@;*;$$$$>$****&-$;$-&*$*$*-$$$$+@---*#+**%.=$$:%*$*;@$@;%$=**+#**%%&*;$$%$*o$%%*o*=***&$%;*;;;$***-$-",
"-$---$,------$-&>+:&$-@$+:$$O+-&,&-$-$$&$&:$$##&$--,&-**$$---O$$@-**----$-$$-$$O**;#***@--*-*$@$-$$$,&--$*$-&$$$+@#&@&$@--@---$-*#$*$@$*-@:$*#*$&&$$*@#$6:*:$&&&@$$>$$*&-*-$--*$$--$$$---+$**-@+%:&*@=$*@**=*$#=$*@+**#**%*X=%$=**$@*%**o#*:#$##;*+#+*;$--$-:+$$",
"$,-,$--$---$$---&>&@$&-&$&&$$>@+$-:&$$$&&&$@&O@$$&-&&-$$--$-+-,+,-*$**-+-,$-$$$$*;;=****--$-**-@-*$*--$-$*,--$@$&::&#@&@$$O&---O-*$@OO$O;$*@$#**@&**&$$;$$;+#$&*$*$***--*-$$-$$*#-**$--*-*$$@#***$>#>;===$=*$#$;$*+#**@*####:**+**@*$*$###*o**$*####;=@$@*$$-+>$",
"$$O--$,----$-$*&&&&,&&&&:$>:>&@::&&:&&--&@&&&%&#$$-$----$$$--O$+--$*-+O$$---$$$$#=;*****,$*@$-+*>$-$-------++*@-$%$&&@$$--$$@,,$***-$-++$:*$$**+$-$&-*$;--@@*&$$$$$;$*&&&$*:$-$@@&-#$$$-@$*@&#$&&***###**$*+;*$$@@$=#*#o#*:#=##+=%#**#o*o*#@**==#o*=&;*$---**$$:",
"$O,-$$$---$$$$,$&>$&&&$&:&:&$$-@&@$&-$--&>-+@&#@-@-$-O*$$--$--OO*-$*$$**-$$$-$$$$=;***-:$---**:$$-$-,--$$$+**+-$&&&&@$$+::$$$--$-#***O>**#*#**#*;*$-&&&$-;&--$$&*&&&&&;:$&&-*-&****#@$$@$-@-$O-*$*$$=*=$*#$&**#;@$*=%=$**$+%#=*;###**:*%*=##*$*%#&%=&=+;-->-@-*:",
"$$-$$--,,--$&$-->&+:-&+&-$-&&---&-&&$$&&>&&-&$&&&+&-$$$-$$$$O$-,$**@$$$*--*$$$$$**;**-*-$$-$:$*@-$*-&&$&-$*+*$$+$&&$-$-&$-$&--&-*-*#$$*$;##*****$;&$-$-$$--$>$$;*$*;$;&&&&->$#+**-*$;$-$*$$O--$*****$$$$#$;&;o#*$=;&$*#***=$*$$#**$$%*o%*%*=@*$o$+;+*=;>$*$$-+-$",
"$-$-$,,$-$-$--&-$:>$:-$&$$-$>&$>$$,-$&-&$&&-$--&-@--,$$-$-$$$-$$&-$-$--,-$$$-$$$+$;***#-*-$$:-*$>-@--+->&-@**$-$%&%&>@O:,$-:OO$@@***---**:$@*;*#$$&&@-&--$$@$$*$&*;$$;:*-&--#&---**$$-*@$@$@*+@$****##*$@$$*o*#**+=%#%o*$*$#=#*$*@$@=o**#*o*$$$$##%=**;*-#****O:",
"$$O,$---$,-$$-*-&&&$&&&&$@-&$$&-$-$&$$&+$+-&-$$-->&-$-$$$-O-$-$-#*--$$*$$-$$$--$$;*$-***,---$$*$*:$$,--&--*$$,-$$&&&&@-::$--,O-@*-***$+*#*=***#*&$$$*$----&#-&-2&$$;$;;-&&&##@---*+$$*$$-**$**--$=**$**;$%$+@#o**2o$*=#=**$$**=$$*$$=*o#*%***%*#*%&&**;:-@$*$O-*",
"-O$,-$+-,$-$+---,$-$-&$$-&$:&$->$$+,$-$:&$-+-&,$-@&--$$$$$-$----#$&-&#-#$$$--$-$,$-,-$-$$-$*$*-$&&&,&>&&-$--&1$&$&&&&&:&-$-$-&--4*****:$*@*#****$&&;&;&*$&%#-$*;#-$$$&&--$,@$$-&-$$$-*$$;*$&&*****$;-$$;$$*$@*#*%=%=*%***$$*$%*=*****@@*$#*+o*$$*$$#:-*-&$$&&O#-",
"$$+-,,$-$-,-$$-$&$&-$$@$$&$:$:-@-$-&$&--&$&$&$$,$>--&$>&-$$$O-,$*#>:##$+$$,,-$$+--,,$*-**$$-@$$$&,:&+&$-$&,&$O$$:&<&&&$1$@$--&--*$***-$$#*#@*$$*--$;&;>;#@&-#$%&-&$$$$:&&$$&$@$-.$----$-*@$;*$-$#**$-$$*$*#*$*@*%$=*#####%#*$#$+$$###*@$*&&**=##$&&-&----#&-*$&&",
"$--$---$-$$--,$$$:-&&-$O--&&-$$@+$-$&&&$$----+-$#&--$-$@$$$,,-$O#&*$-&+&@-$-----,--*$$*,$@$*$*$-@&&&&$@:&$-&&>&&$&1&&:&&---$-$-->*-****$$#$==*$*&:>::&$--##$$@-#@--$:&$-&&-$$&$--@-$**$$$*$*#&;;--$$*$--$$#$%$$$$$***$o**:o%**=o*;**@@#*##=#==*#+O####--@$&----&",
"$$+,$$$,---$,-+--:$$$-O$--$--$$$-&&$-$&,,$$,$$$$&$>$&&,#--$,O-$O,&-#-$>@,-$-,-$-$*$$***-@$$$--$$&$&&>&&-&$--&$&&$&&&&:&&&&---,-$***-*+***@#:$@$@;--&&-$:@$#$&+&-&&$$$$$:$$-@&--$,:$-$$$$$+$&$*--$;*$$$$-##*##*$;%:$*:%%=$%**%:%o*=#@$*$+$$*=&=o@*$:--@###&--$**@",
"-$-$-$$$$-$$,-*$+-$$$-$$:-$@@@+$$&&&&$,-$O$-$-&-$--$---&-$,$-,,,,+---,$*$--$,$$*$@$$:*$:*$**$:**$$:&&$$&$---$&&&$$&$&&:&-&---,-$*$@-@$@*@*$**+*#$&--&$$$$$&$#+@$$&@;@&-$-$,>$@$-$--$-+$**$**&$-$*@***@-@$$=#;##*=*++=$*#*@%=*#*#*@**$$@$&+***$@$$7$&$-,,$&$@&&$&",
"O$-$,--,-,$,---O$-$$$$+$$-&$-$@--&-&-$,--$$-O$$----$&--&-$$,$--O$---*>*$--$$$--**$,$$$$-@$$-$$-$3&:&$&$O$&>&&&&&$$&$&:&&$&---&$---$@@**$****##*#&----&#%#$&$$@%&-###&&$-O$---$$@--O$;-$$$$@;$$$&-*$$*-$-$$*$=##=#@*##*#***X#*o*@**#*$$@@*****$;**;;*-*:-**--&&$-",
"-@$-$,$,---$-$$-$--$&&@&:&&-&+$$&&&$$$$$,-,-$$$&$--,$--$-,,-$-$$-*-*-:$,-$,$$-$,*--$@$*+$-$-**-$&&&+@@@+@&@$&&&$$$>$&&&&-&-$&--,$-$:;****$$#***#&$--$&#-&$##+&%@:&$;@&&$$$,&#$&,$;->-@&&*$@&$:;-$*$*$$:$$*&+$$*=**$##*%**#**=o@$**$@##$*&$#**;;@,3$*&--@@-$&&&*&",
"$$-$,--$$---$$-$@&--$-@-@$-&&O&$&-&$,$,--$---$-$$O-&&,+,-$$-$$$$----*:$*$-$$-$*,$---*@$**-$*$*$$-&$$-&@$:$&,$&&&&&&&&:&&-$--$-$$*::**@*@$***#*$---&-&-$$;;O@%%#&&##&@@$$$&&&$@@4--$$$$$**$$$$&+&$$*@@-$$$;#$=*=*&**#@#$$*X**@**$=##$*o*#$#*$*$;*-$$>&+>&$*&#--&#",
"$$--O-$----$-,,-:>-&:+$$$&;$&&$&&&&#-&,:&:--&$+--,-O,--------$O--,--,-$---$$-O--O-$O-$$$$--$$$$$-O$-O$$@--,-----$$&&&&&&&$:-&$*****-$@*$$$$#;$*$$:;**$$*@@O+**$$%*#*o=*#&*=&$$$$#>+#$#$&;$@*:&$>*@**;#$**#$%***$$-*:&&&@%#%&%O&#*o##oo**$&$*$;*;$;$-@$@-$$*#*$**",
"$$@-,-$---$$O,$-&&##$$$#&$&@&#@+%&-$-&:&$@,$-$#$--$---$$--O-$-$$$--,---$$-----$$-$,-$$$-$$O-$-$-$,- $O+O-$-$$$,+&&&&:&$&-::--$--@:$$-$*$$$=&*&;$#$$;$@#--#$$$$$=@##*#*%=*==$$$$2*$*&&;$*&&*$&;$$*$@#*$=*+=%%;***;$$.$&&&&:-&##&$#==#**o#*@$@1&:--@---$$$,;$@-$&$",
"$$-O$-&,----@-$O$&-&&;$&&&&&@$%&%$-&-$:&&&,O-&$&-$----$,$,,$--O-$$--,&--$$-$$$,$$-$O--O-,$O-$$$$$$--$$O,$$$-----&&&$&&$:-&&::-@-@*-$***$#;$$$$$;;-;;@-$*#$*$**$&+*#*@*#%=$$#&*$;+;$+&;$@$$$&+&&**@+;$;$*=*$*****$*$+3#&##:&&-%&#***%#oo*&;$$>$;-@$-*+$-$*$$@--**",
"@-$@,-&O$@-$&$$-$-&+&$$$$&&;&%#&&&1&-:&>$$-$-$&-$--$-$$$$,-$-$-,--&$,---$$----$-$$--$$O,$$$$-$$-$O-$$O$,O$,$$-+-&@&&&$@@$---@*-$@-$-O$-O&;$**#$-*$;*$*$-$$+O=$%*#*#$%#o%=&$****.*#*&=@$$&$$$*=$&$$*$=:**$*#$*$=*:+**$@$$&+@&@#$#***o#*%%*$$>*:*@+-$;$$*$$*;$;-$@",
"-&----$$$$$-O4--;&$&%@+$&#&&;&$%##&&1-&&-,-----$-$-,-$$-,,$-$-$$-,-$$---$$$----$-----$--$O$$$O$$---$$$$O-$--$$$,:O>&&&@&$$-&&&@@*-@$*$O-**#$$$-*$*---$*$%*%o#%%#%;%$#o%#**@****>$$;#*$;*$$-&-*$$$$$$#*#@*$$@;=*+&#$*$$$%*#&*$&##*%o*o:*o*$>**$-;$-$$;**$:$$&;;;:",
"--&&$-$$$$++&,O-&&&@:&&&@$&&%&%%%:&&$1&--&---&$-$---+,-$-$-,-$$-$-$$-----$-@$---$---O--$,-$$O$$-,$$$$$$,$$---$,$>$&:$$$&&$-&&-$@$*--*$@*#;$;;-$$$$--**$***o##**%&*@$#@%@*o&%&;;=+$$#$;#$&$$$-*$-$******##:####**$*-$$$%&&%=*$$&&**=X2=:=-:$-$$-@$$>-;;*$:*-$-&$$",
"$-&-$-$$&$$$-O-$@&&@@%&&&&&&%&&-&--&$&&:----$$-$------$----$--$-$------$-$$-$$$-,--$$--$O----$-,O---O-$$$$--O,--$@&&&&&&&+&:$-$-$*--$$,$&**$-$-@-*-*-*$$##%o+%%#:=+##o%%#*;:$&;@$$*$$o;&$$$--*&*$*$$+==%**#*;*+*-$*$&#$%#&*#$@&$o%o%o**#+*$-*$$&>;--*@@*-*-$$**$",
"-&-&O&$-----$$$$:&@@&&%#&$&+;&$&-#&&-#&----**--$O-$----$---,--$-$$$$-$$,-$$-$$--,-$$----$O---$$,$$$$-OO$$-$-$-$$:&$$:$&$$$$-$$&@-$$-$$$$$*#$$-*$$;-**$$$*%X**o%o%&+%#%#**$+=*;X+#$$=&#*$-$$*-$$$*$*$#**$$;+**$==$:-.-$&%%#*#&@-#**%o*=#*+*--$$*,$-$$$-$@;$$$**$$",
"@$-$&&$-$-$-$-+&$$$&&%;$%&;&$&&&$-+-----,$--O$-$-$-$,--$---&$$---,$-,--$-$$$$$--,$-$$--$,$$O$-,-+$$&$-$:&*-$+&-$$&&$$@@&&&&@$$$&*-*-*+*#**$;$**;*:-$***$*%+#;*%*oo*o*=%%=$@-:**-;*$*&&=&$&$;$&$-*$$#$;$$##*#*$$*+**;$$*@-&:$$#$$o*oo*:=<=#*#*$-*#@;$$;$>$-#$$-%-",
"&$-$$$&-$$$-$&-$&&$&&&#%&&$$&;$& $$------*$--$-$O--$$,-$*,&&$-$$$$---$$--$-$-$$--O-------O$,$$$$$**$*$-$$$$*$,--:&&&$&$&&&&<&@$:$$*-@@@***$::*$-$*****#$;*+%*o%##%*%**%=#$$$@-*-=#*;@@*@$$$$-@-$$$$;***@*=*@+*:=+;**$**$:&$$@$-&*%o*=%o:**=$::$$$&@$&*$&#$$$;-#&",
"&&&--++$$$$$*+$-&&%%;&:&$$&&%&&:$$$$-$--$-----$-$----O$-*$$-$--$--$$,-+-$-$----,--$,$----$$$$--$$**-$:$-$$$*$-$O&&&$&&&&&&&&$&&&-*$@*$$-***+#;--:-*-**@$**$#oo*%o**%*<**$#**$-$-**:$=@;$O@$&;:@-*;$+@***$##***$$-@*$*$*-&&$$$--$%**o;o$$#=>=$;@*$$&&&&+$&-$$-;$@",
"$&--$-$@+--@+-&+<@#@%&#%&&&&&&&:$,-$--$-,$-$-+-$$,-----$---$,,$$$-$--$---$-$$-$,-$-O----O-O-$--,@--,>->-$-*$O@-$&&&O$&&&;&$@$%&&$$$$@**-$;+*@*,+--**$***%*$@=o#**%*:%ooo*$$*$-$*@:$$$&$.#*-*$;$-$@$*$;@$#*@$@$*#--$@$*-$$$&+>$-:%=*<=;**#;$$$$:@;1*&-&&--#&@&&$&",
"-$&&&&&@&&&$&&O-@%$#&&@%@&%%&%$$$$-$-$---$$--,$-$-,$-$-$$-$$--$$--$,,,$-$-------$-$---$$-$O$$O,,@$-@&$-O*$-+$>$+$&1:&%@$%$&%%&%%$*$*@$$$**$*+;*;-*-$#$*$*=*:=:@*#=*oo**#;$*****-:$$$$#&#&:*;*&*:****$#;$*@*@*$$;$$;@$**$$&&:-&$@=*#%o;o*$;$;-$*$-+#;@&@$&*&&&-&&",
"&&&-&&&-&&$&$@+-;&##<<;@&;@$$%&&$--+$$$--+$-$-$$$$--$----$,$$---,--,,$,--$$$-,----$-$$--,$$-,$,O*$$$-:$$$,O:$-*O&%&&&&@&&%&$&@%;$$**$+-$;*;$*;-*-$*@***#*$;@*%%$*#*o**####*$*;$$$-$;-$:$%*$$$;$*+**=$*@**##>#$-$$**+:**$$&&-$&$##*o:%o%#$**;$$$$$&$$$$$$**&$&&-&",
"$-$-&:$$:&&@-$$-&&&&&&+<%#%@%%@X+O-$$$,$--$O,$$-$$$--$$$---$-*$-,,$O$-------$--+-$-,$,O$,O$-,-----,>>-$---+-$*$O&&&$$$&&@%$&&%&&**@-@$#+*+;$;$$--*$@>*##o:$*#:$***%%###%##**$*$*:$&:$$@+:*&$;;$&**$*+***@#=**$@+$$$-;$-$$-&--$&$=***%*#%=#:@*$*$>-$-@&*&-O$$*--$",
"-$$@:&-&&$&@,$@:$<&<&%$&&&$@%&@@$--$$$---,-$-O-$O--$$$-$-$-$$-$,$$-$,$,--$$--,---$-$-$,$$$-$$-$,-*-O,--*-->+$*++:&&&$&&$@@%&=%%@O@*$#*-*$*$=;;-*-**@=$$*;@=@$$2**@**#%o#*==#*;*-@$$$*$@--%&&$;$$*++$*$#$$*$$$$+$*-*:$*;--$&&--$-;#o%$$#*##;$$@$$$$:&;:$$;$$&$@-$",
"-&&---&&$@$-----$-@$$@-@+&&#&%#+-$*$-$--#$$7;--$$-:&**$-$&&$----$O--,-----O----,O--$-,$-O-$,$,-$$---$>$-&-$--##+:+-&$&#O@@&@@==&&$&$$O@+$-,*$----*$&*#*&--*$$$>-:+$#$##+%**+$*@-*$*$+*$:*$**#$*$@##$#&@*##$*@=#>$--&&&-$&-$&$$$---O,$$+$--4+-$$-&$#;&--@---&$#-&",
"$&&--$$$--@,$-$$@$,-$++$O%$&@@%%--,-O$$,$$;:--@$&&-**&&--@&--$--,$$$$,-$-$--O--$---O$$OO,,,O-,O,--**-$$--&$&O>$+-$$+&#$@@%%&%%&O$$&-&-&-$@,$-$$--$O--#$@-*$*@,$@$*@#$#$$#*2*$$*-$*;***$=#***:#$$*=##$*#$%%*=*$**$&$$$$-,--&$,&&$+O$+-$-$-----+$$&*@-&&-+-@$-#-,*",
"&$&--&--$$@--@O$$,$$&@@$%%%%&%<@--O$$,-*$->++>$$-@&-$**$-$&&-,--$----$,$-$O$,---$-$--$-,, ,-,,$,-+,--O-$-$+::$-&$&:#&@&&&&==@%&=#-$--$-#$O*+-*$$*@$$:-&@*$*-----$+>$####%:=%=$***$**$:;**$**$=;=%*o*#%%$$;@==@**-$---$&-&$-&-&:$-$--*+,,,---$+-$-::-:-$--&,&@@@#",
"$&&$@-$--$$+$$@-$-$$+$+$&%%%%&@@$$$$$$$,&$&7-&$$-@--&$*$>&-&&&-&$-$---$-$,$-$---,,$O$O$,$O,-$$O,&@---,$$$&>+&+$$$&:$&@--&@&&@&&&-&@$-O-$-$+-$-$$*>$*-&&+#$$&-*-*;*+*$*@%@*&&#=*$**=*+*=;+#-*;$@$$*=$**:%*$=**$**----$$-$&$$$&+&$*---$-$,---+$-+$$&$----*--O&-#>-",
"$$--&-&--+--&,&$&->@-+$@%%@+&@+&$-@--*$--&---$$&@&*-,#*>@@-#-&--$O$$-,,$-$---$-$$-$,$-,$$$,$--,O-O-@@----$-:$$@-&&--@&&#@@#@#%&&&$$-$$$$-$#&$$-$&$@---+&-$-$*--$*$*+;+@@;=#=$$;*@*@-**@*#$**==*@&*o%#$+**@*****@-$-+-$---&$-&&-#-$-*,$-$$$$$$-+$&:;&:&----*$-#**",
"$$-----&-$-4-$$-@$$$-$@-&&#@&@@@$$$-OO-*$&-+$$&---*&>$**$:>>&--$$$-,-$----$-$$$-,O,O-$$-,$,$$-O--$-O4-$-*OO-+$@@$&%-&&$;#&@@+&#$+&&&&O>@+$&--$+,*@*-*&*@-*$&--&--$*$@*$%o**=#$#;**$#**$;$#$$+%$@*@**#*:%+*$#***$$$-$,$-$&$$&&$$-$-*$-&-&-$*---*+*;-$-&--#--#+$*#",
":$$$-$---$,-$$-&&&-@$+$+%<@&&&$&$$+$$$*&#&&$$&-&#-:-:&$*$*$:&>#O-,-O$,,---O$-,--$--O$,O-$,,O-O-$----,--O&@:@*-:&&;#&&&&;&:-#::@#$%&*#&+$&@$-$$-$*&-,-*-$*--*&+-&;$#*#$$@=%=*#=+=+****>o*:=$:#%%*+#@#+$#*$$=$****$--$$$--&-$-&$$--$**------$--+$*$@-;-:-&&&$$$$-*",
"&&$&,-$$---$--@O>,--$$@$<@%@<&@$&$&$$&*-#&*%&$-&-#*-:*$*-$---&-$,$-$----$,--$$-O,$-$$O,-$$--$,$O$-$--O$-##-$##@@&;%&#&;&#&%&&&:&&%&:-&-$-#,$*$-*-*----#&-$**@--&$*#*####*%=&#$+***;$*=$***@**#+#*#*#*%#+:;#*$:$@@-$$-@--&&&&#$&$$-$-,&$-$$$-$$-$&:$:-:-*&-*$@*$$",
"&:&&$-$&,-$$$$-->&&---$*@$--&&$#@-#&#:#&*&;$;$*&&#-#&-@*$$--&#++,-$-$,,-,-$-$-$-$$$O$$$$-$--$-O$--$,$,-$-$$,$:-*#&&&@#&&%&&&;;;O##&@*&&#$$,$-$*----$-$-*>*$&@>$-@#$*@-o+=$=*#$@#:+==@*;**#**#***#&$*==$+$:;***#;$-$$-$--$$$-$-@$$-$$-$--$,--$O-$&$$@$-#&-$--&@-&",
"--&--&,-$---,-$--:>&-,---$--&&&$##$$&;;:;>&;*$&%-#---@&O:--+$&@:-$$$-$-$$$--$-$,-$$$,---$$,$-$-,$---$--$$$-O,@O@-&@&#%#&&:&;&$@O&$%&@&+&$$-&-,$$*$-$$$-$&-&&---$;;*$+$@$$$;$+*$*#*$$$=*$#*@#=#*#%@#%$$**+#$**$*$-$--$*-$@$$--$$$-$---,--$$$$---$&-$-@#$:#-$@$$:,",
",-&&---$&--,$,-$--@$,$&,-$-@@&&O$-$$%&;--$ @%##&----@$$$+@-&*@&&--,---$$$-$-$----O,O,$$,-O,-$$,-O$---O--@$-$-O-$:&&$&&&&%>&;&@@&#:+%##&#,,-$---,*$--$---**-*&-****$$$*-@*=*#;**@#=*$+**#**X*%#$$*&$&*$*$==**$***$---@-$,$$-$$$@--------,$,$-$,---$-$@----$&$:##7",
"$:,$$-$--$-&-,--$-:$--&$&-&-&$@@&&&-*#;@$+-$&%&*#----$@&+-@@>$$$$$-O$-$-$O-$-$$$$$$-$--$-----$--O@---$$-$$@$$-*$&&&&&&%3;&&$;@@+%##*@+$:$-$-$--,*$,-$$-$-$$+*&-**-$;-$@$$*=*=+*=*$**#*#$*+##;%$*$#$*$$$,:=*;$$@$-*--*$-$,-$$$---$-$-**----$$$+*--&#-#--->&&-@&,#",
"$-,*--$$,$--$@$--@-->$-$&$--O-$$$$#+&%:*-#@#&&&#&*+*@$$-$&$&;*-O-O,--O----,$$-,-,$---$-----,$-$O$-$$--$O$--$&-+$1#&&&&&&&-&;&;+5>&-*&2:----*--O-,4,-$@-$>-**&*+$$$@-#$%o@=*$*$*+==*$*##**$$;$#%##$$%$*-$-#***@$$,---,$*-$--$--$$-$-*-,-*$-,---&&-$$&**>-++$$#--,",
"---@-&-@-&-$$O$--&>-$$+-$+$O-OO$;&&$&&%=+$-;@&##$&>O++-$$$$1>;$&,O,O-,-,-$$--$$,$-$--O-$O---$O---$$$,O-$--$O-*$O#&&@&$&$&:&&&&+;&$O$*:*:----,$-O$,---$+--+$&$$&*$*;***@>;***$#*##@**#$+##****$&*#@$*@*****@$**$*$$$--$**--$$$$--@-$$,,-**$*-*$-$&&-,+*&#$*$*:*-$",
"-&:$-$----O$$--,---$--&$&&&--$+@$@&&#&:&&:##@#-#-&$O--$$$&;:&;;-OO,---$$-$$---,O,,O$$,,--,OO--$O$$$$$$OO$&$$$&$$&#%&&;$&%$$&;-$$+X>-$;:#-$$$-+-$-+$O-,@&-$-&@$>-#=$#@;*$+*$==$;*=#$$$*#;*;*$&*#=###*$**@*$#-*$-*-$---**-$-$+@-**-$-$---*--$$&$&**$--$&&**-O*@*$-",
":--@:$$--@--,---&@--,-$$-&@$$@$@#$$:#**&&&&@#&&$-&#O$*$#$&$$#$##O$$-OO-$--O$,$$,-$$$,-O,--,$,OO$-$---O$$-$-$*&@--@#&&#&+&&;@&@$#@#-$&-2:--$&-$-$--$$--->&$$$#-@>=*;*$=@o>o+***+#;#***=#$$=%*=@%**%#*$-*7*$;-$;#*$$---$**--$$$,$*$$----$*---,$$-$--$-$&&$*&$$$,**",
"&----$*$&$#&@+#:#&-&:&$-$--$&#&+#%&:#*@$#;X:**#&%%o@:#&:*&*$=$+=@@&-+@>-,-$$,->-$$$->---*$;-*oo**#*#$**=+#+#*#**=o****#%*$*o*>@$X;#&@3#2*@$-&-*+-O*@*&$$*$$$$--$--$+,@&-&&@$-&$&,$-&&-$#$&$&&&&&&&&-&$&&-#$&&&-&@&-&&$:,--&4-,-$+-&$---@$$-$--$$---$-O-$,$$---$$",
"*$-$-$$*$&-&&#&--&->:&$#&$#&;&&#@#**>&*$$+#=+#*%&*&&#;<&;@*@+&%3,---$$-*-$$-$$,-,,+$@$**$--;*+%*&***%%$+@;*o:;o=*#=%%$*o*$$*$*$+&@*%=:%$-$*$*$$*-$**&**$-$-&#--*-$-O-&$--&&$--$$,-+$$+@$@$1&&&%&@@&%$&#1-$&-&$$$$@::$:-:,+,-,O@-@--:@,--$--O-$$--$-$-O-$---$-$--",
"-----+*$---$$$--&$$&$*$-@-$$#&$&%*#*+#&&=@%%#*+&***& &:@&*2$##$>$--$@&->$$$$$$,---$$---&,*-$*$:#+**=*$#@=*2**%**=***@**o**%**@%%@&%:$&:;-*$*$$$:#-#*$$&;@$*-$$:$-$&$$&$$-@,$----&-&&@$$$&;&--&&&@#&&>$-&@$7-$&&$$$$$$@--$,$$$-+&,--$:-:-$--$,$-$----$$---,---$-$",
"---$----&&-,&$---&-@:&+@$$&#$-&&%=#+$&$&*#%&*%+*#*%o*:%:*@&++@*$$$&@$*-&-$$$$&-$--@-$$***-;@@#@##&:*+*#*:=$*%@*=*@**#**o$*$*o$o%%@*&%$$****-*&-O--$#&:$@$$@*&->$,$&-,$&-#@&-$$-&&,:-$$$$&#-$&@%+&&&%--&+:$#$&-:&>$$,-$--+-,,$:&$--&:,-$-$O--$$--$$$O$$---O-OO$$$",
"-$$*$$$$&$&&&$$#$---$##$&&$:O&$&*o:3$*$**#$$#%&=*&#@*:&;;-#$$*&$$*$$-@-&@$$$@$$$$+$-***$@-$$###&:****&$#+%##o%#o;*%*$**#*;#o=###+%&;-%&--*@*-$;*,**$**$O&$$$:***-&$$@-$$-#-#--&$:$$$$-&&&&$#@$$$&#%:&*&3&$$-&$$$:&-,$,,#$7,-&:&--$-$---@----$,-$-$,+--$----$-$--",
"$&---$-$----@+&+@&@$-&-$;$-$&&-$**#+$$$$$=;*&&%***@&##&&&:$$$;$2+$$&-,->-$$,*$$-*$$*--**-$+-####*+$#*+*#;+#+**$*=#*#$$##*@*o%#####&&&$$$+$$$$$>:-*-$$@$$+-$$*:*--$@$$-$-$$$$&---&$$$$&$#@>&,:$@&##&--%&$--,-$:&&---$$&$-$$$,:7->-$@&$$-,$-$$$$$-$---$--$-@-$-$-$",
"--,---$-$-&$$#$&&--&$$:&*-;&--@$**=:*@#$=*;+;=#@#*+*&&;-#:;*$;-#$$*@+@-$$$+@-&-$*,*@$*--$*$$##+$#=%;#$>+#=#*###*$*%$**%%oo#**%*o#:&&#&$-+$-*$@*-*-$$-$*$:#$&-$**$&--$&@&&$&&&---$$$&$$$&$&&&$$4:<1&+-:$%-&--&>$$#@&&&--O@&$$&&:$+$*&---$-O$O--$---+$O--$$@-$$$-$",
"&$-$$$$--$-$&$-&&$&@$$-+&&&$$&$>******$####&*=&&#&@%:#-$-+*@+-*&$$$--@-$-$$--,*$:-@-:*O$+$*$$:%#*;==*$*&#:#+=***$=*%@$**$#*;%o==&*@$%@&#@$*$$*;@>$-+*+*+:$$:&$>$-$$&$$$-&@&:----#$$&$$$-$$&-$@4-&&%-;&@$-$:&$$@$-&--&&-#@$&&-,--,-$&--&-$-$,$--$$,-$--+$---+-$@-",
"-$,@--$--:&--&&&->&&&>&-$&&&$--,%;&-%--$*;>+&&%==+@*&%**$$-@&*$$$$--$$*$:&&&*-&>--+$@-@$&;$$&*&$$$;=$+*;@;*$$#**#@**@**@#*=#*@*%<%&<#%;&*$$;;$@-*$*$*$&&$-&---*#$$$$*-$$$,$$$$--#@&&-$--+:$&--$-$--&-&$-@:--$-$@&::-$-$#&$-,#,&&$$--$-$O-$--$---$-+$O-+$-$$$,+-$",
"$-$-$O&-&&&-&#&$$@:-&$-$--:&$&-&#%&#;&#-*&**&#&*%@#&+**&-$$:=>&*-@-+$*$**&-**@$--$$$$-+,$;**&*+#*;%*$$&=$;o;*#**@@o*#ooo**=$$o#*+*%%$#;:$*+;**$-*#$+=@&*+:$+--;+,,$$--+$&$-$-+-,+,---$$-,$$$$--4$O&$---$$&&&$&$:-&&$$--&--&---+4$$--$$$--$--$$,-O---$$$--@-$-O-$",
"$--&$&-$&->$-&&-&--:$$&+&&:$&&$O&***+$$*;*##+*@&&&#:$;:-*$*$#:&@-*@-*&*&**-&*&>$--$$>$&+=@=$$**#;=**##*#oo**o*@*=$@##*##%%*&$#*#X##&&#*#;:*;;$$=;*$$*+*>-&$&$--$*++$$+$$---$$&,+-:$&$$$-$-$-,$-$+-$$$$--&$-&-$$$-@$$$#$+$-$,#&-&-$$--$-$O,-$---$--O-$$$$$$----$$",
"&*$&$,-$#-&$$$&$-&&:&:-&$&&&&:>&$#*$$:@-&&&@=*%##+<**;$$$*$@$#$;@-@-&$$@+&**-$&-$-$$++>@$&$;&;X#+=$+&$#**o*****;*#$@o@%o%#%+**=*@;%*:$%&$$$*$;2@*&@$*$$;-:#@$;$$*$-$$+$$-$-$$$,$--&$$-----$$$--O$--&&-$O&$&-$&&#&$-&-$&:&-4&$->$--@--$$---,-$-$$-O$$--$---$$$$--",
"-$-$--$&$*--&@$-$$>-&&&$-#>$-$$$-$;#&;;*$%*&*&**&;&-&$@&:$+---*$-&$$#%&**-+##-#**-$*#&$&&;$$$$$-*#**&*$#$##*#***$#$%*o*o=%:&***$*&&*&%&*$*=;;$=$*$$$$>$+$-@-&-$--$*$*$**$*$,-$-$&$$$--$-&-$$,--$$$--,&$$$#$&$&-&$-&&$&&+--,&$&$:-$$@$$$$,---$,-,O,--$@-@$@$$-$$$",
"-$---,-$$&&-:$$&$$$-$&$---$#-$$$%-%;>&*$$*&&@%###$;=+&$&$$*@>---;-$#-$&@$$$+-&-***@>-&+$$***+*$+$*+=>++**$=@**$*$*::2o<=*@****;*%#*#&#+%#*;#&&+:*@*#$;$*:-$$;;$&*$$$+$*,,$$----$-$&$-&,$$-----$$-$-*--$@#-,O$&-&#$&$-$>$-&#:-:-$,$----O-$$$---$,,@+O$--$-$$$O--$",
"@-,@$-$-&-&$-&&&$&&$&-$-&$$-$$$--**:>$*&$&*#&$*%*&$=**$&-&---&*-$&$>;:*@+*-+-**-$&#$#-&:$*$$-@-$$*#.#*2=$*+#+*$$**:;=%#%&=$;<$;&@@$#@*&&&&#=&#$>@*$=;-$:$-$-$-@$-*$$*+$$----$$-$--&-----&--&$-$$*$-$-#&-&&:#-$,--+$&-&$@-:$-&7#@,$$$$$-$$$,-$$-$$-@----@$$$--$-$",
"---@-$$-+*$$&&$--$-$&$-------$$,*;&*;@:****#&#&$&&&#;@%+-;$------&;;-$%#-$@*$&&:+@*$@:#**:*$$**-;**&#*;;@$%*$*=$*#=$$o%%*:2$&+$@&*%;%#%;##=#&*&1+$-@>$*-+@$-$&-$*+*$$-$$----$$-$$$-&$---$@--$O-$,***&-&&-,---$$&$$&$-&$O$$$,$:O$@-$@$---$,-O-$$$----$-$----$$@--",
"@----&&&**$$$$@&$$,-$$-$-$-,-$$-$*&*-***$$&-$$$+-#-%-#%#-&1:-+-:$:-$&-&&-$$#-*&;&#&+*&%&*&*&$-$$*$$+:->+-*;*-*$;*@$$$$$+;@@&;1&&%;$%*#*$*%#*+##&+$###=*;$;:**$*--$$$---$-----$-$$$-,-*-,*$-**@**$*$,*+-$:$#@$:$-$&&&-&+>#&&$*&O;$-@$$$--@-$$-@$+-,$$$-$-$$-,@--&",
"---$$,&$@$--OO-$-O--$$---$$$-$$@&**&-***$&$;*$$*#&;&-&#-*%;-$-*$$$:$$$$$:-&O-&&&##&&*;*&%=#%$**$$#$#,:**-**;@-$$*$*$$$&=$>$;$&=&+*o%*%*=#%*=#**%$*@==+#;o***=*$;-$--$--$---$$$$-$-+$$--$#*--*&$-**---$$-&#,$$-$>$$$@--&&%%$$&$&--O--$--$-$---$-$---+$--$$--$&$-$",
"-@$--$$O---$&$-&-$--$$-,*$$-*$+--;&$:*&$$$--@#$$@%-@&$$-&&##$-*$@--&-&&-$$$$-$#+o*:*&*+**#;&$*-$#$**:$-*$@;@$--**$$-*@**3;+;-X:$**o*##*%#**%o#*%@$#$%*#=**=$**@*--$,*$$$$,-$$-,$$--$$-+-*-*@&*,+$-*-O$$-&$$$-$&$$&-&$-@#;&*&&*&:O$-$$-$$@--@@--$-$$$--@--$----$$",
"$--$$-$--&$&$$$*-,--$-,+$$$+&$$$$;%&&&-*&$$-@&$;#*&--&&&&#%-$$:$-@--:+$&&&$$$@&&*%*%&=##*$$&$$$$$$#;,****$**$*-@+**$$#@;&;&*@%&$*+%*o##@##%*&%*@***$**@#==*+:**;--$-$*$----+$$$$$-$$--**-+-$*-*-**+$-$$$&$@&-$@--:>$-$&#$$$&$*&$@@,$$-@-$-$$---$-@-O$$$$-$@$$O-&",
"$--$-O$@$,$-$$-@--$-$,,$$$-*-*$*$&*;;--$$$&*$@$@%#-&&###%&*-**---+&:*::&-;;@%&<#@%=&$&$*@::*;-;-$;*#**--*$$$**;$$$*$-$-@*+$$*$$@**%%%#*=$%=$=$*&#&*%&&$*$*-$,-$*,$+$$+--$--,-$$-+-$*-$$:$***$&*&-$-$-*-,$&&,-$,&&&-&-&--#@&$&#:$$$,--O-$$$$$-$-$-$$--$-O$-$$-$$$",
"$$&&@--$$--$&$$$$&--$---$-,**$$$&-&&$--$*>*-@:*$$&&-&%%#&;&-@&$$-$&$&+-&*$&%$;&@+&=%$$;$$;+*$*$-$$$*-@-*$;*+*@$@$$*;$*$*$&&*$-*&*%$+**%%#;%#%%**&#+#*&@$+:-:*$$*----***$---$+--$$-*$*---$O--*$#*--$$$,-$&&-&$,$-&#-&&$@$;&*%*&-&$--$O--$--$$$$$$-@-O$$-$-$$$&-&-",
"$$O&@$-,@---@$-$----$,-@$$$$*---;;&&$$;-$-$@#*$*%&&&&&--%#%@&$;---&*+@@-*$#%#*+*#&+&&@=*;$#;**$$**;$-@;$;*$$:$$$*-*$*$-:$$$#;$$$**##%%#o%#%*%#:%&*:==$#o*$*$--*-$$---$**-$--,--$---$$$--$>,$$$$*-&$$$&--@,-+$$&$@&:$&-$$*#=#*;#&$--$$,$--$$-$-$--$$-$----$-&$-$O",
"$@,$-,-$$&--$--$$&,-O$$--$,+$+$-&&&&-$-$:$;-$$;*-$&$&$$%--*-;$&-$&&&-&&$*;&%*%&#@$=&$&*&;$;*$=***$$:*$;-;$;@*#+*$;$$*-:-&*;;#*#,%*##*+#+%+*o+%*2#%+=*=#;$$$--***$--$$-$$$-$$-$--,$$$*-+--:$**&$*-$$$@,$$--@&:-$&--:&&-$$&%&**&&&--$$$,O-----$-$-$$$-$$--$$-$$-$$",
"&&+&$-$$-$----&$$-$$-$$-$--*$$@$@-$$-$--$$$-@--:#&##&&-&$#-;----&-$,$$--@$$&$-$@#=+*=*$$$>-*$****:---$+----@*$*O$*-$**$+*-**>$->#$##*#&*@&%=*&%%$-$@&&+-;$;-$$$&$--$$$-*$,$-*--$$$*--$$-:-*@**-$-$+-$-$-$&&-,-,$-&-#*&-&-$&$&$$&$-$-*--,$---$-$-$$$----,&$-$$-&$",
">$-@,$-$$$&-,--$-$$$-,$,-$$+:-@$+---$--O;:*-:$-;-$;#&##&&$#-$-&$$$--$-$-*$$&$$#@*+**%@;&*@--**+=$$*-$**$-@*@$$$:*$**$*$-$+*$-*-$2*;*$@%#*#%*+#*##$##;&O%**-$;-$@--$-$--$---$$$*$--$$---$$@:*+*--$---$&-&$$-$-&&-#&&@--$&&@&&&$#$-+-$+$-*---$-,---$,$O$--$$-$-&-$",
"$----&--&&$--@-,-,$--$--*--**$*$--*----$$---+----$$##&#&-&-;#---@$:@-;--$-$$&+&##%**:&*=*:$$*$*.$$$*$--$*$-$**@+**$-$$-$**-$*@#-X**#%***#@%#X@**#&;%#&@&*#**&*$$*$---$-$-@--**-*$$$---$$*@$$--*-$$&$-$$--,$--&-$-##-&&$&@$$>-*$$$@*@$$,$--+$-$-$$$-$-$,----$@&&:",
"$@--O-,$----@&$$$--$--$,--***$*@$-*,-$-$::@:>&&$&--$&$-@&$--$-$-$;$-$$$$;#$$%**@&$*==&&*$*:*$$$$$*$*$-$$-*@*@:@$-**-$-**$$*----$*@*#**#@$#%;+&%*%;&&+&$&$$;$$$@$-O-+$$@*-$-*$-$$$-$,$$$,$$;$**$*-O$$@&&$$+$-&-$+#&#-&&+$&--$&&$@-$*$O,+@-$,$$-$-$$$$-4--$,-$$@$$",
"@----,-$-@-$$-,$-@$---$-*$$-*--$*$---$$--------*$&$$#&#*&%*#$---&&:$$;&-*;*&#&#@$*2$@*-**+$-*#$$$--**$$-;**$*$*-:#&$--&>*$-$***#+#*$#**%%&@;&$&%$#@*##&#$&--$&-$$$$*-$--$@-$-$,*--$-*$$$$*;;:-*;$$$-$&$$---&-$&-&#&&-$@$$#$*$@-@O*$-$**-$O--$$$--$-7,$$,$$$-$&--",
"$-&--$--,-&&,&$-$-$,$-$-$$--*-$*$-*---$$*-&&$>$-;>--@@#$-&*;$-$-$:>+-&$-$*+$#*&%$$*$$$***$*O$#$+$$$-*@$*;-$$*$-$-#*&-&*&>-*$-:$,@;*@##*o&#%X*%%%$$*#&&#:-#-$$-&$$O$$$--$$---O-$--$-$--$$*$$$*$;$-+-+$+$,$$-&@--$&#&-$$$&&>$*$@$$$$*@@$$-$---$$----,--O4->>--$&-$",
"$:-&-$$@@$-$-$$&$-$$$,$-$-$-+$**$$:@-$$$$-&#**-*--&:&&$$#$%&-&;+&*$&$$$$&+*@&**&-$$,-*$$*$--;**+$**$--*--:*$$;-#**#$$$$#$*$**-*$**$*##o%%##*+*%*&&##$&$-@$-$$>&&O,,*$,$$-$$$-*-$$----$$:;$#@&-;$@$-$-&--&&&+--&,&-&&&-$-&+-&&$&$$-$+$$$$-$--$$--$$--,-----$&$$-$",
"&-&&--$------&&&-$-$-$,-$$$$-@-@$-*-&,$$$>#>*--*$;-$@&@&$%*-###*&**-@@$-@:&;&$>*;O>>>**--$**+$+*$$-*@$$*;$#$$;$@#***:*O**@---$**3#$@@o*@=#%#%%-##&%%%&:#&&-:&$$@$-$-$O$-$,$$$*$*$$$,$-$O**$$$>$;-*-,+-$$--&+&-&&#&&@&,#&&-&$&@&$$$--$$*$-$$$$$---$-------$$&$$--",
"&-&&&$&-$$$-,$$$$$,$,O--$----$$$--$-$$---+$,,$-+--$$O$+$*%;$;&@*---+----$$@&@#-&-@&*,-$$$$&+-#$-#=++*:*-$-@*#***#****X$**:$-$-$->*:$$---@@*O***@@$$*---$$$-+%o=++*o##&*#$*.*#&;$;$$;--$=&*$$$*-$$$;$$&&&&-&&&&:&&&&&&+1&&$#$%%&$$*;$$&&&&&&::&$&&-&-------@-$-@$",
":&->--->$---$$------$---,$$,$-$$-$$$----@$$,+,--$--O$$$-%#$+*&1;-$#@$-*&+$&-:$>&-$-@&#>#&-@-+&$@#*.2==*=-*$$*=;*+$******;;:*$*$-@3#>:**$+**>*O*-$:-*+&-@$$+$*%*+%&&&#*#;;+;@2*;$*$$--+##=*=$**;*-&;&@&&&&&&-&&&&&&%&&&&;&##$$&&%$#&&$$&&&$&@-&&&&>-&-$$,$-@--O-@",
"$>&@--$>--$-----,$---,++$$$O$$$--$----$$-$-,O--$-,$$$$$+*&%&*&&->&$#*-**$-&*;:$&-#*>-#-$&$$$$$$$%%#;%=$;*-##***##=;***o#-;*$-**--*-@$*-+:-*--#-$#--&-&-:#;-+*#%%&*%&#&&=#*#$>$$@@=*$@$+$*=*#*$;@$$&&@&@--&&$&&&:$&&1$$&&&$#&&$&&$$&&&&&&:$&++&,:$:------$-$$@-$$",
"&-&3@-@-$$---,-,$$-$-+,-$$O$-$$-$$--$$$-$@$4$--$---$-$$-%*&&**&&-&#&*$*:$;&3$--$&**@$-:>-#&$$$&#=:=%%==;;*-$$@#$*$**$#@>$,@-*$*-*:*#$$$$*:@-****--->@$+&-$$-%##*%<&%&&***$##++++>;##+*$#***#&$*$$@&$&&>@&&$&-$&:&&;&&@&$:+&&$$O#+--&:&:&&&&$&&&&$-$:---$----$-$@",
"--,&$$-@--,--------$$$$$OO$$-$-$$$---$-$$-$--$--$--@-$$-$&&&$-$--*$$#@@@-$->--$*&$-&$-+&-&-&O$$$o%%%o*%@:;;-*$*****$#:$*$-$;*--**-*$--$$-,@**-*#,@----&&#$*@&#*+#%*#&&&++=+++:&@*%$X@#=:#$=$*#$$--&:#&--&&&&&:;$$&$&+&<&&&#&&@&%#&&&&&$&$$&$$&&1*>--&-&---$$$-$$",
"&-$$&-$-,,--$,$-$$--$$$,$--$$---$-$-$$-$---O---$-$--,$$$&%$$#$:->$O**$**&$$-*;$-$$-&-&&&&-$$-@$$o%**;*#*@;$+$$**#****$*#*,:$*$*@*-**$$*$$**:-*:*--&#O-&-&-@&&&+*%*&&#$#**%*&##<#%o#*$#+=$$***$*-$&-&#&$&&->&:&&$+#&&&$+&$$%&%&&%$#&;1$&;&&$#:1&&@-&&:-$--$-$-$$-",
"&&*&@---,-O,$-,--$-$$-O$,-$$-,-$---$--$$-$$@--$--$$--@$$%&$#+--@$*$$*$-$&:-;$O$*-$@*-&&$$&-& %&#%X=%&*##****+@;**$***@=**$*-**,**$-*$*$---$*:,-*&@#--$&$&-+#**#%*=&=*##*$=%%@%o@%*o$*$**#*$$;;:$-&&;$$&&&-&&;#&#&&&&O:@&&%&&&&%::%:&:$@&&&&&:$&&$>$>---$--$--,--",
"-$*&*+>@$-$----$---$$$,$,$,-,$$$--$---,$$O$@----$-,-$$--*$@$$-$--@>$*-$$-$$$*$*+*,#>$$--&#@###@O#o*=#*#=$*:$$$;@$**#***+*-@$,-$-*:::**--*****@-*&-$:&--:#+&&%**&%&#@&#+#**#%%o@%o#*=$*;##$;***$$&@-&$$+&-&&&&:$&7&&&&:@3&&%&&&+$:&$&$+1&&&&&&&&$-$&-&--,$$---$$-",
"&$-@,@---$,---,-$-$-@$--@-O,--,---$--$-$$$$$-$-----$+$$$$-O$$-$&@@&&#*$;$**=$@-@*$*--$;*$&$+&$O#%o%*%%*%**$**$$$+$=$*;o;o*$;$*;;-$,-**--+-**$--*--&&#&$@-&@#&&;&$+%$*###@%#o%**o=#%%%*$**&&o**+*&$$&#%;$<&@&&&#&$&;&$-;:&O&$$&%$%&&:&&;%:&&$&&&&$-$--,$--$$--$-$",
"&-$&-$-@-$--$--$--$,$$,---$$$$--------$-O---O,---$$$-$-$$$@$$$$O&O*#$*#=*;$*$-$-$*;>*-$:&$#$O$##%**%=*%**:$#$=;@*****@+$:3$$**-*-$-$$$-$:**$*---#---:&-&+-%&&%&O===*##*=#%*$#*%%+%**%%**$#%*+;o*&#-$$#@$&$@$@;#&&&#$-&@-$&@$&&&#&#&&&&;&$1$$&&:&,$,-$--$-$-$--$$",
"$-&$--$*,--,--$-$-O$--$---$,$,-$,-$$----$,-$,*,--,--$$-+$-$$$@$+@$$&&&$*;*$*+@@$$+$;@;;$-$@$#%%$%o@+**%=>o=@*$**+@*#*$&**;+@****$O*4$-$,*-:*-----$#&&&$&#-$-#&%-#+#%%@*o*o#@%o*%%<:;;*&=&=+o#;+*&-&#%##*&&&&:&&&&&$#&&#&$&&@@:&&$&&%&&&&$&@$1$&&,$+--,-$-$---$@O",
"&$-*$$--$$4-$-----$-$$,--$$$$$,-$$--$--$-OO$$---$$O-$-$$$-$$O*#@$$$@$-;$;;$$;@**$;$-;;*&-@&$@%*%oX#%%**=**=$***$@*$*$$@#;;$;$:$+$,++-*$-*-**-**-$:&&$-$+&&&$$%$&#:***@$#**#@%%=o:$#+=*#$&&+*+*;2O&@&%&*&&&&$&$$&:-&$&&+:$+@$&&+:&@#&$$$$$&@$&&&&-$--$-----$$$,-O",
"--*$-@$$-$$4*--$------OO$$$,--$,$$-*$--$-$-$@-$O-,,-$+$+,&$$$+$$@*##&*:$,*$@*-$$$+@*#X*&-%#%@%&#%##%**$*$:$@=*$$**$**+$$*3*$*$=*@O,$,-$-$$@*-*-*&*-,$-$;--*&&&:#*#*+;$#*%#+#=*%++;+$$$$%#$=%*>=&&*%*##-@&$$$>$&&$$&$@&$&O$$&&4&#$$$&$&&@&$$&&&&&$$$,$---$-$$$-@$",
"-$$$---@$--,$,,---$$-O$$$$--$,-$---$$$*--$@$,$*$,$+$-$$-$&$$O$+,3@;*$*$2-**$$$*-$$&$#&&#*###+X+Xo%o%+;$**@$$=+**$#$*#>:*;;*$$$$2O---@-$$$-$:**:$>*#$$$->:%$$&&-$*$@#=%@#o%*$*%*%3$*=*+*:++&%==:2*;&&%#&%&&-#&&&&$&#$$@@$&&&&&&&&&&&&$%&&&3&&&&&$---$,---$$--@,$$",
",&@,-@&-$$$-$$---$$$-O$-,$,$-O----$,-,--*$-*---,$$$$$$$$&&$$+$$@*@@&%#$*;**$++@+#&#+&%%*@$@%o%@%oo***=$#;$@;#*$o=#*$**+:**$$$$$@,$$,$--$-$*--$--**&--&#+-&&$##$#***$;#$#;$=o=#*%=$$**%*2%@#+=X$&.%@%%@:*#$$,&&--#&-&@@&&&&&&:&+&&&$&&$%&$&&$&&&&$$$$,------$--$$",
"&-@+&&--$$----$$-$$--+-,$$-,$--$&&$-&$---*$@--O$$+,$-$+--,+$$$$@:+:;**$#>-*$*$$*=#%%#&&#&&%%&%%#%o%=$$$**$**=#*$**$$*$*-#*+=$$$$*@*-,$+$-@$*-:*-*$$-$-$&$&$&+;$&**#@***%@*$$*@#**o;**#;%##@*+%**:#*%%&&o$+$@&:&&O;$$$#$$&&#1&&+1$&&@&&&&&%%::$@&--$+--O$--$$$$O-",
"--+$-$$$$--$$$--+$$-&@@-O&------,-$,$--$--$$$$-$&@*$>&-,-:$$$+$&@@--&$,,-$$#$&&&*$%$**o%#o$#@*o%ooo==%*o*;*%=**;$*$--@@-*;#&$$#@*->-$$-$$-$-$-$$$*-@$$-$$-$$$$&$*$@@;@;*#$@##;*%*$#o$%:**%;*%==+=#&@*@#%###;&**O&$O%@+&$&$&&&$$&&&&&&$$&&&$$;&$$$$$,-@+-@-$$---$",
"$$+--$-$-$-$$$$&$$-$@$--&-$&@>+&-$$-$-$--++----$$@-&$-,-&-@&+$$$@@#-,7*-+$-$$$*+$%*o%%=2#*%o#o*o*o==o%;@2**$:@@*$$:**@*-$;$#=%&%*+-,*--O-&&-&*,:$*$$-$-$$$-O:,-$#$*#$**o*;oo#*$*#*%#*o=#$o*o*%2=%*&@#+@%&&=%%&@@&&O@&%%$$&&&&&#1&:>&&$$&--$@---&$$-$$,O$@-$---$$",
"$$-$--$-$---$--+O$$$-$$@&--->--:$--$$--$-O$$$$,-&&--&-&-:@&$$-$$#%->@$&*---#$$$$%##+%o*#%%#@*#ooo**o=o%o$;*$$*o**$*@;*O*$*#&*#o*$,,+*$@**&##--&$*,O$$-$$&&-+$&$$*$@$@**#%$*%#*#@o*#*%$%*##==***=@&%&%&&=&+*@@;+:&&+3@&%$&&&=&11&$&&&&$;&&$&-$$$-,$$---$@$$---$$-",
"$--$$-$$$-$&+$-$O--+$$$@$$--&:$-$--+-$----$,$-$-$&$---$--&O$$@O,;%,--7&+O-$#$;$$o#$%***#*#$#o%o<*o=#***#**;%*$**$$-@-$;O:;##&=*o@++>-*$@--$*--**$,--$-+-&*$$-&$-$**$o#*%#*o##%o#*;oo$o;#%**X##o=+#$**%X&&%%%&&:*@@;&$@&&%&$%$&@@&&&$$&&;$&&&-$-$$$$$,,$,$---$O$-",
"+-$---$O-$$-O-$$$-$--$$--$--@,$-@,--$$---$--$$-$@--&-&-->----&-,&;&$-@:--$-$$$+#$$#*####%o#*:=2o*%#%###**@*$#%***$;$*$$##;$*+=$#$>,-*$+,-*#---$*-$$*-$$$&&--@$$$***#$@*#o++*o%*o%**;#+*;#$**;$*$+&%&&@==##%+&%:*#&O@@&$%&%$1&&&&&:$+-$$&-&&$-$*-$$--,$,-$@$@-,$$",
"$$---O$$--$$$$$--$-$$-$$>-*-@:----$-+-$$$-+-,+$$&&-*&#---&&>&$--&@$$-:--&-$&*$+#***>***#*#=#=%**=**%%%##@#**@#%$**-@=**+**@**$*#-O-+$$*$$*--****--$+,-$--$-$$&&-**o**#***#*%##%#*#=o$#$=##*#$$+**=&**@*+%%%#**&&$&O$%@&&&&&&:&$$:&;&-&&$&&$$*$@-$--$$--$$$-$$O$$",
"$O----$$--$$$&$-$-$$$-->&-&*-----@---$----$-O--$,$&$$--&$$&@$-$-#$-#--:&$$>$$*$-:o=;%%o**##$%o#*#o*%*o*%%=$#=*;#**$$$;+>*;$**@$;>,&#*$$,&$#@*-$*--**---+$#-+$>$-%@*#*$##o%#%o##%%##=;#::#&;=#$-5*$&:*#&&$##:&%$&%&&$@$&%&$&&&&&&&$&$$&&*--$&*O@$-$$,---$$O-*@$$$",
"$$-$$-$$--$-$--$$-,$-,$@$$-*-O*$---$---$--$,-$$-@$$@-$$---$&&&-&+#&&:->$:&&$$7@$o*;%*o;*=%$o*$%#*%**%%o*#;**o**o;**$=*$+#$*$=+*@+*@-$*@$-$*>-**$-$$$$-$$>&$&&&-&*:#*#%%##%+%%#2%o%%##+=**&=;&;-@$*####%=&%&-&#;+&&@&$&&&:&$&&&#+&+1:-&&&-&$$$>>-$$-$-$-$---$$@$&",
"-$&+->$--&$$$,-$*$,$-$$--$&---$-**-$$-$$$-O,--$$-$&-$-$-$&-&-&@-&#-;---$,$>$*-$:*$:*$%*%##=%##=*o%o*%o##=$*@**$**#;$$>**;,$#**%;$$+*$#*;-$*$--$$$$-@-$--$++-:-#&*o****#%#*#%#%$$**o%&#6##=*$+$$:$&&=#o$%&&#X&#2+&&@$%%%%:$@$*$-$$&&@-$-*$-$$$---@@*--$-$$$-$@*$-",
"$@$-$@-$$-$$$,-$$$$-$-&$@----$$>--$-$--$-&$$$-$$&&-$$&-&$&&&&$-&&&;->$$&*>$$&@$O#+**+#$#*%*=o#****%*%#$#*$**$$###$**$*$$*+$**$#+$+*+$*-$$;$$-$-@-,$$+--+-$-$+:$-******o:***o#%=%o:*%>:*:+*+:@-***&=#;$%*#$##=:@*$%$&@@&&--***$**$&&$-#$$$-*@,$$@$*:***::*-$$$@-*",
"@$$$:,&$-&-$-,-$-*-$--O,$&-&-$->---$-$$$,---$$&$$--$$-$&&$---$$-&$-&-:&$+*:$*>$$*:=#=$*+@<***#*%o*%*##%o**#;**#*#**$*$;;*$=*+$$**@-+*@$&*-$$:>$@$$+*$-*-*-$$+-&$*#:o*#$@<o***%%*o*o=#***$2;$;-$-*$***=**&@%#=+#&$&&#$%$&$$**:*-*&--&&$-&-$$>-:-$$*$--$>&-$$-@#+$",
"$$-&-*--$-$$$$$-$--$*$$-$$-$-@**-------$O-$-$-$--$-$@$@--&&-&&&$&&:-&-:@$*--->#$=&***o$$o=%$o;+*%*oo###**#:*-***#$**$$***#>#+$;$$$*-@&&;$-$-*$$$-$$$$-$$-+$$--@$##***$#o=*o=#*=o==*;,$$#$#**$$**#==#$&+=&%*#%+*&&$$+&&1&$$$@:@-$&$-&>&$-$-$$@$--$+****-$-$$$$$$@",
"@+$*->-*$---$-->$-&$$---$&&---$---$$$$--@$$-$$-$&$-@+&-$&--&&-$$&--$>&-$,-$@;,;**$*$$*=#o$X*#%#*$%@**@,;:;-****;@***$***+$$+$$*#:$@*=$$#;*$$$:*;$--$$---$$-$$$$&=:@*$*$$*%$*=@*@**#**$:*:*$$$$-$*$$:$$#$#%@%%X&%&&#$&&+--$*$**$*-$$-$##$--$-*$*$@$---$$&&&&&@$#+",
"$#:&-***$-------$-&-$@$$--$>---$$--$&-$@-+$-$&$$&--$$-$-&#-&&@&$---$----@:$;$+*+*#**=+X$o$o%$#>%$$**@:;*#*;*$*@*#*#;**@*#$$#*+=*-+#;$$*=;*:$-$$$---$$-+--$*$$$&-::$*=@$#*o%**#ooo%+**===@*---*;-$*=$*#*$#%o%%*%%&&&&&&*--$$$*$$*-*-$-@$$-$-:*$***$$:&$:$$&&+$+$O",
"@&--@-*&$-$$-$--$-&$$@$$+->&&-@--$$$$$&@&$--&-&$-$--$&$$#--&-&-&$-$&$&-$$,;@*+4#*$#@=#$%*:#2#$#%o$*2*$**@;:*;:$@>$**+$*$@==$*%*$+@$*&&*;**;-;*@-+,--$$-@$-,+*$$-*=*@*$@@o%#%#o*%*=*2$;:>;$*$--**+;$$=$*=%#*@*#&%&$$&&-:-$*$$+*$*-*$*+&-&$-$$$$$-*$:-@-,&&>$$$$$O",
"@$-@**@*$--$$-$$&-+-$--$$>&&-----,$$-$&--$4-&$-&&$-$$&--&:&-&$$&---@$-$&:,;$*$+*#*+;**##*%*$#%;*=*$@**$$**-*#.#+@****+$$$*+;*#*$$$;$$&&$@-*$-*$-,$-$$-@$+$-@$$,$o#*$**=$**=**$o#o=*%*&*;*$;-*-$-;$***#&*#%o=*%**$$@@>&$*$*@$$$-*---&$$$+@*$**$-$*@$$&$$&&&$$&&O&",
"&&#&-@-&&&$;&$-&#--$-$$#----*$**+#,#,#$-@#$#**&&*=$#+**<=*;**$$$,--$-$-$,$$O4$,-:$:&-&,O-:$O@$@%:*&&$$$-$;*@+:$$##&#*&&+&%:#**@,*#;;$$&*$*-$*$*-$:$$$*;-$$&&@****#o=$*@%%$*$$**%+*-***-,*--@$**--:$;***-$*$+*$++$o$o2+$;#=**;*:$$$+@,*-$$-$-$$$$&-&>:-:$&&$#&#&@",
"@@#&@&%--;---@>$&&-@&#$@$@&*$$$#&--+*#$-&=*$$$&*$*$+*=*;$&*;$$$:-$---$$$---@$$$$$$,-&&,&&&$$$3@#:&&$&-#*#*&-*@*$%*;##%*+@#*$*$;$#$;$$$*-$*-$*$-$--$$*&@-&&;-$&*&o****$**$****%*+$$*-$$-@:-:$;;-$$*$*@*$-*$$@##*=o%%#2*#*+#*$$-+$-;*+,*$$$-$-$-$$$+$@$O@&+#$@$+##",
"%O#1%@%&@:@$::$&&-&#>#&$&-&*$@*-#>-*:+#$@&&&#+&*+$*&+&%#&***--&-,$-$-,@@,$$-$-+-+$-&-@-&-&-$--#&XO<&-;$&&$-@@$,@&*;#+*%&#=%=$*;+*$:*$+*&-*--*-$$$#&#=&&;*&*$;$#$>#*###$$*%*$*#$*$**--*$$,$*$--**$$#$****@@**###%=o%#o*%%**+:$*;$;**@-*-@$-$@--$$$*--&$:#&&##$@$$",
"%%%%%@$%*$$&-&-&$#>*$#-+$*&$$$$$*:***@*#@=*+;;*&&*#*#*&$**&;;;:&,$--$$$$@$$$O$,$$#O$$-:&&&$3&-#:%@%;$;+#@$$$@-$@&&&#&#=+*%***$*o$#$$#&--@;-*$**@-&+*&&&#$&$:&&****%***@o:=@%*#%o$$*$**-4-*$@@-$;-*@$$*-*@$*$%o@##=%=**+***%2****@***$**+---$$-$*-**&&+**#+&O&@@$",
"@+*%%+%%$&$$&+&&&:$&-&$$$**-*&**,-&$&$--$=#$;###$***$*##&&-&&$,&-&-$$-$$$-$$$&$@@&$$$&-$&$-&&#@$#@:=$%&-;$*#-*$;*#&#$%$$$=$+++*&@+@+:*$&$-$$$$$-&$--#&$***;&&$@$**$+*@**@#=*$;*2-*$-$@*-**+$*:*-$++$$-;*&$%%*o+@%*oo#*#*##$:*;***$:$**@:--$$-$$**&&#$$*#*%+@$+#&",
"@&=%%%&&:$&+&::&$&&#$$@@$$$-*&*--&$+-###&%$&;o&$*+&=*$&*----&>---$$$-$*$$,+-$&@*&$$$$,,&-#&&-#%>$&*-#$&&==$#$$*$&>&&$%&7;#*;#3@+X;**@$$;;$--@#:-$@&$$;$*$&&*****oo#*$$$#*#**$$#:*+*#:$>$$-$-*$$**+*@$;**$$&#o#%@**=%*@#*=**;@$*--$-*$$*-$-$+*-&$-#&#$$-*&%@*$+$#",
"@=%*%%<&#$#+;$$$*@$$--$@**-$*:-$&@---&$&&;#&=X**+%:&+*;***>->#:*----$-$$$-$$$+$*&$$$&&-&$&##$&&;@O#&#-@$;$$:$*;$$-*&$@&$#$%**=#*#%**$$*$$--$**$@$&-$***&*$;@#@**=#****$$*$@*@***@**-$-->*$>$;**;$*$**$-*##%##o#%%#*=%*$&*:%+>#***-$-$*$*$:*$**$$*&&#-**-=&@#@@&O",
"@O%*%%<%-@&&&&&&$&&$&@$$$*&****$>&&-#+#-#+##*&X%#+%*o=*;#$#-*$4$-$-$-$$-*$$*$+-$$&$&&:$-&$#&%%>&-&%*$-$&$*$$$-*$&+@*&:$$&$;*=;$+#&&*-;$$*$-*-$@;-$-$$$$&$$;$*%=+$@%#@$#***=%+**$O*:+*O->$*@*-O:**$>$**-$$$=o=*##***+%*=%**22=#$**--**--**$$*$*$$*&#&&#&-@&%*@@&+",
"@@%&@@&:@$&*&1&%&-##&$-&$--,$&-&@-@&$$,--+$O+%%&@$@O+&&$&-&&-:---$---$-,-@$$*#$$$&@:@1&-&&@&$-&:+$$$@;$$+$$&=*&$$&--:@-$*=&&:X=&%;&&#&*%&&;-*O*&&$&&&##$$$+<##*&=**=:;***$$*@***-****#$;$##**$**-@$**$#@$**$#$$+%#*$$#o*$->,-$$--*$$*$$**-$&$-&$$****==*+=*@%+@@",
"@@%%%%=@;&#%&%O$--:&$-@&$&@&-$--&&$--@-$$-&&%&&=@%;@>$&$$*-#,,-------$-*%##@#*&*&&#$%;&&:$&:$$:&;$--,***@*$$*=$@*$+-*$@;&%&&&&&&&&&*##*$&&$-$+&@@$&*$&@@=*+&#&&##o#$@**#**o*@*$%-@***-:$$*+$#$*$-**-**-$&$$;;@%*=&&$+&*#:-$$-$*+-,-*&-$*$$$-**$$$$*=$+#&#&@:+&%%",
"&:%#=+-%3;$&@;;*&&$$$@-&-$$-$-$&->&$*-@@#+-@+%$&+@O$-$+$&&---$---&#--*$+-&@##&$$&&$&&&&-&&@>$:>-*;-$$*$*#$#$*$*;@*$-$$&+%##@&&##@:&*##;;#-$$$;$-$*;$&;&#+*>*$&***;$++**+*@@$#%*$*@*$@O*+o*#**;;;$+****:-*$##&#+;$=*$$##**$-$*#-@--**$$-&**$*$*-+*$$;$#&$+*##%oo@",
"%%%+%%;&@&&&&*$*-&#@$&&&&&&&---&-,&-*-$*@@*+&#&*&+#+$:+$&&-@-+->$#,&***$&&&#%#&-&$&$&&&&&&-&&-&&+*$$@+@*+;:$***@-$:*$@@&$%&&%&#%&*&%<*#$**$$$$$$$-*$*#$;=*+&+**%$*$#*=+*@*@@*o*%****@$**%*%*$*@;$$****@;;$$+%o%*##=&#%%=$>-*-$:*$*-$*-&$$$$-*$$*=**+#+*&#*%%%%@%",
"+%%%%;;%$&@@%;&%&-&@#&--&&&-&$*&->$-$$**@#-$$##$##@*:$-$-$$&-$--$--&-##&&;#$&--@&&;&#@@$@&O#&$:$--*-*@*--*-,:$*$$,;*@@$#**&&@$&##*$-&#&#>*$**&$@&$$>$&$&$+$;*$*$*@##*+#%=#$@@$***$$-;+$*;*****$+-****$*$+**#*+*#$&#&$&$-::$-$*$$*-**-----@@*$**$**@*%=*$@%oo&%#+",
"%%@@%@%&@%$@&@O@#@--$&$@&&&--:-@-&$--$@-&#-*$$$$##&X@$-&-$$,&$,--:&&$#-$-&-#-$$$&&&#$@&&&#&#&@&-,:*$-****-$*-,**$-$3$*=*$$=%-&*:;$&;:&<*$$&-**$&&$--$*$X*-#&&$*$*$%**$$=$$*+=;$$*#**$@@-$$%$;o**$$-*#*$*=$$*$+*%=;#$&$--*&:$*@@>*-&&*---*$-$$-@@=#*+**#=@*=%%%o=",
"%&@&-1;@@@&%@*$*@$-&&&-$----&&-:$$&&*$$,$+-&$-$-%o%o$@$&$$--&+-&---$&&&-$;#;$*$$;&$&-&$#&&%&&-&&-+++-*$**-$--;$*-$$;#*$+=:&+$$#-+3&&;@&&*$&-$*@<&$$:$X&:@@$$$&+$o*@$**##=**+*;@****;*@@$*$$#*#:>*$:*******%*@*%+#;$>$----$-*$$-$$**-&-$O$$*$$*$$=##**$&%*##@@=#=",
"&&@%&&%&&$&%%$@%+-&$-&-$@$&-&#:&$-$-$$$+&#-++@@$%%%%$&@-@$,--,--&$-&&$--&$$#$$-#$&&&&&:&&&&%&$&:*$:----*-***--@*;-$#-$=*&**&#%#:;#$&*&*;&$$+-$$$*;;*$%&&--$$$*+>=$+**=$**#*=#=;@*:*@*+***@=%**:*$@--**#*$*%*$*@**$*:$---@$*$*@*$*&*#*$*@:$-$-$-*$*@*%@*=##*%%=+@",
"@%@%&%=&&#&%@&%#%##%&-@&@-&#;$-$$$:$$*-@#*$#%#**o@%o&&**&%$;$-$>*-:**$&$@&@#*&@&$*=*#$*$$&#*$+*#-$*$$-$***-$---$$-$,--$$---$$&--&;&*$$--&$*$&-:O-$$>$--@>&@-#>$$*o$$$##%$*&&*;&*@***+@*o$*$$*#$$+$*****-$&$-$&#;#*:&$;$:$-$-@@-$$--@*;;$*-**$**@**$#***;*#*##%%%",
"%@@&@=&%&#&&@&@;&&%%:#&&@-#&O&-+*;$$$$$@&:*&+o#=**&%%&&&&*;;-;;>$--**$---##-#$$@>*$$**;$&$+&#$*@$$-*--*-$*->--&,,-$$@-*-@$@$$$$&@#;@--$-$$-$-$&--*@&*$$$,+#&-,@:o#$#+=#%$*$&**;&#:$#$@#$$$*X=##%*$$*@$*@$*$$$;&+#&*+@$@$-*--*-$$$;$-*;$#$**$*******@&:++*+$%##%=",
"%@%%&:%&&#&%&&&&%#&:##@#-&$%3-++@;*-$$@@&#&%&;#%&*2&;@&*&&&$$@,:----&#-#&**+-*-+#&$$*$;****&**&*$@$**:*@*--->$,$--$,$-*$-$$&+-#$*-&$>$$-$**$-$+$$$&-&$$&$+&-+-+>+$*#*#*=:*=$**$=:;**$$;@>$*$=**#+**:*-*-*$*$$*$$=&*%**-*$*-$-$$-;**@@$*$;*$@-$$$$**@+#;+##%o=o&#",
"+@%%&%&%&@&&%%@&%&%-&-@#;-:@&-$-$;:;$$$*&=%*#*%%**=&*;&@&%&&*O*>$+$$#***##-&*##$=&&;$$X;;#&&*%*;*$$-*-*$$*-$->$-$--$$*--$&$&&$#+#**$:$$--$&;;&&$->+$$&$$4&&&&#+&#*%%+#=#:=*&$==$$;###@@**#=:o%:*$$--**:@*$$-@$@#&&&&$$$-$*--$$-$$>-@*-@*;*$-*@***$$*#o*=+$#+*o$%",
"&%&&1@%%&%&&%&<&&&-&-##$$-$-;>&$3$$-$*$&*#&&**#*&%:%*#$&+$#*&$:*+$$$-$$$*-&$&**-;##&*$#**&;#@$$*$$*$+*-*-$*$-$:*-$--$*--#-$-$$@:**&&*$;$$$;$$---$--@&--,,@@*@>-&**=+;=*$;-***-@$$**@*$*%+$$o*@**$-**$*$$$;*-@#@#$#*-$$#;-$*$$$*-*--@$**;-$$**#*#$=#*+=@+#$*o%:##",
"&@=&=;&%%-+%%@%&:@&-&&-&;;-&#-#$*$$--$**#*&&###**&*#&*$&=+$*$*+-$@$;$;**&*#-*&#-=**#$&;*$*$*$#=#*$$@*;:--:-$-$$*$----*-$&#&$#$-$*&&**&$:--$*&-;+$*$>---$#-&@*$$$*@$##:$$#-@;;**;;**#$@@@@;%##****#*@+*-$$$$@$***@&>$$$$&@;;-**@----@*=$$*@$**$**#*$#$*@#=o<##*%%",
"@%&&$&$$&#@%&$&@%%<&@&&@-1&;&7@&*>--=@*&*##*#+##*<&%%%$&+@$;*;$@$;$*;$$$&-*$&-#&#*#*******$&$#$=;+*$$-*$+*+**:*+$$,$$----$--$--&&$&**$$$-$&&---:$$&-$-&-&$$->&&&$$*+*;**@*@-**$-***;*$$@;;**%**#O@*-**--;*$*;*$@+@>-&$-$*$-*$$@$***-+$++##*:$***+*#$*+*o#o$o%%o#",
"@&&&&&%&@%&<&&%&&#&&-&&&$&&;&&>$*+$;&*&@#=&####$%&%%#%%###$.-*$+**@$;-$$#>**-###*$#*$*$;;;$$$=**;*$$#$-,$$$**-:+-$--$$-$&@@&$+$-*+;&;$-$-**$$$$$*$-$-$--$&&&&-$-$$*=*o%&+$* ,-$@*****@***$*#$$o*$*-*---$$*;***@;#>-$$$$$;*-*$*$**--$+*X$#:**$**+$#**$#%%o*;*%@%%",
"O=%%&&%@&&%&##%%#%%#%$&&&;&$$$$;+$$-;$@;##=##*#$*#*@%***+:%:*%**$**+**-$$>*$;$#&$$&#&;&*@*$=$**$$##;@**=$*$**=#*---$$$--O$$$&$@$;;;$-&&+&--$;--&---&-&&&-+>@**@@&$&&*+&&##$**#$&;**%$%;**#*#*%X*$$#*;$$:$--@@$$*@>@@$-$$-*&-$$*$**$#=*+#****%==**#$+$%*++%o#oo<=",
"<=@%&&&;&&&&&%%#%%%%&&$#;$&1&&#@-$**$$@$*%&*###+#:$*;%o*+##@#*****&+=$*$-$$*$$##&**&****$#*$*$;=*$$#%*;@***$$$#+$-,--$$$-$$-$&+#& -&&$-;-&&$--$;$-*--&*&--;$$&-:-%####&@@-#+$;;$;****o##*#***#%*;$**#**:$$*$*;$$#:$;$-+$*$-$$-$$O@#+5*o$=*##**$$.=**$#**%##%2*%#",
"O1%%%&&&%%%%#@#&#&#$##&&$$$:&&$&****;*$++*o##=*%$o$@*#$;+%%*$**o#$;*$=*@$>$*;#*=$;###*@*#$$*$$*$=*@*#:$**$=$#$*=----$-$&-@$$$$+$@&--&--&;-&-:-&--#:>-&$@$$--$--;$&#$*#o:@$&*$*$$*%*$*=*$$*;*%#o%**###*$*$$$$@$@$&$=;;$$7***&*$**-:@$*o#*#:*$%*+#@*@*&+*#*#*o2+*o",
":%%%&&%&&&&@&&3&%#&&#&##&$$+&&$$$-$;@$+;=*%@@&%#$%=%*@%@%:$%#%=**$$;*=$$*$*&@*+$*<$;@$*$#$*$=$#=+#**@*$;+*#@**##-$,&,$$$-$$-++$+#<$#$$&-$-&$&&$:&#-$--$-*:$-*-$$*$+*%&+#$#&*#*$**o*#*++*$$*;o*#*$$$+***$$$**-*$*=&&>$*:***$*$*+*$-O+##o$#**%$#@=$@*#%o=;o#%#@2*=",
"$@&$&&$&%@#%%$;:-%#%$;$#&$$$$@$$*$$-$+##%%%*+*%o@@%**o*o*%*#o*o***@*-$-@$$-$@+&##@$@&;&&$$$$*$*+##$*#*o$**$===**---$-$$$-$$$$+@$*%#&#$$$@&---$$&#&&-*-*-;;$*--&$&&&$*+@%+&#*+***o*%**$@*@#***+*$=$$#==$:*--$@$$;*=*$:$;-$*$*+$$+o*%$=@o#*%$**#%#+*#*&&#&@#*$6***",
"@&&@%&<&O$$#&+&&$&&$%-1&&:@$--$@#&&;##+&***#=@*#@o+=$+*#*$*@%$*$$***$;$@-&$$#####*&$**&**$#@$**#*+$=@*%*&#$#$#**$$$-$--$-$$O$$+$%#*@##$&$>-*$&-,#-$@$--#$-;*+$$$$&$@$=#*##&%+&#%#%**o#**$**;;%*==$%***;#;$$-$-$$@;$;;*$$$+@OO*@*&3$#**:=$;%*%<=*@&*+*$;$$-&@**=#",
"&$$$@&&&&%%&&&7%$$&#1&>1-&:7>$&$><*2%*&*=*#%#$**o*=$o@**%**%%#$:#$+;$$$$$-;-*+@@&#&#&&$$#&*$$#=$*$$***#*%=$$$;*$----$$$-$$$-+$&$##%&--$&-:@$**-&--:+4#-$$-*:$;:*$#@##*=&##$*@*&#o*o**$%*##@@++*@$#+$+=+#$-$>$$$@$$*:-;*-*-$O--+*=**o:*%X**%**=*$$%#*+$$;##:@***$",
"&$&@&&%@@&&&&&&&&:&;-$&&$-$&::,7&&&:*%##*%2o=;*o$=*6*;;o*o**o**o$$$*;;$;$$*&&+%@*#+$$$$$@o+*+*=$*#$$$*;**$#*@*#*-$$-$-$$$-O$&--$**$%:-$&&$--$$->>&&&**$$&$$*+;;**&$+##=*=+#&%#%@#o%=#:#$#***+$****=**@=;$+-@@*$*#$*;;$@;$$+@-*$$**o*#=o*=#&****+#*%*#&#$*;&&$$;&",
"&$&&$&@::&$$$-$&,$,-$$,$-$,,----#*>$$$*:$$$--&$$&>&&X#O+&&&&&+%&###*##:&;&@*$&#+#&:#*##=#@&&%&#%$+@@&-$&&&&#$$+>--&*$**+*$@$;$$$&#***&#=*#&=***@$$$--$*-:$-$$***=*+#%**=#$#&%+==#*#=:**%#$*$*#&+%#**##**$=$$$;*;$-*$****o**%*#%@@**%o*%*>+***$+***;*%#+##&#*&&##",
"&&-&&:&7&$$&---$$--OO--$$-&$+-&,*>-$:*$$$+,+$4&-,O&&#:%-&&@$#&&##=#**#++:X*$+#=$$&%:***##%@%+#%%-$$:----&O$-&-&&*#---**$**$&@@$@%+@&*%#:&&:&**-**:--$-$*$--$*$@$#&&*#=::#####@=#%*%o:=%*%*#**@%*&%&#+**$#$;***$@***,$*-*=*%=***#$$@**2#=o*;$=;$$*$$@*+@##+#;&&%&",
"$&$&&&&&@-$-$:,@,--$$$$$$,-+,-$,$>*-@$$$-$$-,,$&+>$:7&#$<%&#+@&&*#%&#&+%<#;*$$#&#*=+&**#@@&=*#**&$$+&&$:$-$$@&-&&-&---$$$*#+$@*$%$**&&&&$**$:*:$-#-+*$$>$$*-$$$$*#++**%;=o**$+=%o*%#@#%*+#*;#$*o*#*##*$$**;$$++#$-*$-**#$$%=X=%#$*#%$%;oo*%*$#*+$##$*#*;&%:&$&&;",
"$&&$$;$--$$&,&-$$*-,O-$-&$---,--$$;@@+$&$--4O&$&-:&$#@--@&##&**#$&#&#*&<&#:$+#%#+#*;&&&&&@*=**#%#$$$$-&,----&$--$*&-#&*@$*##@$*$%&**&*&**&*-2$;$&***:$$-O----$@@*#$$$&:*##*#$*%+%%###%o$@*%;&*$#:#*#%&*$*#@*$o*$*$$*$*$**;**#*#*@$*#**o%=%**==+*****&+&&@=&*&*$&",
"$$:$&--&-&:,&-::$$*,---$-$--$$-,*#*-$$---+&+*4$$$$-31:-$;$&%%#&%&+*##&o@#X&=*##&#$$=$*&&&+&o&#&###:$&&>@>$$-$$--&:--*$$-$$#$$-&&%%*&%&&&$>;*&:-:---@$&>@$-,*$$$@#;+$$;&*=*$$@&*%*o%*$#*%$@*$#***&#+*&%&&$**##*#**@*$**--**@$*o@=#@*#%;o*o***;o;o$$$:&#$+&#-&*$$$",
"&&&$&&&&&-:&-$-$*--$----*$$,,O$-O#-#&-73+,$$--$$:&$-&&-$-#&&#%%&&**%==%*%%&%$&#@&**$=&$@X#*%#&&*$-$$:$&@--&-@-$&$-*-$$>$$$$*@$&&#@*%&*#@*$@*$$$&#&--*$$--$@@$$+$;*==$*$$*$**@#=*%*oo#%$**%=#%%*@*#*#**&>###**;$******+***+**o%#*%%*#%&*o**%**$:$;#$*&&#*:%;*;&@>",
":$$@&:&:$--&#$-@$$*$-$-$$$-@-*,,:&**&*+$+9,O,-$-&&,-&$&&-&%####-&#$*%&#&*@%%#&+%&&=$+*X*+%&;:@:*&$&$---+$&&-+--&##&-$;*;$*$$@$$-&&&=**&=$;$$-7@-&#*->$$-*-,O@$O$;=#;*;$#$@$@&%&+o%%##*##$**#**#%%$#%&@;:&*&#$*$:*-*@@;$#$**.**%#*%#%$@**%*o*+@$*@&#+%+=$&$$-@$$:",
"$$&$&&:&$$&-@$$&-,$$--$@$--$--*$-*$-*$$#,,-,$$-,&-&$&$$$&$#%@&&&&==#&=%*###*&**=%&*=++%#*;%$;%;&$&#$&-$-$-@-$$-,&*-*$$-$$$##$*&-%@&&&=%=$*-$-:&;$&>$$-$---,$$@**$$$$#**@$*$&++#=*o<o*$#%;%**@$#$*##:$*&@$#+$*##3+*$@*=+*$#@$;#%#=+*$*=*%*#*%**#*;*#*&=*&>$*$*@&*",
"#&&-&#&&-&$&$--$$-,$$$$,----$$-,-$&*+$,$$-,&$$$$&&-&*$&$-#$@@%$$*&*#@+=&o##%$#$*##*o+#+***@<*&;;-$&&-&#>--O$-$----&-$-##$$$-@-@#*&:&%&&*#%&$*@-$**-*-,-:-,**@*-$**$**&$**::#@#%%%o%#oo=#=#****###%**%**=;+#;*#*;**$**$*$%#*@*o*#*@$%%$o##*##@**#+#@&*$&$$&&@&;*$",
"&$&$-%&@$$$$&$&$*,,O**$-$$$-,$++&-$>-&,,$$,$$-$O-&--*--&&$$@$%:&*:*&@*%#**%#*+***&#=<<&**&%&$#-*&-&&&O-&*-+$--&-*----*-O-,--$@@#%#&##@&-&*$%-$$-$***$*OO$$O$O-@$;$=&X@*$&&@<@%%@*%%***%*:o##*%##%&=#%*&$$>>&*=;:$$@$-***o+*$*=%**%22:$***$=*$***##;:@;*@&$:&*&@@",
"-&&%&&O&$$-&:,@---&-@,--*----$-$*$$--$+$,,,$--*-@@&&*&&&-$$O+&$-&**#%*#*##**$$#$@%@o&&&&*@&:#&;$$$$;&%-$-++$-$,$$#-$&&:*-$$$$$@-:&*#@$+&&&*&$:$-$$*@*+:-$*$O*$$$&&*+=*;&&;*&%@@*%=*oo*##*o:#%$%%#*$*&*&=+*$*$=$;$*$-*:++%*$#%*%#@@$&o@*+*$%***#**#$&$&$-&#&-$&-@",
"O-&%&&&@+$--&$-@$,*---O**$*-:*-O>*$$*$+-$-,$--$-&--#$>@&&-$$&%;*$*%=$&#$*%*$=o===%+:=&**#$#*&$>$$$1>:$--+$-$$-$-#,$-*->-$O*$@$&-#;+&*&$#3$$;-$-;$O**+-*O$$@$$$$-*$;@;@&&%*###@@&ooo*%**#=%@o##******#&=#=$*$$*=X****$*O+###*%$$$*@+;;*;$o*$**+2:&*&&&&:*&&&$$$&+",
"######%#$+&-$-$-@&,-$$$**-$-:***-$**$$,-,$-$$-$---&:--&&;@*@*<X:&**$#o*%##**+#*##+++*$*&@&*$*:;$@$,++&&:$-$$$-$--*-$***>$-$$-$$$##-&@<8-;#---$$:*$**+:-$@-@@$$@-*&*&&:#-$;O&@&=#o*o%**%#=o$$$**%#$$=*#**$$#***=$*$$$*>*$*#$%+#&&*&;$*%$$;@*o*;o*&&&&&&$@#$&--&#+",
"-#&&-#&@$@,&,$$-&---&$O,$--$:-*--$$,---O-,$--$$,---$&-:&$$#@*7>&#2##%=**#%##*$#=+&*1=#**&$+;*&$*#&&&;:;>,,$*-$$$-*$--&$@--*$$O$$&&$#*;3#-*$:$#$-O*$*$$*@*:@-**$-&#@#$+@&$#@%>$@@%=o%%*#*:+*$%*$#**&*##*&*$:$$**$$;$$*:++%#%$**&*$*%;$*#oo$**$#=o*&;*#-&-&&-$$&&>",
"&&%&&&&+,$-$O-$@-$&-$-$-$-*--**$$$--$----*-O-$,$>--#$-&-*$-&;>&$$#$#*o%**o#%%##%*#;=$&&&**=:&*=*->+-,>$:+O,,,,-4-,$-*$$-+$$--$$$%%&&51;#-#$$$$+$***$**--**O:*:*-:&&&+@&&&$$-$-$+o%**%*o=**$#*o#$#*#=###*@:>++;$$**$==@+$+o$*%&%o%#o;$+%&>*$=@#**#&&&$-$$&$--#-&$",
"#@%&&%3&@------$$O,$-OO------*:-$*$-,$*O--$$-$-,$-&>$+-$$*&$#$@3*****%#o***##*%##=&+@+#**&$;**$=#>:$&O&7,+$O-$,-$$$-@--$$---@$+-&3&*$:@5O$-$$++$@@@**$*$$*,*$$*$*$$@@&&&-#&-#*@&*o%oo<*%**#$#%#*&&$*$;$=*X$$+=***$*$+$:,%=%#%*&=*#**o*=$:@;:***#$&&%#-&&$#&&-&-;",
"#&&&$&@%;&$*$&@&*==;;*#$;$;$:-:---$$$-&--$O,-$$$>--+-,$$&,:--$-$$:&+&&$*&&#X%#%*$*$+-$$$$$$$,-$$---#-,,$$,$,$$$$$-----$-$-,--$@-*$-:$-O:+;;=&###-*****#-*@##@:*-$$$+&#+%#*&@&-$*=*#@&-@@&o%&2@%&=&***#=**$,-*$$@2**#$**%*%%%%%*+X*@&#$*$$&$2*$$&$&-%&;$$-#&@$&&#",
"&&-&#$##%%&&$%--+#=;;#:;*=**-;*$**-@@&-O-$,-,$---&&+-@-$$--$-,,$:$*@-$&$@@*#:o*oOO@4$$*O-$$,---$--&-,,O$&&-O$--$--$--$,O-$+-$$O$:;-*->,+;*@$&*#=*##$$**$**#,O-*-@*$$*@*#*&=;&+#@&&O#%#*$*#&**%+#=*%;#$****>$@$$$:$****##%%*=<%#**&*&+$*$$&$*X:*$&-&-%-;$;#;$&&#:",
"&&&&&%&%&&#&&##%=$#;$*$$*$--;$**$$$&$$@$@$$,O-$$,@@+,$$$$$----$$>$$$-@@-#=%&#ooX$-++-$$$-$-$-$---&-&--*--&,-$$--$--$---,-$--$-$O**$$-@,*;*=#*+%&****-*#**$*O**--+$#$=$$=&&;@$@$#%#&-##*$&++@@<&#*#**=*$;-;:*$-$$$*#$o#%*=@:;*##%&%=:*@#&&$#:#&-*$&$%&;#-$&&-$&-@",
"-##&O#&#$@&*$%&&&+**$*+$*--@:**=$+&$&@$&&-$4,---$--$&$$$---:-,---$$@$@$-#+&@%%%%&-$$-&-$----O,$$$->+--$-$&,$---O$-$,--$-,--$-O-$:@***7@:-@X#:&#X@$*#O**-****$:*-;#**$&##*$*$@;#$%$:%%$#%*%#@%%+@*%&*#*$$*$*--;$*$*=@*;;#;$*=o%@#@**&%@*#::$;#$**&*&--&&&#-&&$&&3",
"%&%%&$*@#%&*$@#&#&#%#&%&$-;@*$#$$@+$$$$@$---$-$-$-+--$----$$-,-*$$$$$$@*+%%%o%ooO$O&$-$-$$$O-$O--+-$-@-,O-$----$-$---,--O---$O$-+;*;;,--O:@$**o#@**#**@-**;*-** *&#*###o*=*&+$$-%;-&&$$;###&&*+##<&#&&$;-:-;*$$$**+*4$***+%3$&##*%=#$@*&<$***--$*%#&;&&-;&%#&&:@",
"&$&@#$&*&%&&&$&$&#*&#X+=$$#+*+**&*-$-$&-$&$$$$$-$&,$&&&$$$-,,$+,--$@$$@$%%%###*o#&#$$$$$----$-$-&--$----,,$,-,$---$$-$,O+-$$$,--,+#*--$+@-@@%$@$*#*##*:****$$*O-$$$$#+=##$**&$$--&$O%&*&#&#*$*@<&=%:&$$;$-*--$@-*#$:$;#$$@*@$+#@*o%*$$#*$***$$*$$$@&&$-+$%&$&@&*",
"1&&&%$*$##&*:&$%%#&=#@@*$+=*#**@@$$$$$*-$*--&----&$-#$-$-$-$---->$#$$-@*#=#o%*o:&-&&-$-$$$---$-,&&&@-$--$$-$----$$,$$@--$-,-O$++*#**$;  $$#$#$#@#-*--*****+@**$-$;=@**+%$#&*-@$&*:&&:&**$=##=#&%%%*=*#@&$-$-*$$$*$=$*;;*$@+;$#+=&%*&$*2$$*;;*$$$&$-&&&*&1%%#@@-%",
"@%&$+@%@%+%&**%**###*%&%;+$*$$@X:@$@$@-*$**-$@,$&$&,&$$-$$-$--,-$$-$;#@$&#:*&%:%+$+*+$-$--$+O$-$$--$---*,-$-$-$-$--$*----$$$-$-$;**$$@$$*@$$%*o%,-:****-*$$$$@***==%%@@2&&#*+@$$*-&;#$&&#&#<*=+=**&&=#&;**$-@$$*+*:#*,$**o@3$*$+%@#&#$;3$;;*$$*$$$-&&$&&#%&*@$%-",
"%**##&&&@#*#&&#*%*&&*&&;+@%##@&&-&&>$-@&@$--$$-$**-$$&$&$--$-----*@&-$$$=%#:&#*@+-;%$&%$-$$---,-$----$--$$$----$$-$$$$$$*$$-$;@$***$**#;*>;#%#*@$-*@-***$*+$**@@*&#&&@@*$&$$+&&*;:#@$&--**#+%$o###$*&$$$$$-$$-$-$***#*+-&+&@X*@%=+#&#*=>-*$--$-@&$&&#&;2#$%#&=#=",
"%&&&&;$$*#%@&=#&##&*&&&=@%&&@&@$-&+++@&&@$$$$-&-,*-$----$---4,@-+$$--$$$$=*%*&&#--&&&&&&$$,$O$O$$,$$$$,--$-,$$$----$$,*$,*-**$$-+$*=#$.#3$*&**o%;$>$*-$**@$$*$*-&#:##%%:+&&-#&;&&&&$$$-$$**$:>#@+*$;&*-$-&$--$-$$#$#**@#*@%:@%%o%*&%****$$$-$$*+@$=$$**@.@&&*$**",
"&&#%&*@@##&*&&%&%###@#%=##%@#&%&O$@&&@&&@$,-$&--,$-$$--+$$-*$,-$-$-*-@$*#%:2#++&$+-@&$*%$----$,--$-$,--$$$$---$---*$*--$-**$*$+$**$*$>#+5$=*+#*:$$-$*$;-$$@+$$$*#&#*%#+@@&&;@#-&%-&&&#-&$;=#%;#+;**;$&$$-@--$>&$*#*@#;*#%#+<&=#@%&@#&&$$$;*$$@$@@&&+*&&<>&***&%&",
"&##&#&$*###*&&o#&%&#&%#++&%#%=%@$$@$&&&+$$$$,$,-,$$$$+-$---4,@-@*$***@-:$#+&*o;+-$&@**$@$$$$-$$-----$-$--------$,$--*-$--*,$$$+$**$*$*==@=$$$*#+$;-$+$@****$*$***#&&=##+$%$$$+$%-:-$;@&&$##$=;#$&#$@*$$;$-$-$*&$#$*$+=@$*+@%@&X%*&%*&*;**$*&@$O$&&$$==*$OO&#&#&&",
"#$#&#;@$***%:*#&*&%&&&##%-%%#%&#%;&;$$$&$,--$---$$-$-$-$$--,$@&$$$$$$$$;$*;*&==*%**@&%*%O-,--$$-$-$---$-$,$$--$,>&>&------*&*$*@***$*@*>&$#+*%#*>$**#-**#*#+*$--&%>+$#&#&*%-&@;---#-$$&;$**=2*&%@%=**&$;&;#$$$:$*;*$##*=*##%%%&@=%@=#&+#-$$$=+%#&#&**%*o%%*&&<*%",
"=$##;*&$$&%&%:+%%&;*&#**%&##&&#&@%&&&$&;-$,---$-$***-$--------,$-$*$*-$$*=$$+%#;#5*#&*#;-$-$--$-,--$-$,$$$-$O$$-+&-+&->@-*#-@$$**@*;$#;=+#$*+&*o++&&*;$*#=#$*$#$#&*=&<&*-&-;*&&&&$+*$*;-$@*$#&+#&*##$$$:+$$--$$$@;@$*&+#@X%+#o*+&&&+***=$$-;o$+$*#%@*%o%&=&%&&;&",
"#*#&@%%&&**&&@#*%#*-%%$%%##@%%%&@&&$&&$-O-,-----*,*,--$-$$@&&-@$$$-@*$;-$$$=*&***#%X*&#*-$$-$--$-$$-$,$$,$$$$--$+-$&$--&-#-O**#$*+$=$;@$+#=$$*X:%4%***$>$$$#$$-$&@=#&#;&;%#=;&---&#;;&&;#>*$&*%&%&**&$-:$$$-$$$**=#*&+%+&&+:%%*@**+&=#***$*##=%&#+#%#:*$&$&&****",
"&#&&>;#&#&=#&;%+##-&*&&#&%@#%@%%%&&&&#;&---,$,--$$-*$-$*$-@&-$,$>@$-*$:@;*##*&:;*X@@*&**$-$-O-$---$----,$$--$$$-$>>+*-&#--&####$$+;*=*#@=*&+*$#=$=#=;-;$@$$$**#$&=*&$&;*$&&:#$@$$&$@-;&&$*;*$#+%*&;***$;O$$;;--$$#$*@&+<%+@=@=%%&%+@=@&#;$&*#$+%##&#:&%=&#&#+*#*"
};
