/* XPM */
static char *mat2[] = {
/* columns rows colors chars-per-pixel */
"256 256 79 1 ",
"  c #8F8C8B",
". c #918F8A",
"X c #95938E",
"o c #969491",
"O c #999693",
"+ c #9C9995",
"@ c #9E9C9A",
"# c #A19E97",
"$ c #A19F9C",
"% c #A3A096",
"& c #A4A29D",
"* c #A8A59E",
"= c #ADAB9F",
"- c #A6A4A1",
"; c #A9A6A3",
": c #ACAAA5",
"> c #AEACA9",
", c #B1AEA6",
"< c #B1AEAB",
"1 c #B4B1A6",
"2 c #B4B2AD",
"3 c #B9B6AE",
"4 c #BCB9AE",
"5 c #B6B4B1",
"6 c #B9B6B2",
"7 c #BCBAB5",
"8 c #BEBCB9",
"9 c #C1BEB6",
"0 c #C1BEBA",
"q c #C4C1B6",
"w c #C8C3B3",
"e c #C5C2BD",
"r c #C9C6BE",
"t c #CCC9BE",
"y c #D1CCBE",
"u c #C6C4C1",
"i c #C9C6C2",
"p c #CDCAC4",
"a c #CECCC9",
"s c #D1CEC6",
"d c #D1CECA",
"f c #D4D1C6",
"g c #D9D5C6",
"h c #DCD8C7",
"j c #D5D2CC",
"k c #D9D6CD",
"l c #DCD9CE",
"z c #D6D4D1",
"x c #D9D6D2",
"c c #DDDAD4",
"v c #DEDCD9",
"b c #E1DDCE",
"n c #E1DDD5",
"m c #E1DEDA",
"M c #E4E1CF",
"N c #E4E1D6",
"B c #E9E5D6",
"V c #EEE9D7",
"C c #E5E2DC",
"Z c #E9E5DD",
"A c #ECE9DE",
"S c #F1EDDE",
"D c #F6F2DF",
"F c #E6E4E1",
"G c #E9E6E2",
"H c #EDEAE4",
"J c #EEECE9",
"K c #F1EEE5",
"L c #F1EEEA",
"P c #F4F1E6",
"I c #F9F5E6",
"U c #FCF8E6",
"Y c #F5F2EB",
"T c #F9F6ED",
"R c #FDF9EE",
"E c #F6F4F1",
"W c #F9F6F1",
"Q c #FDFBF4",
"! c #FFFFFC",
/* pixels */
"ZtzrGmvCvjucpd,vva5ZKnivzdJ7dedHFWlCvauaFaFazj8H@HBFYQNmKGamcvxv8Cj0GkmxszxdjdmZCmjc!PGjBzaccm5zedFFd!AYTAPkjQrtmdsadQJmadmndHinGmxsLi3Lj4qedjxvGH7GGHCNCz<kjxmzjmmHLxvFFJa0jKuxiGpiCC9itimcxkd9xzdCsrCvJGjZksHmHrY80szzcpFCv7Jd8xiZ9sCclspKC7vQj8ae08mcCLzvvQxZ",
"8iRmzcfxCxdzpF2Hvpzfza4GjpcalCFccmfFla8daazzdiRkrlCjLfcskHajYmkCcHjcYjjaFmcxZjTJjjxpHjH8pFYxepF6vijzGfjpASp8pmzpGxmupGnYnmfFnTnnamPuTdC!j:CxjCclHZ4YaCZtcYBCmaGEEmdGYsdncLjxpmYKbdGjcW0;fjc28mn-vizeHdCYxCnnkcmZcpCHCz2Ykgp!EJ!vvCKmCjdmmrHgp7Wcv>mm07KjmKLCGmtF",
"qZjKpCZQvj:jxc0mmelkSz2fzjmzvrjHcmjfFazza8dcid<mzcpHJWGdkHrxCHNvmmKeYjvmvzpcvCCFkkkbfQKpmHrvajdczvAHlFrpFYfexPr8YmdCnmnxxnmmsZxHGGP7KdFbdLmi2dixccdGeZzJp5JeZujZkimxcWJdmms0GmxFGmGcuY<5RpZiicmFk0ZjmmCmnccjmmCPrtCpYKqnviJzJvWjj!jpcjkZNpcJf<Kp0qYEadeZzGCLjvmC",
"jJcNFZCKmcux0N>kFJacKWpAlvkFfivvvxkmvvavz<dzuaaKcZk>GkvkccakLHkTTYmaskjmGccmLGHCNmkdJdZEicrmecpdFlJmlj2nlPZNnP5aEzvJkjsm0mnndHGnmzLiS$pKCZ<uFxdkCCfmxlbvCEl7cczvFjdvKFFFZmHkEJjzpGGjaaF8QixPinkxH<icQmmmCkfcCldFul70sZniv7vzEmWCNWmBrxdHZqmJk1dK6>jYltjHNudFjkpJ",
"Z20eNmPKkGrnLcdcmxrrzxkkmdJdHvpCxv<EzdvFduczzEzAZmlpYjfkCCuJLjmCTZj7damCvvpvGxCHJjzJSFFRjPmcupzvC7P!J8WkQHrCcNqezpuCZ00Cmnfmmbmxvc!8QHxAHPFm8CjckppfCNvFczkddrG!izikLZxQmnznGFazmjpsGnJG0Qr66GdfK8CfLvkcGxfFmcHvl4ijKYjvNPpvWvHYjIHm0CkrdmmcsipxfxHxWCjZjv!FrraK",
"letMiPCEcGrKrZzGpZmkCkbPvYGrYvvPap>v!uvFpxzFjHvDjcP2DNkHjCzpcxmEFicZaamFuvZmcxGcCzG8LGcjvkYcfaHuECCAH2fWvkWdNH1imx5Lxcj0mmixnmJ0acQjbriBZPdCmkBNjvkvZBmZcRkCzdHkHv0mLFmxmmuGmnvnxJ30xH!ExZkkZZ0mKmQfGxFmjG6cxsmNvPG2vNbGlFldPpvvxHCZcmxsPNPSmvHG>rWpC!ltkjxxninZ",
"3jHQLxCPHxnnxlcipckFJL5WjCjvKlzcAA>vHpadaa7JF6pxd7xajcnGcjz0ejpQJ;HjcCcmiamimjcvGcvzd!imvpvCzpvu8vvjPrQEr!9xmjzzjpidLjvjLnjnnFmxpZIffmHKptxefvicjivmcZpdmANmCdmGxHdnQzczmZPdJjmxn0iiaFaEmZdj9z9uFkpvmxmGmxmBffnWEdFekgrKlxpjauHFjQCZakjmCnxZijdiiu!AcWcjZdWnexkm",
"jrecLccQmmmvJaJzjHfmkrzFfGYpfzvmzZmpvxjzcakJdcLm7N00ajdQGCda<cJFTjzZYHciz8CzmmCvFdxdzczpcH8JaczauaaFS2FQvT1pHaJm2d:HFJ7jknm9xxmdCcIciCH!cji6itixdzkdCaxzHQmmCd9kFmLmJWdmmIpsmmxmzm0i00nmaFji6muHpkPZkefjvdpfnZxpkfLePKCzQvipElGkKZmHdjCdsCdnHHdYpp!cielkLvcmrHYC",
"np73ufCBfsjqlsCuYiJYct*Mj5aanQLZnjpz5emGjcFjGcCjcv2KzcipxFsjzGzzCpcmGcCFixmdJiCK:v0ZPmucp8eFzaFza0aPGvNRl3flLvCvRjviimevcCmxjxZLzjQCCjjNbKriavvlbpeELAfCkeccJvJHJeJKjCllxnJYGKdxmxujxaxxi!im6mkGzjHlusmkxZdfmIjkjaYmKAgell6ALFjjYQmZxmZmGcrPnAnGJdQvn2AmPWjeCfAK",
"cjc4rYxHvrpkZc0iFZpmCapcfGf7BWaAmNanrJljexZaxdj02d7akCzzcmC>ivdJzckBkjCc0dvxkxWAGZzzmbrkGJfC87uFeaiZnTFQTnkKZaumeKvAjjemcZCcGZZxcJ!HGHcPeH29uzGcvKpGvzpCjYaeHzkkkQCHzjmHGmH0LLadmcL0Eui5xFiQfjsF6nmc7HCmNFxCmlz9neZaHlFFvCrlPFJacHcc8mjxpmkTxdccJ-Zv7vuGvx5e6cLP",
"GrrL7GmjvjvmpxpdCzmApHAncka8xJGFcZ8zCvfYcGaa8CvHvrKkcpvrpGcCjvHJfKpmGsNcmxxxJzHC6Hir:mZHpv0zzCFiJzbbYnCxNC2GCCzzvvECxGjvpdTjLvuvJeACc!CPCPNmdazmmFcprknmCcx0Lj3mCZGZzmGGHPLGFHjcGjjanx9>WdisimHdiFmikHcQkzxEkGkrlZqjjYHArBvFFMJjjJpvxcjzssxK9dsmm1qpCx:TicCx,beu",
"zxCNvQcliNmrcCcpavlfctAjkapjMAbmGbYzdhlWHNR:eauGCR5ncnmpCBsmx!mjmmHPGjCcCGcacjvkzCNFtTsJdzvcvd8j88CzRnKKQdeQpmj5vFJPkcccCjCCdxjczfHvWlJIcIlpcczBjHnvaSmvemZ0GmjlzLjPPekYBZ0HdJFcGd0dxxckp3fmGK0GdZZPjclTfcmkjjnqLcNzAmGWkHillGCCFCjijQaxjvsQzKmFZ2KvZ&xlxNe7dFCZ",
"aZqlNKtcjijFjCzexvezMWUpGCaaxLzpzaGPveZzYzPx!c2Lvra>cvcfmmxu5T0HHHmlmiFFmsCzCHsluzAdYxjKxGizCajairzKjjvHz7zmvdLupVCCxvCNjLxmpGpmGYmAcBpcTTpAcNjZPimfnaapEdresZimxjdZi0xYHGtmKWxmnuFnuzc99mPdjnpnmmL9cfHKHtGCuxCnCiWCEKHArMG0cCPCZ!mdJLdGCirKQssdcZW7ZZxPpbpHCHj8",
"HWeppQlcBxG8jjid57CZe1kfNrljGGCbjkpkFEzjZjEcHcQJeCdvGaCc7CccvJFdncCZdxxiddzmmccxukmxkmfPjClCCcCBGCslFuc!JuczK!CvjCZleGCTNZxkvCcNzjQGqIjCxW8fjZjCKjAldvjLKxK2Ap7HfsrpZZxFxx9scvmzvpCumnx0abZmr:YnmxLfHvnKKmmHivGBGkUzQzrApPxFBdmvT!!cYzdc0jGRBZsvjxhnaxzWxTrjWKQl",
"mdKmed!dCiJujicNZfeneJczYCN5CakpeGvpWFjiLLHmZmami5EFl2vfaxNcxLvie9HQlckacPmcvxdJExYCTapCCvkvxpajvbENvdzZ!mvvEYcbHGvFiuNnaCcjCcjFFpGjeQY!ZCjpkPCvBCGFeLnVACjpn07ZjGBWGkJZLk9BQzzCcxnddnx9mkLLpdm0dLi!vNdvLGCGjixFKvNYYpznppxplmCjJvcividminiAKKjJd7ZjZdvGpI0pYPnY",
"fbHc9fpcQHCCixlcKCkLrYkxCZJilxxaZia8PGr0xjYqiedvZ*JZv2vndYvmLxKEZHPPmxmxxmGixziiupCiYdpVvJxzJ:GTfvQAumDnE0m0CaJPrjJcFiHneCcCCvmfzjzceGujcvfeccjHZBm>dZZGBCFpncsjxiiCYJ!QKHkmW7mmv0mamjf9TnxsnnsxpIPNCviPlNWmCckkz0KPKafAtzGFHWvHCWvaJ0CGmCgfZKFuv8hzmvG!mNzWGH0K",
"pmYzyJCvGmnvavvCKCkNztjcJZdmepNxPsG3!Za0jxapvFmeAArPacjcpmjrmFGiHpjHjsmmmKzlsjia5pczLmmWav27HCTJm07GdFFPLj6:GcuE6JnGzaJ!BCCmnJvaGvjcGvcdFaljAktKkAmcrrcPFePzvmCeB7LHdrv!PGucFcvcxcuxFkWucACkAv2K7!kYHzaQNcjSZmvpFLvZCjjQpKPfcbFPYzijL0zdklkeKzmvdxY4znpH8pjpjT3j",
"Kneds!Ar!CZ0FkxcZLaY=GjZvGk7cZNfbrL5LNNCrpkPlZRFJpCmcCnzCjjjbcGmmP0vccGYGPGudijG0lxZGJ4bmd6zJ!T9pLHHalpJd8C$JdmpxCCbH8ZukmZGNkjJLiuj45CirzbcjFbcGGv!>mBBjjYCjvFAx7ISkJkImp&x!pNCcujdxdQfkCYcPvAisdccCCeJlkxzCGizuzvlcmjvivPjKndGsYnsLpknv<mavGpmZuumfCjNq2i3cQm&",
"HqfjFKFpYGczGxGxCGlFu!nnbcxiiakaxvWZdAGjddCfv0GNGu0aZ:nubCv4FrjvxYGGxCmFcFigxmumzHpanc-WmGJcCnkea6mcGkNPGzT<GFmduccavcCdYvlZqZzzHZvG7ja!zjmGcmCCFaajjKNcGCicjdfpvaHalpmJiarH!2mHNm0vLpJcrKHiHlaPkjAGFCmHkxNzviZcxc7xYv7fzKYBGJzFiJinnHzfHeixmZm8dzuJijjZa7GjxGNt",
"nczNKPvFWdGPGvGnmHvk4jFcZTGk0lleRrQmKHYmek!dxdvvnJp9GpCvGF2lPmdP0GHfuHkam08mvHiLdzHlpH@ammL5czuuacbljrnY0djJzpim5zcimamp;GkZjCc7xjaZsY!Y8vPvAvmGLbZAGbZpmGemFmbexriKAvPZLiXxA0xkmk0fZekKmId7vpAfcsvKmCu7piNdadGzcGazHZiPmKYCPjdHjJndnmpnf0jcHLLjCEnCeYmpF5evT>ez",
"qqzYzNPxvmFvczBCvLcn4Z0jcxHxujjveeCuEjZkxpGxxzZLavj7ppZckLj-mzqpxcvzxmcnjjiInZiLxkeZWkkKz7auQczpcijlmkum!F>>cd6uFveaGvmjkHClNccpGmpC-MWrPFYYkCjBAmKJrHGGv7dmG5nzY2fjpkAJWP>LZpjxccxiJeJlpKRrvdjmCCHCijcidpvZzzacdakZJBkzfGvLcjxGEW0immkFZsmpdfZpvJHcj!jpm7x>P7jm",
"eijrfFT8JpmPcvclxBfC7uvlgQ005pCifuvkamJaiJHpjazGcJxCmvNxC!7HGp5FlJsYxBxn0uKnn5dFmZmLHF8WxjGeLWvFj5pTBmWlxZeGmaii0irCzvkmWHcvm8GLxhxd*7GKlvlcn5pbCpjzqaccJmpaKjjacrQCmGmJsTeBrexxZQzinaHeW4P8vjmjBrcFixjvZLzzvCzvCzLNlvvCpfapkcuZmQniFZfZmrmsC8ceeCUpdAcpsrHpR5pe",
"nxjjjJHrHEYYzzljZZdx78ilnH8vc8x7zcxkikGF0YnjGCGzAL05uamCKaedAC0HjmCGxmxxGdZGxxxBzpJpYjavcaFHJhzHdFpmpdQWQxCpHzfeF5jrxkcetRCZa2PCCL5d9HQYdvlFFzCc0>zC9ejmmYnmAxJlC,eZimckcd2jkLHxJTi7BzZCANlamlcs8rdsckZeZG!LxLcmcaZPYcpCazAJmjcrJSinBmxmcd7ZNximGnIZZmmvlrjjfc7f",
"cdtfGHccCHYcmaFmCmvZ20rGrJavFcjkHmWk2uaCkRPdzpc0Tmuea7bAvvWNPjeJCCqCxmsnds0!zdxcBzZLWdid2F7pmB7jjGzEfDYzW5M5AlvzjzevCstjJQxxdcZjimzWavndeaaEuPCnnPtPrncFZQMxJZNjpm0PZT0kaGvkTCHkTcpmRajbaVzZvvWcajeQjjcCxvjZvjcvapNHZbaIjNaGcvC7n!uFnsxLxiimZfszrvZzdHkCdpmj97fp",
"zZKffmFcYvASCFaGccZaejrLldavmclkZRAac2<ZjGcEZF4vJNpv68cmafabCr5J7Wjmxjn!djc8s3ZveFPpGd8!78GWLuaTpj:CsP!mWYdixPnvz7Cazalcvi!mujjCZrpYiHCv0ziLGczZHczv8CeuHdmCCjCcEr2TZPsZjY30uCccCvcGC3pj7vcQCvffqHcxvxCCcamYvadZdvxZAvkYdAla8cibH9i0njmYxTKCacF6HPx>zCvijcZxJzvl",
"nYpGpYHgmmzuYzjjzHfz7KrquYpdmkmNZpHqv9zasvlcvvu0GczjJ2jcpr5kvZzvCK9KfjFI7zQfj3Q!xNWHQczc0FiaCxmpc8ZCzp!da!zFNiGCP04CDxACQFcJCvcTGk:WqCH7Z14m6zkcjjapKjzPZpemZCjsGj5jEkvcNeCiCmcd7ZjvCckjcpJAq2GrAlkcNjbjalGvCPcv0CvmZxeZjcx!rZpasij0mkxmZrGkmCHiiTJzqCFF7cia7mNa",
"EmjPHJCAsamahanvvmklmm7FeuqxKHvdGmRpxeGzzWPplm>HWl2uvFjExxvC2cex2jeGCmAG>vxGj3QPlrQA!jkvdu7CpmGvAyKJijFm5W&JQrpxaCiFKfmGQjHHZvfiKa5FzTvvczmWkiczTjjjifZcJaTcjmc9pk0amJHjCrdxGsxdGGijtPZpqBCAdcbGQYCNnhxZzHLavYkGjzZZWma!jrkZCBpckkdjnGnHPxGZHjHzpGJuFmxamxkJqvje",
"AvnAAPvFfjazjcNCZFirvPzviQrxQrk!cLKae-vvaZZkvZGzCWjcHilWZa7hvzkK6cpKmmmY<J>mpcRZCZcAFu7l!E5dGjzGrqjP>jFpeF<ZYxrYZ;iJvcmtLCeZFvQbT2ajrZnp4eYz7Jjyksjx>cPCK0QCcks2rpqCvCxQcX!7cjcx7ZjejCcTzcWFGlC6kKLfWNzIvnpnvBmfxamNZpBNdlljdkvkkWksnuGHWlCCkjTsG!vHmcGaNcNR3Pvz",
"ECJCvkczmacvFlHGxpjxeWvjjvFlEvlpbnWkp7xexc9feZZAQiCpEvjCnc9jpjvp<mpLj0xmiz&CccFGYZPsR2P;puaTmjCcAGujzpppCxarnEzW22cvQeecGsjjcxavYeGilcmehZfPudciCkjk6ZJNfmRHdvi&vasvCviQRBTsn3BjjvxFjLZHpmfmmcncdYxvZcxYib7G7CdxmZncNekgzcvNHcZ!pFimFjcsjZacnn!cccQxcpdd!KAAiJcr",
"HNK8qDpjaejjzCsjdpFHrxHfjJAcRcYeHZG0YocmjCaGjCLPaZCxGqHFmK56eAip0aipxqxF0H5vmFFJ!mZjJidppaavKxCansHNWvWzmjZ8jjAAQcrjCTC7juai7vClHjF9CZP7azxGHdzxGdCZeifFCmHmjcccZmLmHBHmVmnpQYkzdkpvHllmkZmjlAsklKvPCkGNFveLavmvcmnlAczzjCZLRnpG0nGpp0pmdceaCjJejccjiHFzlYDnAmHj",
"KADszx7xmcCvzzFnZizCpimj7aGpvlcvvbv!p2axtbKhzcnYpvGukjHGaz8-FCFadiz0immmiCuiYxrACejm!jZcpjmppdciBCy7!8aedjM6vmWCv0NmGkkmjCNCjNkQZHa9lRc:vxiNlzciZ:NBzvBACCZjzceBQ8VmHYQjPfidG8Zvpxaumsx9cv2jmGvzlYe9ZfzjnQpFmfbkGccZWbnddfmVNNLNsnmmnkmYdCqmltvpcacijZQlvHkj9ZIp",
"0cEcnGsGAnblvCcvaJzmpwCvfvdqFmSmEezZ52jFYjcbaHCGF58zJfZCjpcxifvHuvdQcuJxrJa0zjjCxdFHQjZd>k3ndPLkjjAlQ<xiC5CaNfCFi:5sKaxHZcCvvHHKaFevjZ55vpzYdivuHicCxGZjmFivccp<vrdHcc0xJ6FGJmmZZcrFkNLZuP2nmDvGqYxxmZeJjCezzvCJjCKeljCvsvcYJZKV9GmjucacxxiQjcjqfeJFpeBnpczpvGWN",
"uiFjGKjZmPjcjjjxcpnNpHjxvGzaCPKvp5JYs<jazJdkvpeDC0u0krvrmP2vHrKGnJpmGzCm8L5aGmKnzxK0!Tm;u;ac9QCCJdvFmmviai*LdpsF0pGaTJavmEmvGJjjxGzkzpC-YdNQHxB2jpcBizrZzvFmjm00GeFQTP8!zxjKNNjc7Civvcdc5aN0NvsvdqZexj8CNCcqjjjmCJPCGNvijLCRpC!Q0kdcZdHkLJCQvjdlCudCdccvGdJuCjCl",
"jJzzcvpjZjGvuk8dzjkmdG00jLnaHmYHfx:YcvczjxlzdcmCmucdkdd4zvaJ7JMvmEuC9xZG<K6jzxLZnnz!!cLiiFu8pTjjNmQmnCcpCccZd7aEi5q8Zckc70JJkpedPZKj5mN7cu!!7LcpCjpvpveTpmvxcdmdHevWjNkY!2rbvjkJGZ00WzfFP8mpz6DAaLjNrPAKcBF5lnvjFNjNcJN4PLvpfmKA0kZGLmmZ!PrHBCIcfpNjskqZksaWCHmA",
"iHkQZfNccjjJHvnsfcZfikjjpExxvpYNcxmmPFmfumEaaNdpJzzLvlvvGYRLelcHK8mnndnm$j>vxHKJd0dj!kRIucxvxUikKCG8cCjkZv7mFFFEF+JY5kQEGF7zxveezWHfamxzvZFZxCTiv8fCcpZkZWxjjmmCWciQQ!HjGPQIcfkm8LiiNnWpjLkjzuEFHlavfPKfqPfZkGxJdvCQ!xTZZjTNKmCa9Z9GjLmgYHcZKCf!c-HmkCiffCuZHjjY",
"cCjCfLaxceFFijJmGvckzgdvv0jnvsAnmpFe>vGZzZZxfvvmFcmCxEddGzGxCMWWZ09nGpnk<KuFisKdi6mKL5zCz8dHcACkzj!!CDjpefkrcjcFu6xVCaYYCmcpmcsCbjKd:vfzL0CxxkH<fpZckYmcxTccZFjmQz7!CJqT!:CC0Kck2cxavaA5vzWCcjNCG0zfcNklvcNajNfdpNFACmCaKdLYJTzRtmdm9kGkjPvCPjv96ezxjf8JQPT8zfjN",
"CmLcjCNZcjGpiGG0cCGsGGpikfjmKjcNkuui6FxjvvPpaxpBJkdZGzpJjFcjznBnnZzGEdmxnm5YddjiaiCmjmEJiJFCfcTljpkrvJvn7ACCz5dJullKfrCA8GuvJx7GpCKnrGi>i6LPLZY7pmicQxKnjZmcxmmCHzvjcpJjZAncxkGC5JcpZNjqGjHc!zplmglvBdEcaiCmNlfvcjdcvjCpcfZjczlKHxGZacviCcjzHCHjclGkij0smjcCBC0j",
"jhZd8CkcdzCimJKCnFAjJEvxlljiFbcCvFPFiGCKlkxRpGapx0cmNjpzujdjdY3rmxi9QxKFuJ&JzaLmjs!<Gc!mudPajujCHjvaEFmiinj!;C6vQuvmCxaCcdujxL2ClGCW:au0i8HBZH!xCplT!miZvvCvcCkCWuJ:Gvvcxs!gncxm=bGnlJe7!ipzrvjAjJAKCpHlCsZKFNjzsPpQZikfZHlKNZxZImWKkdkdHcmPZNC!cvccccpjNACckmdi",
"ZhmKkKcczYLHm0GjApnc!zHslErBFkYPC8WJkvxpCmFftJCGWmiEZzcGanvpzFpHQmmsQzGL0n<QduxxCp!Zd6zadz8qjxJKaFHvGEnLjjvz0Jxd0cHYvYFzda-ayTdiF!5WCLfmvdCcekc8mtPcTZssCezjxjKGccEJCCxpK2C<WeQm8cijKnv,rWYMpliHC!FjlfnLZENZmAUmjY6mBmmfHlzYZZmRb!AHiztnCvvNqjiTAqlCtzjcmlnmcvcp",
"Cjmjm!ii8mxZzjmccmj4YzHcfYlFGlPmCzfWsCrjxJmCpcvrpF2!kccvjjHzdcHFZ0fGxiFndY>Fn70JxGm7dsL0zcma5JGGzlqcYjF87cK96CcQpQaYpaTacG;pcCxkZuxJlG8TCejNrsNjNtKjKaYlvCczxaZuH5cCWxFNq<d0!uPBrjpFJGHnkvpzCz5mPuCA7LBkAjfNmPvecA7pLmvercdQZiBBWZpCWddNNTpjjpZYcZjcjjHZJNjNTYjH",
"HPkcCCz:J6jpiZCmcCmpEjY!GQGfmWPmDntEpfkCmJAjkmJij0CFJvPjkCFjpHaQQFGmnzHxFJ:an0ZzPmQpx>G<<6nditFGcNCFzicaxL7xCGcZz2jescnravrvim7mfma!ak9RdcqdN!cQnzWZLKQsvaFF<zHmYCpPQiGTx0Q2QaRmmNaZBCQmBqJBK3jGjptHfBzCRkiWxHCdmGjcHcvdaClRZjCjW2fHcECmZnifjfZCvQdRemGZzcN0vLvQ",
"mf3mCcGex0cacmkmNpv7!lAc2GGczGCzszfnpZZed7mbkZa7HmPJCzA7cCpaatNG0iimimL0iizzz5m0cCx5Pp0mjO0nj6uHWjaQ8ead7i<zmaNAHQJdTpSJCxzazvpki955PeHrxckN3HfindnixrnsGCnxdkZxbuAms@ZJeHQRjqZccGvPrvmGGgAQrYJpZKlP7bA4vcZvCPzvmZjaCGZfecYPmjff0iT9Q6cCGcCcCpCZKGkcBKLjKteQcLec",
"jtHZsCxrppHisiHmepcpBHHn8uNfMGAfNenznuWcLdvkpJArHEFHadvmJHHlC:kGJsjmGxJH0mamndm9IdidP2jGxinL8vcmfxlvjGiv8x0@fNrajjKs0Zxs!FdC2!zJve7Eec!pQvPmKjTkWFnbK8cnGYxdp!dja627IePcBGQcJpCpiZcTp!zcHKe3c8zzzHRCtKQhzWYCzC7BCcducNGG8uCPGqC76mds50BpLxmirfkvfbRtxnkBNRzgfvjZ",
"fjpLBHc6xecGkFiCcsjpepkP7CQiCvcZpFnbDmNHCCxvJRxpNYmpzmCBlfavGG8sm0mZHdH6izmnj0ziLiC2z66n7aWBZ6GmdPKieAKv<mq1cH6vklAajBrfDdEjaJikm8+JQccJQvFZctFunxOnm0ZxzW0mx0YxZCH6kjjNiP!K3:kkiLpNcYjmdeBSB2A2YKYZlNHx7!8xmvJcHH8zjjjHedcYpjKq0QpnApiCCcKfeijccb4lSpLknHZemYpJ",
"cxKZEHZ5FvCdfvcZPpdsYpKC-jL8jWajKCmYJpzxLpmlFTZmCkimCFCnJlxYcp8KLjxnmamiisxFm0m6s6miQi6Gx9FJmjFCjBWpiArHBC3j7GjG3kcdzuZpc2cYjn0!qa-a!TP8viJvvZWjmp0nmsWimm0xxxLkvxY+3iZQ7!cdm>csAA7!vQjjjkKKCATkfZbzNPjZjZiHezjcJv6jvZHccCCFCrN7nTKLQ98K7cmAjpCZmKZBCISjmtPsq!is",
"jZkcCYxzjcAcGcjZFme6Q2mj7YKJebNjl!NTbaZNZNcZcLxejzFAivdcjsdW8saGn0sx0jnudG>mGaFHp0xrQimKpaJ!FxGmrWj9dYICjQj2GmvT0mBdikcspmvCa!5Lcxdx!jZcNePc!8Ren0,ZYpJkxxep9jJdCmQ-jufP8PmCC8AjlZdWarcxjPrzWjAKbJanLZCdipcYazcpcNpjipavblJ!HtNrLI6Gk9QZsAudztQfrCll!QxcfjdrravC",
"izccYLHxvcTCjJmjvZZiE7Ed-7v2kjCCJNa!vrcjY8dkLvPdinJczjjxcxkPuv5pJajmmxWjxFixxJxL6eprRssF5zdLLsdFaxKpvMjlmvpf!2jGYmcpiZpcKLHp6jiHcH>x7Zc,cPCZiajYjjxjGsJaEnEnjjjimjc&>qZcmH!RmNBjac0RlHfAL-sWAymJHLNA0cZCYuaFciavZj7fjvvczavGQkreBL8ExicZGKkckm!if1DYqClCZHHQ7CcZ",
"jcmJBcW8umCjCZvujCCCL77aiJA3mNKaj!eHCicPP7xlvcc5GEFzFcnlmpJYzdpvnsGnamEanWamizjPmxC>Lrkca>dF!aFiWdWJxYCfzGuisrTGlfjj0H>CkcTc>r$s2CeHNcZlZcmRjGPCz$nsnnFzJzLxzjGH!jr2q6cC8e!cuGJcfi0!jxamGleRrxQapZCcpPvvJzadFifdzq2lcxCGz7CcZElJx!mn!a0mmncHiZc7Qv!HqNrckajYBlpm",
"vcvIrZcGccF7cvjzdvxiRzKciFLcvmxiCPAinqtYHcmzxjK8xGziHNbzCzuazHkpZivpTvCimmijiaaHs<E:HijLkmdcQmIy9papcWvKeJ50eGWxjZvn8HvCQPzziZ2Q6JWmkjPeNvGPfvGZ8mjvQjcrJn8Fa5HcLG@7L0Jj6Qpc7GmZjc7!czFzv:FuCCFpfvHZmvJzJpHlJuzvfk6mZkdHWRHjJNz!HHncJErcnHrCkil6GcZN8jQqpTNNHZeQ",
"dGdZvvCcJcmGdjjxjvl7!i!zzWcmGkp7vCjnHjzyWkjcdxdxCavCvHczzcjMvPnvJcpCfpFjYvd2sxaZ60K0djFW0naacPlkPpeejFxcPn<m!kCGGGctpqAKPj8GceeBix!xJiWinNnpmYzdixzFCxCpFL6zF>G9Nz2JccTjpcijcChj7KkYFrHml>EAZH5>qzlMbWuKpelzm0zvJvvsCdZvZTZARJZWzfsWLmdcBAnHksSrTcljfyZB!lmiPYcJ",
"mnxHzvaqqJFZmcCmcdk7QmFd2YcnJZrz7rzzCqCcHsfHpdvrHzzvalmzkazzpHcCT8CvvFZZZZx5aJnY0dQiH0ssYmsiuf,6GAiFiGKJlvqCC!HQeGqnj78cABxmHx>YNmQ!eua2TGmFBxi00teCvaHaxm00nnx0pdeBFdZHvz>cfxGxuZaFiHZCz5lj3J:v7rjLqAjvazNZArzlYP&aGxjdJmAHPHc!jPfixmdZmsAJCBCdTZfACH!ETchevcpv",
"BHCLzciQcQvcmmmc0cc5edkHxBdBRmkRncGcfpNPHzFccccxmpvjvCHkuqHvuEvrC7GCdHZvFBv5dGax04KxzJFFiukxpCms8eqJpi0bZvjb7kfAMmdYdHknZcaJYcdLCzCGFjJ2CJsjkGK0G0aJJuv$xm0iFmuica-ZTaHqcceqeCls8CkZFPjmG5fW3xHazpzYmYC4JjPafxCHZmemcjvvYmBcpnv!jPceHqFlccnNijcZCnMYCCTHG8cmRZiR",
"HGjeGveaxLxHcxkzarZ0KxxQaPt5DJJDnnGCcdiHCAZnAvvAHFclimJzkCHf2Gp7ecmpdmCKKnz6dcmmddGmspFZamjJ8umrerrAzvajmZZj2TccFCfWmmemZWcQjcZcYWPaciYzvcCcKFZ0vduTc2Tnmi;HJd!zC8zHcqQC8pqij:HPpGEnHdpFjrn=:cWd8GpaKWclpGFHnvelmZervdGnAcQCYFvPWTFTvuiimx9imKKfqfEZIpRjcvbctl8j",
"cm8m0cPiKPxxdkjdecbdLipH9dW+QHRCeuczCz0FijZCmCnxcFrzfYYzEjjz2Ect7iPWzzcHiFnkxm0axsksQdrzxmFc3udmvdCpLZJNPmZc9AjPcz9emc:HAb!QxmuWHxuZF8i8!ZdsvCZKFjvsQ8jFQs6EF0xxu:TevAPzCiap1HJPcjljKjjHYvPv8!GvpmPpHPrvplHzcGKJLZaecvajKZhHfc0ZQTkCxsCmza9CCPmijcPCenKZjfNPHjtc",
"nEdjcvpixpsikiGcmebKckFYiRmeHfvNuYHvsYgFCvncGpNCuvfcvmc3peFmdcd568!ZGxHZ!CkujmfGCmKFEmsLszsdks0Y,xiCaAYPQvjJ7pT6PHjljvuYQaCZZCZ!vZijizPeHKnikmmZTLieZHCxZL0GHxnJuc<xzjYaZe!C0j>HiJHjAGpnleCejCLmzHviB!zpeGlFljpTTveJrlJrjCHLuGpCHcxcHkPxeCGHccHiHs!UYYcnNjR!HYPZ",
"cPpz6iev6ppkxmjmCnmcjnzWeDpzcefvsCvHjPcApYkFPzjCkmcccmJe3udv2zj2jsHm0YCmKHx>jHHQm0!YZLYvxHdz#smlatCFlTPFnPlKZQT7mnpmpcamFaiQGHdW!H-x60GjLxm0HvkjYvmCAm5PYFGimj!zej6CzPmjC5TQ0r,CpxWcAcaK38tz9KvmzzJaaKZNKPPvvLpEnccvfpxncvlQ2miHZfQmckmBczLfqCGfvNKcZcApQtlvBKjY",
"mj0mdKimxmvz0ddmjvvrjjuY2EFdzkEcccvHjbzjiHxTmCCEuxlF5AF5cAvvpvFqHY!KncLkLnmezmJn-CKkmciFdjamuiiGJdCaNAlCZjkmmpZ0Eszi-svHaYrAGc5QpiiexiPvCppjiLu:LdLLzzQfc-QNsiiz5Y7iLpiHYdQz008pEH!FQpiaupad2fzc5zJGfzuc9pZZpYmlE0jdZdZKZGlAuCkvPkIQKZccjzxCFxz6rvVHlTjrHilTcKeF",
"xxnpnmxzmigCzdndpjjFideC7JCukeCcCsfzfcvtvbvjvfZYilipdNEF8cvHkjH>mQnGmKmTJJm9msLGkkdYmZ0LF9dadn3p0pmNmBGAIccpipzmJCrp&saCCbgCvQ7Hruev7pvmZcs8Kv9rjjek7CZ2eiRmLd>dmv8pYTH0xLKmxjjlWleFkzpcFp0CtHrnJFva0EzaJlZczcvjc5zcCijxpccCqL2clsciAGzmaccPmPGsn8PKCKCCjA!svQ2P",
"annxamdFsuijsnxxKjpvnHulzCGlevjncmCBaHm73rPElvGncmbmmzCjcczHjzkuZx;akpLx!xxaL!nnCiFGKYmxx0GKdL0eljccCGvNCpcxTsd5zssidFuzeztjWK8CauucGrLCmzcezCu6rKmNfxpGrHKiFn0de8<JK!Y7J!&CCaHj!l!mCuvRpzeYfNvGnpHFuDi8cHiCxxlaxeTvacxNZzim0zCPyTRc4RdmGZQAckm<CpfvGvHaqjjiFWji",
"jmnG0nnmknfzazknFGvjjWevvv5<HnfrcF9jcpclflHPjMzYCGApjvWJcczCsvY>LFdZxznjEmz9Wd0Lm07KrTdFcFnCsz0rJmHjpYccZqYZRHv6C3jlCCpz7dZpcGqGz7jiPiiFiccaEv8-dfpmWTqijcCGZiijjiixQZlscQCGYeFxGezGdPkZdb5YvZcnzJJ88Aj7lGHbHnQaNjLmJannvmjZictNvZABdizCfjdZvvP7jech!CcfiP3jFhzF",
"jjmmidn0mdLmxmkicCl3cP7edcujpCC8vcrlnfWKHnPHcKjBvPpczEvnB0cPCcdc0xzvFnmmJzz0ZnjLzsxLdQs<cQnnap7vQzGrlpjkAdCGnZQ2anp<uvBtxGmkGErzzi0iacJFsfHaCi<-m5dU2v577rEcJuz8ia0H!acCljieKuCFjjaGxmpNpA7WnGjCAkPe>HaiaGGKWWz7WkzzaJkmdHdm3leQTZ<JipicdjpmjHYixvCZzjatcCGfPfiP",
"jxZnnmjxnpmZddxmHcn<nzsjdfCujpvzjnzcnCMzJcCEpWtHpH9CfmCHGvvAJpvNxm8unzfLHpapHkHPmimxxskFxHdmc0ZjidjvcTpNTcYZcYRpuczrcWdjcIPAzCtkcue6iaJiufHa8u<5EekQ>r70jNEC<xuuim50PJTmcprucdcCoaflenfediiUZmCBjjkApdxdxclfmKmcGjmciaZHCvjJtZjjfvzjs0fmCk7dcBJCx0!HZHCjGfC8askG",
"jjnsxmnHm0maxnjsCxzcejrJxCzCvGnjzuYcjNnFmcWEzGcCWE0FvHCcplJcmcpcWizdiGnQHJG9GjsKdmKxKfikmPcmfdqcc6CujCNcPa!lH!Rzjlz2jHGMHGpjtizCciiZ8d!cdiCuCa$>v>pva7dZbiQLzdx6vc6ixYvHj2j7njqNrpGAZtcavvpRbzl4xxrpqzfzjnGHAzmjZFxjkZzkcCdHGCBQZcdac8mcczezbIEaz;HPjCjfJsImqcjc",
"kjmkHmaGmjFjkmmmvnll7cpHjGJxkzkiCkHcpfkCHpPNnjGiGHqYdYAxncKCkmlcCE6CzG0WYxmuxxZlmnGindxmzIpfGxjHN;-dGNnckGQZvc!afplGzvfCPcWGtpjjcG;v7aCadzC5uzuzjjxHje7jYe8ijzm@iduv5ECjpraBsfCG9efcZkfamfK8zcCyZqz07eb2sZpnFHKaNxcGNxNBHTCHTelmsKzLpjQdx0caCBW8zPTljZrmZH!ZiHxc",
"cFc0GppGZcmmCZcxGjmH9xjppjxjckcjpccNlYmAiFNklQzpHnmxCZkdCxKvjdKCGfeCmxmPJ&j9xGmmbxHaFnizjixjnimFvlpnnbCcvGZZmllpcdjGucsiGHcDPvAmFcpvGGdpzCxdna5iGfnFmnkzGxdivai<dv7cx!dk9z0Qm$xxKdbnmnt0mcZmmdxpCYi0avFzcEckCjcilzjkGzvlFjWHEHGZGAvAPevlitscxZC0CsKejY6jmEEcHCmi",
"xmGcLkmFZximdxcCccdmipxxxdsJkpd07feeCklAJcAjAK-!WQb2qIfzfccucqCiHjNHGjcHmamkmxxWdmnKjsjnjujmanxzYzdCvNfjbvPcdmcpdfjsjiri=mApKAkcxv<9kxZkmmamxx02ia>dmdmjGFzacvizEdesvLx0dmsHizHGxsymnnZ00KbHGxc--znjFizjeKjrHl8zcivxkjizCzacjkrZiCfYGmFzmcfCCmKxijBdipjCBkc6CaQi",
"cmdnpcdCczxzmmGHGxxakjljc0Zd0umjucvfvjumc4WtZYjjDCjvGFkcZjCjkpcm3kNsvm7HJJkiHxnsmamLmaLiEFjGKpnaG7ZfNxbkneJZvlPAvrpeJCjFvzvFmhBcGL0<jmmmmFmmva008m0iZJfmi9dzdmmidvax!H7njf5L-2!J<dmTnix0YnYLGxxa<aL7<jcGvK5Fmcm6ljPmfvxaFEvAcsGZCZsNkdzmp<mCCmsu<pJziYcCHxGmdkCK",
"FxkjjxkmZFaaZZckidxcdnxGpsiZi9jiacACsc7mFpTft9bfvLnZGkacHjccmlHAvCmNcfmFiTmxmmxW0nnmGjzzsYajHx0jvpzkuckzGiNmjmvkii>5JcpfnrWaCkAzcv9apZumGmdizi000z0HxnTnEdvxvFHGdYrcQn<msL;n$e!msgFLK0WWLnmYmxa0>vvuanCcCGiEGkaFpvGGMlFGdlnJjEjnzPfvACcmHpFCCfsCjxvkCYZiYxkKZkmn",
"majjkGpaCmFpxxvzcsjcpjcvixpHxuiaJcAuFp8cN0!xcZvJpKvnCjjkNlNzdcZBPFvmiFmLmWFjmndKknznFmamjjpkmxsxz2vzcdHxvpvnvavnaa68:HuffyBaKdZpEp9ukkA0jmcuzmm0zzzmniZdmHJmxdz5avCC!Fi-0s6x2aFddxman0nm0nmCpkx2jCerzGrszCfTfl2JFemCjzzzidlc,dCKHCCJKmple2C7sCAcvmkGxHJjk0HzmKkm",
"xipxLZpmjm0ievvanmGZaHGJupWmZ8mvYiHHkzvjcjEGnn!!lfjAFrb<cHHZjhNeWYGEzcFZiHPnHdnKdzmjmnmxmLjmsx0aC7CYjjddpZZvpzajzd5pxnzFmjumPzFHK0pLu;xpi00uasYGzxGedxQQWWm0LximzLd5YfivmZ0i0m!ismimm9jQBKGmGYmuJzHGrjejfmpmczvzpp7mFuxQmbCmdivxLWPGxmznk0LrWksiiavrPjfTrpnmmLmx",
"xC:acxjkCJxaxdGJlxjadjcGuuxHzjiiApjrfFcdvprCKajPCEkbjcv5ZpZvClmv8pGaavFvaHQenjmmmxZaFuGWn9kmGmnndC3CavjvZpvHxpvzjpmmzFcSuCJWllZZKKu0Z0amGGkuFxuEJzedFjWPQmjpFkvxxFWmsCdEdmHd5xmmxdmdxpYEnbjjmEdud7LFfGKCappvcjfmpF6mFj8vprYVHjsiCDYnCnrZvcm3Rm9ZcmGm9CKTmnsgFmid",
"mL0ddiucxvaFxmcCmmdmexxx0n0Hddzxz8jkjckHcj3GjpvHBCffaarpNmCHZedivjvFcaZxFYJjzajmsdiiJajm6nanZm0pxiviackimrjemnnvjfmlapum7evxCQNWKH<nnGpdmEckjxzdi<5deninmn0xxj!9mcLFimxBJ!!5#ix0zzLxn0GHYmpa0z-pHiavdEjHmirfrpm!rFjmvj7bZbYmpzFcu!pLCCfjxiuiCCsicxKLjaeZTnZlskim",
"mziZ0kcixsmmZZ0CnjpiiCcpuinkxvxW8AdkzjHKN8rGlfGnmGWzmaazAGxKxxpTFhQvGdmcicJpddmHCzudFcdCajpLu0Gsmazdjxv0jucaJvcdpjazlJJZeGjmLPcmKZ0mZisnLjnnjnjs;z605ndmk0cpmW9xn0EcuHxxmpTi>mm:GmCiJzFcpYpClyadHPCfzJvnjbaGeeHmrprFCcsvzNTZrkGGiLCNQCFjjGs0GpTrpsHi1pzHgxmcGxHx",
"jjizi9mdpCc0Gcdmnccpmcmzdds9nximzGHipkNCDj1NclCufFCmImkHZncKjZjKPcNjceCE6zvzniEFnudddj0z000mGZi2vuGkucmaFvcvxxxuFztJG!vd8WGHnvEGGG0pH9idxmjmzjn1minzFd0i29p9YFF0zuz!uEn0d0iK0Ym6kxNFZTdlFm9ni00xLjqCmlWEmkvPHdPI8aaczu8kcnRrlmZmZGYcLiZiCGkcHZHaxmaxsGFiGkxkBHgk",
"dJidipkjxpcdxGvindmjmnkjFzaGm5xx<zCdfizEtrl8EdTeKAtklGvHJFpQsYJZcYvlvsxcjvmGniGHmKxiddcziGnsZnsHFazvxxxsxacCkcdzczFjvpu6rCCcedKHHn9iJxkcnYnnzmH5nipG<ai>xH29GY!2zuzzdY0z76dQxLi0ZjmGLWckZc9E<0k0upaFel0xjppbijkNgcJH5a8pZPKms8kFHQYZGdjJisbKnLG0LmYnj0dZWzjmnZiG",
"pLiixmx0mxicCkpkmnmCpjdGzvzmpmE9j5iYucApBlmPb8HvHCGBzlkYvmrRpCaDcTCfN7TxWvdjpmxxHijkxGp0ii0xn0i0zjcaGFmmzpZxj8ckzGztvd78AppnnkkvmZj9C0kcmYmmnzmixup0zm58Hc0ammJaii0u>Gz<0GmQ0nmnxcZJuIcckc@F9d99pFdeiilCYNbflGGLjvpveeiEmm!Acz8ysJamHzFHkcHcGZjBmYskmnm0midFzdim",
"djmudznLxFxmkppcGCmidcYimxxGjmKjmjfcucutaEiKKGKzKxpCndvGkzjQczjCiJGjT<dCGCmmixnHCdFdFdn2mk9Tnm9<ZumLjZvpivCLsjcJCHttz6m!vjdYRbZNZGFGcpcxsGmdmrZabKi6ausijmuknKxj2x0i>JF>5zmLiGYmjzjaecpLxc8Kimi<uHW!7ulGsnlFCbPcmDxGGvFLCvHzHcjqEKjCKpFimGkdnZ0nYuuuzJmnx0dnmxmm",
"xamdmxCjjiJnGcdmmmEzxCdmLxJminZGCr7ziksFujjlGmlrWvvEeepCxzdTupzFcj!cpjcipCsezGmnmjZ0pnuunupmnpxdviGcvzvCsxTZasjCcaaz0uevjdNCPcnnzGnJjdmmnQFamdmCqJTujinzjjGajLiu5d55-in6>mmZuFFFFCzCxxpTcz0LCGF9FuWccpipj:AZNsKNCfxuvpallvqcdeKzNKsj!kClfkcsmIpnWsLmHmnjmnnnmHdm",
"mpdjsLsnFicZvGknxmmuCxYmxLzKxkpjgvjF5HjafB>eqDz8KlvGFCcnNjvTpdGKhGsNevc7GPiinHnmcdmcGFvd9pjlj9jxvYFxpjdFazvFjnGcbevp5jfEpxvcFQinxPxWxdKnmYxxZznxnGF5FZm70nj0sEZie960iix6iimFujadiLxmxkxKn88WCG9cE2CZxx7jc7nGHzSYGnlezFfGCzrP=mmdJZaNTviiqdidmmcsjnjxnunmmkdHxJxG",
"upFndmJdcdzcvxCvjkZdCLn0dxjnGm9dmmPCauzcH4pNcRd8TJpajWnWakdGiYFPCZZQLeQjuJajxzmFcnmdCjdu0LFadFGjcavGeajckiz7SccpuMJFafkzjnFG5ZvCmGjYz0YnnFnzmkddmimdCnLxjmnxmxiz<>99<>d<nimznncGcmdGmnnGm9dyGL00j>LinCrjp>GmpvMDmApGFlmvjJbAaBHkZZaeTcejxknWAiGHmGkxZsGImdpdFxnm",
"u2muzmanGCdmmmmACncpeczdiFdjGm2c!PucZmmc!YxchTmzxvxWfajjvcC2zraZFHmfnZdKp9acdGzx0imkmjc09m,ddkYivimmimjilcjxjmCxpHnfY7:jjzzG8FFGZmTjCecZc6msCxmcjdmdIiFsmcsLZj>xiLLa#pk<HzExjYckjxuzvxJLammdGGf,k7pBvj:mrfnZpjAPvC0jCCcYaCAe6CGcxmG0LWj0xsnnWGadGWmnpYCsnC0kCcii",
"mzFnnx5npamm0CspCYGxFdjnmmkEk29Gm0dviCFjc7ecaBmYPLlQemkYm<vxdzCKLxnPdmiLdemGzFzFJdccmnG0zmpdmCLuikrn0ldjccmxeFfrzaSiAuuFszfdzHHG0ZmnjYCHFxGzmmdmxsnkzsHadLlKK69Hxxjd:Y0<Y0YjdnLGznxEcdGGm;kiHLb9arCYji>szAvHaiZAijjdfdlGxJmczWkkZaKnmHajmxHd!LGnYmHK9dKmjkmxkGze",
"ZmaapdpnmjWcCncZmnZCFxvaHFddc90vcvmajvpcaai7C!vzpGGvZlNxH<0dzePCLx0PYnmP9kLGpnmC<GddnpczcmimbjYjlZjipcfJiNCixGxprjFqGC2miYzpZzpLdzdnCkxzCLHxCxxpt7mdxjHiZmiQ090dm0axum<0dx!mn9cYC9zGmzWxzim0LnpdcxQxixtCNACejvvjeHzdszxHGxKCuGmFmkT0GH0xxGjkW0imLxjjxKKmk0bcijid",
"HpmnGjemW0HCHZjLGpkcmcGpYFmxd-GacvdCaxHEGCeYvEGjjQvcmzKjvrZvprZPKpmJQni0LmJkxcmviapdkjdF9iLjZfKzivfcdkxGcZcejBZ6mtbceZrCnKmGjrKjnumkjCicxPYsvxxckxxaxjvjxCcFd><nj2mZ<i;0zG!ucd0YG00mJFYmcxGxxv-i07CcpA8jz-cxCnC9LYCGGzxjjKHcHdvvnmHZnm0zxdKsLaimmm9nmimppdjZmdG9",
"c9mmxnsJpmjmjjlmcxdcjjGddkcKpikC7HdPcJ<65Zp@FFZ8KYiZc-rdvck0epPzGf7n!Gb5HdmLx0ez>ZxxmvizmCxHYCmmjkjZjjcebHPzpCfCSjc0AZ2mlrjppzcvHzLdc7xHLjYjmxmkmbmpYdCWKBmcG52dcuKImm9dciYGJmcLHmdGjsYcLjxiim>dj6vxlxum2iH5kiNvjHfcsx0cZmxLZLGpmLHnmFau0nmjmjaLmHmGijYpmkmmGyma",
"mnjHnmnjmGbLuCjcdJLnK9GcJxmGudCkY9pmccvkiG70zdvu2HYZ98axxi2kzeLGx3xWGdummcjdi0cdpvmvmmzL>j9lmYmGiCjvsCsmjCHvmGnGf0NnjANr3zCcZNriJxaqjcHdxsm0rKfxmmYgnm0Gmx0zx58dd0WZGm0ppmmEajpmj0LGaHmzdxxxxG0knjHHeGiPZ8FvYeY0jQFjjF0cjZZGdQKzsamHn!00IFmnzFsnLGmamjmkjdzA00G0",
"00jZjjnjjjGnzHndicHkji9Gmdpd0dEjlpiAHnmaK7i8lmkZ@vJp0evdezvZkZZGLQuGZidxz!L0npZdWcxcziLnpC0KZAGCxxFkpjZCfvKxJffY8uv8pxFYEqHuhCppxnkmkcjCJQLdnGjpxZHkSLmmnjrFm8Fmmc!ZHtbpnmWjZCkLkcLHjxzxdxiijd00xuuHuiiQj-BzAjC5>JlfcHmnakNJGEZFummHmEFainmsdz0xGmxmjnc0pdsxmCGd",
"9k0FkFjnmnmmExcmGKmmccikzGxGdmbpQsGJ7bj*puprLuzG-TrPneJveuJGxvHnYGkKsinHWWHdc<zxLLmFmGYGHmspHxcGxTeHZc!ZFGQjCcCHCsaSGs2HHzczcGa7dmZGGeimmQFzjmxddmZGmpCFHimud0ixziGmmpIjipYYxnkLjzjLZdxzvxF0xnxmcuCvFamHp-dKdfS5vPCpzjHjJ9lPaZLcjjHmnaumjdLsudGunjxppmGjGNGjidxe",
"nmHmnHGmmZEmGdmlxGccxaiCimCkYGjjjGHLzvG8cpp6ZeCm7i5MzrLYajJxcGqpIGHHsdpLmGkcx+0kGpmxFidJmcmmJdjdrjcmCBPvkjPdNpvzucNGfFtmiikzCkZ4FHdyxkGmmYxdFmizzEJWjznQvxm0xGezmnkmHxWxbjCKxi0nCxmEEpxLdvcmj0LG8lTCFacep8izpeZm<3plCmzerHvW7cjFpspFF0damaxJxauGZzaZLmFzxAHjx9md",
"njnFsH9ZAjnkCmmsxndcxu-<camHdnpxjCxHdHZjCCjp!rcYFl<CCVcvncjlZvdNmHmaN<aWdEjHd<md0mxxc5GvLjmcdkAGipajdZH0GpCvnHzrGCBYZn7csjCC0cCeNmxnYajQ0nmnznninauxFnsWFFa8mF<a0axnkkY9dGcZjujYpcaG0eFFvcJmzdGctvHP7cmpZsBeGaJrKjuecdl6mMCWeCZNmpzjkdzdLdxmzFmHx0iddvzxkGGjpLka",
"m9nnZWnYHuj9jmZdcmLmLd>mJ0kcYjF00immuFv8mfZ9WiHjUZYc!HGGJxxvczxJYuCfsicT9Ezdc<nm0xkcnkvvL0EZGxnjxdzzENTZcGKcniCnJaEvEAmWdjvxpsCdCinnT0xmikmddmxnmFazmJjWxauuEx0zLuxLnkYk9Yinxj0ZCCmLiu0xnj0dcdGpTiPlWWxcW:tFgpvQHHmqrFGvcZcYicKNmLnndamaEiummZGzdFcCzdczxxjHsZxp",
"HmsnjGnmA9ddZsmmxmJzmL@FCzFYmii9<ucmcpC8lHK,L!GHQZzpZaxcZiddmxaZCKiQcdjTdLzZxieiECidFdvaj0CHmxLpxJiCxQKpnAGcFPEfCucmccbCgtjGxxu0m;nmIxFPsmnsnnJm2aajjiLmzdm0Ju0ajcmP00YpiYjjdpjYjHmjcd0dEixzpzdFCCtevGcqvdxJjjxPP!GzpdF8AmcRaZkaGmmmavzdJiimjzmGamdzsuzzFmkxpnm9",
"mFxnxbknpFKsmpdmmzZFCd<0LGxJnd0xeidxdps0pkQhR!Hc!zuFpC7LK0peecvHJBjPZ3kC0GmGJm9xLxaxvj+<G9iGvaAizzkCdnr2knH7ZxclGCpZaGeicpxcZuF:ncikfkx!uLsxizdxmHFpmHWGveu>YcamijxGY0F9dmdc9smZpGxL0i0zFdxukxc0QmH<8QPavctGnZdvvzaLvCPvGiGJrmGmdHdmiazxvmzGGbnZdmpidmFGLcLJZpne",
"mzJCxH!ZKjmpmc0ZcdikC0ax!Guxc0zC!vHEmieimAQ0KGQGc00mu!8Tva5ZkZvWJcGZJii!<dHmEi<Gexmmav>mL00mxdNxvcHccWGrcnP7cjZdaHGvxGrHCCHCCxP8qmKGkmnK9jjkjJZzxGp0FFjcc0L0GiivpxajEiH0ccnmiijjJFGFjL9nEivaCpivJsLvFzWuHpflgAkaFvmljvPcmlWPnpzbmmcxuiuvxGmixpixFmf0zLHpHxGnCxxi",
"zjZnnHnZYCndGckmcmcGGc2kuj9imdiJvxpCdvF:CDAN!mcCvYixx!dC0jjxrCHvTskZZeFm;zFFJmpGxLGLvm9mpGvxmxcGFpzzbHvjNCFecpsixjvCzvvFcfpjl8!2jLjiHYmW9L0sxnadzFx88iFzHxJ;JiLxdvmHxmmdnxGiacFJmnnxiF9mZxmGjkakcvc5zaZavsjpZGmCxCYaGKijxaxKangZyKmJziFvnsvFmjpCLGjpsLmimjkxsdFx",
"msmbnLLGYmc0nFmpGGLimkkcpxnKK0imFCdFGcppzJCNLQx9cuixJQYGPGn9zvpYJGcPj7cJ>FLmJdi>ExxjFEuFumLxcslzGGamTQjelCAkcGxCCZz8zELFlc2ccCmjPCGcz!FT5d0k0knd9mJJFxpzma9iGuGFdjavCkmujmCm9djjxLixGLiFLzxmCnxxZccjcjcpv6CCBmdzGEfWzmcdapCHezzlxcina0vGdczptZxcjHnxcZxFnxxednmj",
"mYbxsFISQd996mAdxkxmmFmj0YmHL0:KmfmiCxkuzx!ZIjC3eamzm<pBQrr2pCmKGCTHiiiYzcFHHF5n!dixmHnm0nsnzpnjHjxcLWJ9aLccGmYxmmTdmmdsiCdncHd7Hu3JaNKPadHpaHBksdHYzGrxKujjJaZGxkmjnmjinc0mniim0ZFG0m9nLdedmcxumaK7GJmued!LJueaGcmUjCdz0hmcuCxZvdzJukiHsj5zzCGpjdmfmjjGmKucdjmd",
"0imzrxxxKA0OkmGiGxLLmimz#WuGL0mxWmjjfcmdjcvFCZW75f70aqk!rkLBJlpHLJZC5vcEizzzandimnzjm0s000nLmdmdpdxHckxauYiKjmdnxmmbFGH6kKxvvYp0kfBCvjzZZ0mxGixLidkmZCajZCJeQiGcizmnajk0mxFcnaaLnZkFampJGZdmxdsxFCnzImlamkLZHGaEJWJajiCkerrCi0aGmmpcmiZCgZG8mzjmEmCxxjZYmmHnkKZd",
"ZxPmiGnksQ<+0amxsmFcxxA0xjlWWzmmZ$0nKmduG:HcQ!!c8vpZ<GcP8FdvnHpWkjcG0YfjixGknd0,Ynxmxnnn0nnzZjcc9iJxzdmzpccKWGJcpmpfkW!xjijcjvsaf9vlfjjWv2ccsccCQmi7ECiiCcajLdCjpmdm0mxFd9FmJ00mmYZaLnuWpuxmdcCpG6TjQn8z7e!JaCsjCFx6T0Z8HzHCjvjcFmZmZpGi0kKaGjxxHLanmnjn0mZ00Gc9",
"FsnmnxLxmKz0ikxzxdxxGaLm9<YWWjWT!0nbsHpxCuZqvFZx086J0aiW0jJJzzrx6pmcCHj0dxzFHxxd0mdxjxmijnYxFkczdz0HdcGz9nmLWYFJ9xdHfzQ0xkiKNlCetXNkfpCCCajjZHZWckisZijWPTZcncmx0mazbLFnp5dcmx2knFmuaFiLzFxxzmCNGzPavkvdC-QiFjMzcjLeddxjdCiCxLjCpGxK0zCcsZEivmdznxHxpnjHZdHxmjmj",
"J9Gkm9KnnGdnsxxmGxakmcLi20Hnn0nHmi!nmHjzQ0j26jFm7dJuz8fpcNTFmcaJaqpcmZCcajnmka99ZFnnx0WFjhjjmZLpc95dzFcxexn0mJnFsnxd0mQiin7afCPajt!jcIcQqiv5jCccxd7u!jdjHZYGKjcdmxizmmTiZuL0Jmsax-cd0xuGZmkkFdjuamZGiaFH4:vvKcmqv8jcG0Hip8jxccjvdm0FG9LdHjGgxcdxGdjznnxsmHmxnTn0",
"nmYnmjm0zYdKmdZdmiCCacLj50nnZxmhHdZAnxLEHZlpxEJF2puJaWevkcaxzkuZYZQmjmFHjFxaj9idmHi0xiF09kGc0uLcZz0axv0zaWu6nnFWsnfmmTPHmmnmv!seHpzNfaHx7i3jFzz26d5kpAa8L0zmKddminiamHim9GWuGjnKxcdm0;uGjddLdii0xnQjz8jzi0vkfpvcLCvvv6ied7ExCvtc0muYvpGjfCxspHiGnisJnHmdki0nZHKs",
"0dmficF5iZnjsai0udxjJpZLn0Lsmp9kQsQmFiG007GcGdidijaG8Lq2vmZlpxzp68zmLmEpGYn0i0mdzmjdaxF9niHmxjmmWExdvmpxx9GzFJ5xmk0znnYnmukxxrZdC4PrvJPerYNBjvG8KP0qPmicHmFnmdmjznjxmLxiZ00pHmjixjmdkdpKiZFdxdz9yaGmu55mE<azdNddzGGacPZrjdNvijcJjl$cZfKxcdnxinGfnnmZFP0pkjmn0kF0",
"FxGLmxWaiKHxsmmi9xCkjimjkxjjmH9xQdYmzzmJ77ncC8d7dCaGaj0zcEAazvZJcFadKY!mGJj0iamiZFjjxFdaGdxmjcCCxGEiKE0G9eLmm95inunpmpLmSxdZzzRaBqCqGvPCvPUceNTqHk80mctCbuaxFcmndFdzGZpdu99mGGxiLipYzpdddZFJFci;faH7Fad5i6aa8rqM!vzEGRj3CcdjcCpvpdcnj<GmmxszzxTmsxnmp0mbjpnZnjHi",
"xGQjnfWj7Qmdix0dccpkxcix9bifZZinTCTmpvaFaFEdmu5a<c8uivqfp0FvpSCv0azapHmxmxcaeFpiQnpxxjizEixxpzGinjH0mZjj0FdzCi0mnLG6mkWmxmdcx6Q;HrjkZmnmmiNn7G8jebrLmnpnnimzJGzjixpnmQm0dmYdEHuuZ9jxjFd5uxxLaza0NrGCdc:zziApJ7nfzJlaaL8ecaJvmpmGdZGcsiKmsYgdzmmjmm0HinmijFncjjxp",
"iijmsnm0dQTLsamdZkmdxedim9mmLximHLQ0jviFv8FJziaemv-7zczvskGZHkRLiJanLpYcamxcFdixkpxmW3;6!j9H0nFmsWWHmH0saGsnz0ijGmbxnZKkvmv!ajI<CmYpnqIalcYfjLreind0dHm!bJxaWJms6m0ZdL0dzJFQmJa0dzLGdGdFkxGvmxx<E5zj2CFppav88invcC5aT!u2p3jZZvf>mkcdxsGlmFdmdmZcKmmjimInjkHHhmmp",
"PxnmsnWLnZ!x9HjKmFGdGamdZ-n0m>azEzvvFuieaEEJbr2eH7via!x0c7nllLFvGFiimnWccccuidmZ6mimzjj<HmWnxHFxsmGHsa0HeHzZdi0sPIxmQJZjjcjH0uQxzdTidkcc<HxxeQiudGrmPBTFmYznmQmm9mnxdHid6!GmYnCmsGHxFxi0ExmWviv9HvzjK!cHpqFzjzFjNae<mGfvfZjmjjcCB0cHiTL9PdumdLGdnimdxdTmj9mikypd",
"jzxnHmjJmLKHnuGxccGxcicjm2nnmHmacjjav78pu5QLlkzHq-zlivx0FdpHuxEEjWGuj:LjJFvd0kjsGnHzmkjmd!nmGnmzjWzpj0nPzKdHdudi0ZmYjTHLYmzCa5QxZZcd0mgpkBmvGciccidFmGmjFGmazLmn5mindmY66GHmmaiZjxdmzzdvzm0zxFzGJaxce!Hc5cvCuF8Jvkrm7Gp2zcpcZCJLx0xjxmnsTsuxpv!CmHmfnnH9pjKuxdni",
"dnFpnzmjmLim5zjsjGcjudnTH9ssn0mjzvZLu5zv8dPGZFcHfqeWFHzovcpijaHHHni0ZtYmLxxEpajpimnnYmnnJmninYxC9L0diidHmYdmZ09mmmkiG0xkLnppd0maHcC8ajjviHdCQJiepx0pdKm9LLnm0mxm0n0dizKu0mlpmbxacx9ujvxmcx5uFxmaHdLi7J5miazzlAfZF4HxmjccCNCfpvYBKpmmQmQmQi5HdmTcmYnYi0idp9LfScKc",
"fmJnxEHnjWnz<mjjujcixujpm9nZYQjmmJGJFux5fp7kKycFFldWCJzzlpkipsvpZiKsxdpGFxzCcxpcsknxGxxmLPrmfTxm9x6zisdFL9mbQuiZZmxpZuinsxdLYiWc7pZzmvies!kFQPjrffnp9Ykdxmda6smZaF6miLmd8xcJmnsmm00xvFG00divaaxvvavd>zHKizzbaHmCsZ<j7dLqcCZcvcCAdncd!mG5m05ZCkZdxnmLa9Hd90mmbL0j",
"njJLddLmpFnjGdjxmmjnj0d9HuzmGTajmdmQavc8GpGHbmjHb8pAHTHraKpJzmxm9GTnNxLExFjCCdfcnFnLiZjnmnnfmnFxa!906jennxfmLFpmSjrxdmpnz0uxKdmicmcepjqiBenPrm4cddiKzmnm0HFninmdim60dKms0m8iamnWHz9GzLGGxks90aFdv>FzdZmCZxvcCakZer<cxc!4Kj3HxpcRpcGjnnG0Hxmdni!dkkZLpxZHnmTbj9mK",
"mnLmJd!mJK9GGnkmjzkjdmd0m0nnHHniFvvJuFins>pFdjdvv2JmenrpCC7zmGvcnZLmZxLxxvcpLdsxmndZGmiZmGF9pdadu!mmam0jmankKmpZpkdf0amCn0GidxKijjlvjjeekimP6ItqnINNmKsTdmFZ2jLs0F8caCxxdYsdbxzsJk90vxxxGmk0FxGiJaviucararcJJkBCat,mczdLs0HHHcmjAkmLYLZsHmsxsxWmnpHHkm0xsnWpmYdm",
"skjmmcLddpkAmdmcpjdkcvxxcFGmHGmaaJuaaFxvLrQGnBmddeBm6c7AcvTQGC!mpnj8d9iCzmxaLaaFHxdYHY9LnFHxi;xs<mKnFzanmWCCQc0Hkncz0dGvxFEjxYJWac55bjppGWANrl7zNdfNlcZPmkcv0ujjimnnimij0uajmnjZxmzmEiziYZavvvQqaauvu0dcHraLGxzCxjimspcHjdudcJCicamrnkniGd0smmJKjjmnkKmKnsYuxij6",
"Hn0mGn!iunmmnxcdcHmdZdjkcccdYnxivizFvaazFjQZxQtxc0Lf<AppaZCVvcTvG0zdHaGF0zddz8mjmjdjkHxHjKmZrixm6Zmiin0adxmmLk6nsfFniicccxWijEQH08vc8a8zHAVkacrxxcdxvcGmscfcuevusnazsjiF5mnmisimkFjiZuiEH!pqccjiidjzva0iipzailPm9rdHmxvHpneLjvHtjgxQmkmd!xdmGCQjmnmkd>ndmcxn0isz",
"mdd0nu!>kjsmmumndtHpcpj;dCcj!Ks0Fi7ujijdLs!nLsZxm9x88BikscjcaNTis9zufzuLJdzaxx0JpcjcFnmWaZsmx9msa0Ijaz0nJCxcPCxxnsGjdYzzdkFdmZL240G!ijeekUVeZzRnmCuvCYF7vmjJjjQr0WjaximZpmxHnxsjjGHsJedZZKmetdiijeacz,jvc<cQtbAz2k6kLCgcC9ZLmiNnnimdnrTtjFiZvzPCnmmLinmGjvvFj6xn",
"nHfzCLQ0ukd9daivxjLxCm0xpKKumnnaxiJumu8mjzFJCznmFdaimSjsC6vJCmGax0zjJGxzmdm;an0jummdnFdvsHzldxzknZLnadzHcZuCACjjGqGcGWnx0dmdjWGm57nPzC<bHdYpxbRqmPkClHZqjcuGPjjjmmmmenZnnmxZmmnIpFmdidlxLYcvZcK6Yu8!:00N02cFajcMzm>FjvLxnCxLjeTumKsmGFE6FnfaKmYxbiHmHZfdLxaWi6dn",
"YZdCFiTAWuaGzamzxnkeJZCxLAZppHjmmu8xJa>0minJimjaPZvppC2se7kFrN2iz>jYLjWdmaJ0icxmCsxxnmdmzj6uciFZJxZaimmmcFjVHe70GimmzmmumaGd9KAj08CCaA5RHBkkYnkbsjKAGkfjkmj!JcCpmxeajxnxnmLmxGm0ujismizmmmz2BxF0C7d0m5xveFlmevPvc!aCv6W8jmiHFuaasixajWninzzWCdv9PaFxa!mY8cjcxKdj",
"acdxKd!WjGdpxJauLxsdHxjamkW0dJ9nzimxmdpCJLGWsj05cCpHiCSQc*rqjaFxF0mQHjYzWzW6vcu5FHiiWafmjmB3juixmnixzxxHaWvHZxidH0;<0WzzcmvCinkC@4QCil2CjnpcjZ9lcClHjBvpgZcdzjfjZzin>ninm9sYzims0m50c5nmGKcuicmdzdm9k0tm8plC9Ha8iQimcuvzmAd0zm!aa<GadrzpnmdKCLmcJ9HLLWzQzcxzd0mc",
"kvcmcxBmGEj0mFnmWmcmdcaak9m09HpuxF0dmcvaZm9EF995m:mx7vNm8jWFquiiKGEWjGJaniC8Fixmzm0mF0mLrZdjPjTcxnmmenxJCkCzZsYfj9<0aHLxacCpiLjCe9Zjpe9rKZxJlbYt4ZmzxNCjHmxe$aHdFG6dznnmbLnmnn0fsG92ssAnnzzudfcx6ae3CccYz8MZBjmBff>Tcmq!zsvaZNNCHcudHiF7mpKxCGaasinzW0xmQcpuHfLC",
"dHZkmzQKGxjjGELFFacGcijiZ0x00HuikmuGZkexiJjnmu5<p6jzpvlC88cjuiJvFBHdZTWeL0mJcixJxL0iZ9jJCZixPCNimEZmzHjGCxzpCjLfnp;0pLmekxmcpxZa07djKvpaZpvGzNNkflTnvCCGkBccdcPjFGiidJ0m5nkkmKiHxkddidndxmit0HYppaCdkdCZf7Bkvmccr!7CQizvjiQcHcmfxCjzH6K9mjLLm!zax0ajn>HQKGFvHL7H",
"vmxxm7QRimdij!navmmdjxxiWmdGpjjaEi0zEEumjIbdn2Z5cmG0ZiFmaimKz0Q8iiQcsdYCK0xdiLd!Hk9iWppHzuPumJcCximdzmGGKxCaCevinm>pzWJjFmmuj0Gd9qmzklpuvHeamcGjBllNJHcCHJvmPvFcjm0mmWmmc0cdGmc!mnimu9vmmCrlqBY>8GrvNczcj8CxeGCzGzzvZzcarHmjvF!kuNbQK9smxCQvmWHZYNkxxfaQjcviJ00m",
"LnfvF5JQkHf6HWjnxxsmjx0jzmzpdjn9dsdmYGdmpnGJj:n<FvpcmmkjdiLBC0!xzumjp8mmYxsndx0!0m9mTsZCGjd0fGcFnamnnFkfLHpuCxvCKk00mJjcxmdmkpZ0mvCKdHcppmbrmpRJlinjZBp6LLjjCmC0sxmZindsxmmkmdmExp>d09FLLRWGuvG0dHvnblJz8d8G&7cFdEei8diC0mppjcCfSPcfJiCcpGQzjvqcZzejkm3eeciid0iu",
"AkclF7!cmY0Kd!jdCnjxkGdzW0zcppp0uCsHkFpj9gWmWaF9W8GGFmmzmicjd5QdF<uJ70cxsmsm8FdQHmkwxmfn!Z70zCzjmTmfFzxmmmb0HcxkCpdkmJmimxix0cbmapBZrLepBlvNmzv!IAmNvmsC7JmaYHZvamLHiHsxpGjkmkaC9k9azxxFZZPcdamvaacnikvc&eNi2zvcYYdA<zzvx6jLZ7PlmqRJl:mzCK6cz!vukp2dLZ2m:CczzGLp",
"mpNKvaQQ0GxzGmdijkmmenxm!dm0Fnj9aHiHpu0ndkSHE5W0FcaCjKxjLxEuuzJ;L0EdxaHFEmj5v0sF9!mdKpicCLvHCZFZ0LmnKQnnxfsaGdT,Gmu0mxJxxzxpdGZkjCZHcQptvHvZcpiKcqlClccNdjZdEcmdmasxin:HdxjmcGZAxl0a9mjmcSWzpmP>cjmF0jcaefPj2HCJkZcjeCppd05BvNm0kpkMfkNj7v0cciiiPLjkYk222JiFCdcm",
"jZHNczQ!znxFEmjpxjmxxmCLJpxjjnm0zJxFFi9xZm!zE9YZjFGLdmFxHmEdi0!8s:KuxnYQxaa5z6eIcmcadezjJQzKcYvmbnGnnFxaHpHsmkvKH!:nFjGGmjmmGuHZaCJBxZicdJa0vzdviFJCGClccCvzGzmxmm>H920mGZKumkynpmzmudFcimGZKdGjfzmzppH2HccDpmvmkZxmGLdjkdac2lvxvziuCmKs7jux:jf9HWmCPa,@7NTJv22Y",
"mvicvcJ!9dnammGGsjzpcxaimxjxssJaimimna<GbbEdCdWLiFL8CkxxcmWaG0!;i8mdxx!ckai6n<0LmmjKYxamFcWm8PZm5FJsndiGHinxmfHY9J>jG!xFCkjcnddcxlHGei90rPkxmYzhTcNZPsexzdCmzxjjxm0j9nsmnmW0cajkCGdmuumbaurzZvQpezZcsC9eGvdic-cBicisWrjjLicZ!xZG!dFjmxWx2Zpc2mjK5TxLn7ue$JJpFxQP",
"vHFjvC!Yunaz6JmjCLGcjxdm0Wam0jE0aCaiGpumFidxL0aJuYFsGYid7pjnm0m9a<imsxvFmx5udxmIndHZ!adaiiFmcvKC9nimmdnHKnmiPxdZjQ>nmYLjdaxkpkxxGmmvH<aeCC5CidiQt0ZjkvHZCavmzxCimpuzmamHmjFx0LjzZCx00mFxjaelZzzspvpjrFm2YnHjjYJZGmipJzzaJcjvv7FkEuauHGxzjLvzpvKP8xlv007xxfs0pmeQ",
"ccGjzj!c9EF0enLFxnC0zmdx0mxzGnEnzWzjGmpHnjWnG2Gx0zFzJJcc5adapiV>suajmzvLiH0;zwm!lAnfLe&CccievcWk0masYsjxKxZyZcmBpL2mzmYnFcmvcmdpalGxvZ9kcFcHdxH!v5CjmilmmvdCuLxizzdenjxmjFnnxmmGGLkk0cmca8iJfkYtziuAmHm2fvmdzEnF4ZdjGadcLjLCjHCuc5<cYxdz9Y0v:mpcCQekuNrdvCmsNKmT",
"dmJcHLnmeimkpnuGxjxjimmiek0nddGidWkdGFL0nGWGHXHn9jGmLxzFvazzL0J5cd7GHYGJrja7JjzWlttuKjavdinFlpJvevupsHHckjCmKbK9Kd0xmYmcFaxmnmn0RJZ:eri8muWJcClNrpkCCZZ8nCvccGmjdZW00YxdcFaxnx0zHFxmHLKma00EGnF0sixm6nj0nmLnx!mmsCddHkmkmmFjxqxfvlRjG!aJnQummx8iFJunCCc8FI6cCPHZ",
"ijdzLJjLaekFsiFziFxmimmxiiKfmHGxmCGjpxx5jGYJmuEE>ximdGdF5iEza8Wd5apPcCz!fxlrmCpCjGcHPcYcccpemFQviFpCqcGzbdnymfGmnxmxmWccjjjjsWjmjnxaaaz08ipeGnaRcCZmAGcnrFZvkcCknZkKxFLZmGxzxmjsndazndHHHxnjpmm;muxSxnk0mP0nmnxnZmimxrxFuG0ZHcCYRddNJCHviQ8xFiCizJinsez4injDQCcQ",
"9mKucGHLdGxvi0dd0jxndejanjkmHZYjmHFjz09niYKGu;EF;00dLzdmF8Eax>mmp5kAHVZdPCiaHpizjEjKcnCZv5avJZPpiHmlHcpZl5mZcrG8YW9mdxxkmjjmxZE!zaJx85S2lmjiZPjmvlBknZjqCczCxZFjmdmnKxnZKZmnzKd9!xdnjpKmnFJmGjJ0adsmaHjaHnmHnZpmCYmdGCzSxpsBj=cmYzxMmmNriH0mGmn8TKukC7pkJCTljCNf",
"YmJCFWLxGFjFimxmGmizanEi<aHxYfzGHKCd;-0janW0i0LE9i90dcJcciEmuxFa8HHmQxnmEmztFjnGcpNHcxfzpvCzFlGvxJGcJvjCCebHftPQZGGmacGmjxznzzzcJPJzneZxaGxWjFjAfjcxmNavjvzdZZGHnx9mxxmnmnzxxmidmxnxm9mmmjaxxxmppnnmzGz6dmn0dZnZmmkjL0dmviicNrxvD7Jxm6z8dk9mFmdCij05RC!:kjHvP3Zv",
"KCcmjLmAejixzcmcjnnjzZnxnsLd!FGnnYmj<0e<;mQ;00FL0FuvuCJddjn9dxE<eLCTG&umGGxdKFaCpvkCFvdvjnFZFkFGpxnvFCdjappJvjeZK9m0xcFmzjGnmFakzC!vdupezFGKGprCjdxZmYprjxZad0vxnLxAiLjHnjgdHmmznms0ninnmzxapYCp0iLnnGG-2mHpGZGKxKmjcmGZzm<6QRcHCeWPLpI!mH*mFLFxm003FZH1dkaKZrCC",
"KumnGZZncxzxddFxpbxamJjjmmanGpFKKddz06men9W<xxLzdzm>cLLzaZExxmE$0CduP0ivJaaxp>pcipHuJjZxujnuJzfjjYmxLxisvvzLazZdHuxjmxzmj0mcaLGjCJQjz8zZHZjNPeeHNNT3C7jazccpxdvJnnkZmbJGklxZFjzsznpYmddFpxjkimJum9LkjEza$vkpHxZnjY0diiCmKxcPZWfxnzpeHBCF0jnxsZi0Kr,9!LmQCjcGCZ8G",
"dGpupCCFEkxikkCm0mmmnCjjsnnbQuLNmmjdi>uHF6k;0izLd;GLJmcxmzGmdmz6YFLGcpnfiYCZr9jvnJPzFxjnjHvFFpPFdCniGxjCiqGFczamJZ2cKmJzdnxavGv5iEEAllddnmfFizKxjAvCHZBmdjxzcdxFzxznZjZxmQZmnaddjmuad0dmjjzn0ZEdHZ9nnmGdupx<IBnA0xCGckZmcKmcfQrlK,PfDqcjdZQznmm5nZslKenQrZC0:eZQ",
"mFkpeeczvsdpikxnjmmmGZzGCinsQdYP!xnxs5md06s<0a9a00GGammx9KmGxxdvmYW85cmv0JWCxrnZzvcuFnpzlcHcJpMpWYvnxvupkkaHGGzmGm9xFkijasZjFvi0zzJ0ivPFWcjr5emnbelmHCxxcpzzzdzzcammmxHLLlmxdnGsxipxa0nxnGajxGC-xxmLmdu5x>0kPZxGxKn8keCHemaFQcqp9FkjYfGHaJFxiuzd0RpZidHQ2ZGm28jU",
"vHJi0-jxj90j0czmmWdWjkhnFdxsYGxiWWdxn<ddiFx66CGG9pJmzxcx;GvxvucpFzYpGGEvaGdTvzmJfkHcvHfjjvpjJmjNTPmmmnvmjjcvLHQaIH<xZxjjjamjGsJxcJ!avcdppjvv7jAGGXfcjPGC3jtJjcxcezxnjfmmmbYFpKxiZi0imxcmzknFjGLmsndAmzHejckkjKnc!Ga7CjsmFjqiTe8fceY9WbnnuaWdd8Fu7R2QxxI77x3Dp!+m",
"pmn90Oxjj9u:uc9xcnjFaxFFv8mqmdvdnHmzmjd99FxG6ExLxL0FuknuaumEJ>iiFJWJcEcmjzjiNHGNJCFdkAKkvHjmBcCvWQxvmvzmljeCKjZBjnmdJpHxznmnGHa0vFJGHHjWnzzjCecbJcsWuvKptHvZcvjzajmKsimFFZjmnmnnaj0jYCvdzdxjn0mGKHnnmfmOjCik0AsC3m6Zs6jAja8cYe>sm2kTWdCC7c!vvasGcP%YiqN7pT:NiYlm",
"pdKF0<GmZiua0GdmCvdxxmKjakq<I!ks9Gnnxbuu<6xcmLzGxGaExCkzJuzJd50xap!0mWax7TvLCcTvkQapjKHCpCFjLjGjmYvmFjpCcBjCJfLGsbZniFmjjnJnzdzxmGCeldvGCEdtivkpGiFcvimcjQPHmzvHxJHpjmmVmnZunFazGaF0icmGiclCj0m0zzdsmdkum@jxxbcjcCcjCdCmeCtG!06Cp*lmWpzmEvGcxzzxkElG79p:va72d!TL",
"mZcmi+xmGp00zGdpFJcisxLF0d8&!xPsmZmjuKL<55zexc0miGZiGzzmaaaJz-av5dm8dJmZ0FvQFpNcvYFaaEGlpFvPGCKGJmuClmnaJjpcm2mkmnZLJznnxjmJnjujGCjreccfAC5HpHNzv7zCafjcZmFFEpvjjdkxmnkknk00mJn0jensmZmGcCpmpadpnmxkHCcml:jiKxZdcBZJrpfceCpcZZimf2pEmKyKvvJGdidJjR>bcNlj5deZJ08m",
"imjQH9cGFpa6aFz0KzGZHmmGxk2-fnQrLmJ9mZp9a0ps9L0EazmuGLxLuixGF-iaZak$0WE5LZzGzuMvz8vujJ8EePaGdcGCzJ7vLlGpu5iCxinfWxzZaxJjYmmYxG0eZYJmiLcldW0JJacvj55pGGCs!idcacxiksnTEnGmujxdzQn6jdpYukxk0pdWjjccLmn3cxCmm9u8LxnnNjifjckkzlZrNcjrrvAzcCbFHvFQjapx2c&TFZN2je8H>evm",
"xmmYG0nFmnnaCnuaHxkGinLmHst>cHK0LLnuYmd9ppc6vGdL6dLmnZGE>ixv58E>!pj+JaGFxFZeceLCmaWpQFjF8FcZJvQvnHaFmcfzvuvCGa7mQpjm0nnaHnmEnFxxdEvviZzcmKemHZceazz9uCjcCaaCzjjjFZimdjFxFmFidn60jd0npizpdzcFddmjkmnkcccanii7xkZFJjaLcCilcKCp1p7iijKiqKcAQvajiaCp3a2dzFv4Cx<Jc-7L",
"n0nZk0mKmjzmxm0zknndapjWrjs;KWQxGCm>EE9200xj0izE8duFxFzva5ec;i86CNG$cvaxc2jjGjAdlvvvHaaFeCcvJ0NGnQmmLnrmzclQmsskmkjZjakmmimjxma9J:CmpEzKQLvvcxzjcjizJCjzavaJuxcBHWmZZsxxanndmZdkm00mcaxmmupYCmmcGdnHkfGc7kvkcicvTNjPGrdZrveTvjACf6PrqPKvJFdajcCJdQz0aud6R556#c8Z",
"HnlkYmnknma0anjnZnQminnLTZf6pxxLZmn9EL<<50mzF;zx0u9iamdzj6xzav8<plx&vvkmH6HZzMGjmmpeQpiBiJCrGxzKGTvzWa7xm;4!inTmYInWjpknmmdFxnz:Q8YYpECFpPvpCCipPixcmCsxCaefjCCjjGZjnmFxmJmnj0mmmxmLyuFckcxYjFY0njLGvjxCjx0CCpcmcjzpjudkCHKHjfvSvrxdzAWlHFiczvjz5FucdYai!-cm>2!v",
"HZjZFJmmimicjjiHQnlJ1mlJm-G9d36Qkia0!Gp:;icummmH0d5zddzxxxJduFG>GCz-adqznjdkxFFmi8HcTCcYxCLcacfKLxvekaxAna2hzav9T!mBceicmFdjdxaaYFcY6vZGazxzHGvdCFZ8jHxzE00xvdHKK0mGAmFdYnsZmxnmGunxnmnizvajZkHkxkZnGksKmnanxznmKikmfm0xscIYGxjpnGmsnZHmmLmvxmzn5z0zaip=HvWcm5!2",
"ZninZeGWxGjnxpppHmAH8kCxx2i2s sE>pzi0EG>CiLcJuxd88iidFdavzxcxFJum2T8WizFYC:GjJvvjpCjQA6CdGvdYazZvvmCnzjCFjaFPfCaWmkKc0jdiuHiimnuYdCxeCZzixGzfmcxYCpc7cdxQ<xaHnGmmpnnnnKmzxndJudjKFrrmpCmd0pceCCeLZxnfnnnnmjiFmnnsdpnsijnmmIpcLvpnxs9mGZCavidn6jm2irrmG2pmpadm>$J",
"LdEuHbx9mmm<ncnmmxpQdTPpi7j<k#dH;EmpvL09ExYud>ud9v<JaGidm0miF0d$J5KjQFC<sY6miHJZipacQm;j5zGmiZaLCWxGljjrkiRmjTpHLBBmdsjCziuH52zmEc!8kFiHPvLFumvZCCvzFnnzmmaznnHmnL0HjxBnsH47BKdmmGndnmAdidamC7CKZmfn0nunmYW<FnnkPmnsnnxncF8cCCmL00nJjFmmFJaxxjkL0ci75d7QWCpCJF@ ",
"smsmnnmbmKnpjdnxPZaFipA!muu;mo0Lixxm0J5p<LE2v20paFixumxiGezvJuieG0JLvcFCzx4xaGGGvqJFCP6zjCmzvcvQkzccfnfH!miKbpeKmpzccmGjaxdY9dH6zGpZ8FFJz8cvjFvGcQCGdddFJxnmxHmHYKpxGnaLFmK3HzdHnQziKnvvFpcJCBjcjTnZkdmdnJdnmnxmnjnnnmsGCZnpfkZIEmkJKdJEiEJznuWfp8mLjzCc77iv0z-c",
"nnm0HdHnLnm0iu0mCjjY8nGCC0u8j+vHdxkxum>$90cmc0vxdazdJxzjjdxuxj08>2LZHFCivms7zxxLvCcCJu7uZamxvzAPGvmixkdzjzPpFjexHdadcmFCvma7auu60Gep7cdCmHiueuppCHGHimldFdiZjimxxnjWjmxiKmG<x0iKrLppijGaua6acviknGmzdmFdxJzLGnsmmnjZnjjKsjHcLQnnndZbnmcvvmmmjxxipecfCveuviCeuQ:C",
"0LiHns0ndFj>va0aKnGU0IGAcCu00@xmddkxicxj9dckeiauzvZ9mGzGz8pip80d<4HkEGie0C62FFzCZvQj!i6equGnzJGZkCmGGxfCAcYHvimvFj6a0zzzCzsjix660YTccNZYxCuvzajCAPa0FCnmzz0FmdszWbpnzLxJdIx0iHnLzLdnpkCiFucjzcmmnnZzsZxnQQnsn9bmCkjjsxmIjmcjTHxmLfmZFJaFjExvjWd0:avHbv5Fp1Cpv50p",
"ssLm5xKmzCm0FanajjHQ6CzpmGax!>HmikFdasCd<zc0xiEemmG0JJxa6jxz0dij20LZQfpqs8jzjGGxpdFacdiH@cFvZHvfmmmNZxZGGpicCal0xmiajxFsvLxjza5a9jsnjCkviPvcz6NfvYiuxmndmjcFdxmnW0mnmmmnCJzinmZHFE9kpjm8HGHcCZnjjnPnkmnmsenmjeVidGmdxpHYfx!iHKmFK0KHFLjJYizidmHmtqUzvlapzeLja5Yd",
"sQ0mmnLkcWxipdai>GZppJxiVjda!zHuiFpjGaLm<zc8ixJ9zWGcJLimaaxJ8<di>d!vspjCL07GmnmmacFzcv5H8HjpJliiJ!JNNkZCtCfdcCGvKxmzmFiivxzJdd;0eGCfpCTjTvxzGjkmxLz0pGGmnxKKGxFdK93nnTjuzJc8xzGmHmzjpcZexcmpjCCjxGxYx3n0m9EJnaiixZkkjHdYeIQCdmPcmpnkmmnm!9cmnZPH8AKWpzvEHzW5Gcu0",
"0mlzpHmGGGjGx0<afLZ90ALdJuEzFmxxdiaxmdJs90czzjpzxxLijmavxacLd-Gz00CZJCvJFi-rugiZcCmxZjiJeFPFvvlvKmcbNkfYnPNzNkCvczvadvxxmjmHuiFpZx!reJUjjLmKvYpimitmnmnxdm9xxF0kfjnpkZ0mcxzYcGdcms0ipmn0czCpivczFdnmGuQkkjnmLHGGAZvzcGCY9dYgKFjzstdiFdfnmsBGnGkdgpRCczpPz9xa2Cd3",
"lnmmimmYnYnmnc0gp0s1KmHdddEaLdxdxcxFi9Emddxxsx00<uFFczz0mzkYp9aijnZgGGj9zG0>mZzHaZcYP0cjiFijpPvFFvPccvrAcklKmCEAacsdmuxdmxmFGuxdjrxszQGjpccvCLminHFmmZjnmaFmixms90a0kkxiGxvjcFpjsmjnHmsGCCjjlcPjFmxkzjuTZrsPxHaskFmmZ00c9dclmZtknidmn0n0qZmKkni9!ekEpqNiW0kJ7cm>",
"CsmddQnHxGmZx:0smmnPrKmxzzmaGvxmExvji9mC9GGm,xpF09xicFvxWjFmzip0EpklmFmpxasmJZjdmjclmivZup2FczvvkPmfcv8CCmgHKmkWzJzvFFxvmmmxCdL0cd7dB!cdpkKGJsZiHPjmmP0pWnijmJnKj0kHLjYacp0Guxzj0naxipm0vjjpcFNknGnaLZLKQizijiJmjjjjLmGm$dmk!Gsz996jrsQxqHCcdFikCpTiPQfh!ifjssx>",
"KmmlFimnmFjZm<imbj0amZEbFaEzFdxcFxdjz5pduGdvmsi9ddJiFaJemdFEs5isK0sjcCnjj0mKzxaxzvx!FjPccj5Cnf6unNFmK7zJWjdWnAFAuv8azCFdYxFzmdJczzGClHjlki7LctZnnTnnZZniHdfFmJxxQs,YZdajCGCmdd0xdnaLsjmxTjCcCWfGLjmWn9dKLiL9jHaaYkdxGkHz+l9FmHzd9i<daHnmiYHxsnp3Z:YCaiAPcdr!7llj",
"QFKdbZmmnGpHmhmsEmm0GYHKzzdmGzc0vFixz9-a0fxs<pxi8dFGmmmjmzJmZ>CjWjZxmaxaj9F0isnxJvHN!0kflcjFlb&vpZjcCipAfymmlCeKFv8zxsdnmdmmmaczHcPN3!C2jdief0HzaLnnfmZjx0ZmxL0ui5s9FuijmHdm9vupmm9udBGpCaivvpcGHKfHHsCKEzQHTmbmmmkjcnJu9vCmHW0nqrCsJxLspQHu2Gp2pmQVpRERQpAcvTjs",
"Kf6Hs*ZkzZzzW$i9GzmznGVsFvFvxddmFddza>dcitxmpzupE9LZCuixmaJ0mzi0mnnijFxa0p9GsjxxHvWxQ72Cev7HNcmpnanbl9vCljpKlmPCFzzjsxnmQjGxivJaCCZlavFxLn0zjnGnnFsky0pfnukmLJ0x50n9ppFjumCckCGmmG9cxmZp7JiJecrTmBmdmpiQHsLHQbkkcmctnKEx9xmpnTaFmrFCxmxlpRCj:jCsyvmcN7QKHpKeFmej",
"mnmxsmZdxG0nJ9iudJFaGWmnvzxzaivCGuamn9jn9xZp0xxnx0xx9iGvF0i0din*G9Wmndv090pixvxiAcTppjrm;ia!ZiaeCPmCknzFCCvFHcGCju0jFFxdGEicaaviLjjNimjzmkmmp0nJpxKmnk9msmGGFxv8numunu0aEmiiCxpxcx9FppjjskclcGcNxZkmZdx!FHuHHmjHkzZGkGLx-dknjFZbKPTKmiiki!!Fedry4ZLm03cTpHcmGmjC",
"0xmsjHZnmzp0if9mmaFmGJncFv@zxxm0iizLC:LkimlN0jLLx0j9miJ8imauGjc9F9Q9macida90ummxmvk7Z0az2az!YdfpzZmYpjk!jaCH!nvEjmadsFxxnxdnjpziHFq!aeZGKrnPmiSAnnnsZmindxnxddaF;nW0axEanGEkicpmxLnFbmnjiavZjZCHpmnmfdiYFanpnZmmjknmmJccixdG0a00iBcKBimxvKIjdclC9crvpeZc8dpQ0m0=",
"0HLcCsCpRmBjxCuJLQH0LvpCNm0vzpZ7dauixdmaaxnsxdkJji9FcsmmZxzaCjmiz0B0!LKijjsmmmp0zpYHWiesxLjHmn93lmCYbFAZZcWFlpzNdfcjmjcmG5zCiuLiTNvxxuJcLHZMzGcZriplvrmakuzzklmm:zaZrxpGCjpammLvcc7vaWmzimcHNFJHdccYdupTj0A0jkjjFCGmamximCxlCc7msHlJfmlAmLHHaijj&j0ni6pdmGiLGlKe",
"kn7fHdmZAmxYZT06QJ8zpiaWmCCxamCCdidcpzjm9jdrmdmmd<0mv9H0dxddHLGej2sdKxZkEimHmzz0danWWdd5PHxi0in-vGlPKjmNPzHAfHmgBaDzzjCJPjdmjcIfNuA9kdcmfzjTnHbK2lHsdvaf0Czczxc8rrlvpiZLFFzjkjbmjaiGuZzxxxjJjFZJ0acLjCjEitN0mc0jHjjmuHFCzFjJCijkZAUctceNnZiKFHLm:asisj99GHddxixd",
"dm6jfindAmYsvie0!<aYpFd!nLmaucmm8mdzmii09i0mpGm6HscmLZHCm0zxZGmnV0nmZxkxm6mdjmpax0FnJ5x6msnszmddCYvKNJFCZ7CAcCfpFcNjnCfnvEdCm8IicmKAFzmjnpGSKinTeTAmxvxx8FicdLcmpCPLdJ7j!eFxvFCdzpivexxsCuCdc7ZCuziJiGckzimxdmddCaaackaFjpZYZGCnsCAPNcnjFxnGzmnei00ifkHY0duF!Pk;",
"xm,xvqlmKdCvkmj7pe0exFtFjCvjuCcGxL;xcixuiixij8vxmavdmGHvucciGLedniCanizmz8!ujF60d0FFJum-b#iLdnQ2cRQPAlCxqqnGeHzlmDcjfpCjGcxxv8vtNxCLGqEcKamjv9Zn3YGxvCPa07vGjajcaZYIkG8CCxuKkpHkTuzF8jzjCqmjCizvvzaivcdvixdkNG0BFvmG0rdQ8>bYNKfaGTlGHcHjC!dmmHnn$mLZm0kmsdjHCm>K",
"pnaaiZZpZclGZrs2uz9eFppEAGmx8TCuGE;vmd0p00djxxmdHnvsFnCCLddpZGmxfaQesGmmejni0Fuuj<Li!umFdfvmmTl0FPcjFuvzxeeNcmmlJAzFFmvFmKZcxpUQAczZxCZZGuZmxnxcjCvZnvCGj0cvmsZmj2mzZvaCmcxxcpGajvzHaFCimpfNciFzvuzmdviWkppxLkz0cjcvkkaGeuZWCAjZlCTdMssTnEammFcLimmbmIfn6rCimej:",
"dzdKeGmHCxds6pl!LC>J>ZzEzCzFvZcxLG;Fdc00dnxm:yi0v9x00G9FddxxmknpCiimsmfQjjxmjmzzz9!m!uJm<8pTKmFsmzWjBqjNE7AfHBFJtzczlz8avGvcfaazmpj%7xFkJ>bCjPja5!lvczpZxxc9amdznpBcfcYxCcfdaxcxiZCWeijiFxccj87CxvdijLzjjidLxkddCvmmrWrk2jzQKPckjz!zccJjnmbLmLFj9mpsJmYjJiHHZjGe",
"xZAcvCkNmCmZHjm!iiC92zz-zmFvxGqiLE>djnuIxevepGnkGZmvH9FvizmzmzHjG6iFmuqGEZGadJQCjpmmYuHnN>d!cGx<epBCnjk5NjHzDj0jzHcSAcfuLQazfeWcf7CeiCmappvGaANYZHdizfzkksrsHGHC7vcfapcirjxlmxFxtHacjCjencmaCiqzx0zzpZHjixckziHcaxxmimjJxacNHCjkcmY7imHcnYdmdxdv,>aHammmR9iNfcpv",
"mvijkKFZmfcCBnsQdpJj7F7vxjzzd8u5LLaujj9m0kdddHxi0nndxivccZpjLLAsHmIcfrmmHsmWuJ!0x0uuF6!aivyYicriUeFmevndvcYjkj9PJtfCCHcvCGTzx0d8xs8jTzTzzrDraazCcY9aMuNv6eHPcdCJizcmkzmxex8xCCCQCjiz8vZjLfvjjjicccxxAGHammmixmCmGCdjdZep9zNvHnCEpmBpdjPcLmxjm0EFHnK00iS9d6;CdZsN",
"iGmxnnAxnxPpKZT8G>re4PqiCdHmj-a-FHjzaajniY9cmCrpdx0xLxxvvmxHZnk0mmIZZkmKsxHLaQ!5xiz6v-F0jqRQJCeiZNZCjvjenjAicGjGjfmpkcmcHGAzzaavWEmiSjYj8jFcpcH2JbzveaJaAk=zFjlYcpk52dvTLlvakGJ!:cvCkHaemZCGcfmJpjjzmHnnF0cnmLxmdczsFx0apacanNZljcZ7LMGxcjruaC8CWLPjHvZxcfeYfjdz",
"Hm<kxBsBYxxsQvR2Z8ledk0iFKHmauuFnma0zjFaskdGKj0mLx0ilicmkdxGaAiiTaJmzmnZGsLKa!G6Fmm0Jvaz6izYaFpjJniejevTpczcHcivvlcAGBjvkAEsl5GvzqijcNYcCzijq5Gi2NpCAkdlvvpPmvzFmFKCxpGGlvNlbvG!dCaiJPvzdCGcmimG0jH!mkJ0ZzijdGFZmxZdHm9zCekRcCmpkZQnicZmcxjuxzuddzJTxlzzGCiHmZ8m",
"udGknBmEskuLceK9vTWedcisHQpcfux!dZx0n9jpgFczCZKIxdLpZxzGlcxdmnpdGfAYnxsFFk0Gd!saxdF8Fuza+-!Qv@aZz5ZBmr0tCAEEnHdGacPJYZupiNElJdWuceHF4!jFf75YuxYv0julxcxpaeCvJmnmmGzFdqCZpacaGZxvqCpmacFckijQsciqdmKx0djint9cpHZmvzx0QmszZ@FJZ3jcmEelGGxvHdjdxFuazivcjxC6PnfmfL:j",
"FnxHmKmdvgd0iZVqpsZkkk0Zmv0ds0zLdmnnm0mniHjvKHNkHpi9mmmkdkxcpkiGmbilZx8KKskcxnjiFzY8unaE&;!Ge8aQjamv!xkiCrunlGFHCkvvHEfupivpvmYvL;zeav8FzacruFvaazmYpiiJjz7jccukvcYmA0jLveKjYmJK2vNmulzzHBGFcTmpmmmjcFjGFpixYplGxFxdKzuc87Z!RlcvpccjdPxjxjcziaivaijG87HiHikYvc0m",
"LniFmciimsxiHHb8jr,ZGFscSnixGzsHmK0LcueHiYCkL0i7HxxmNZxxkNjZjmdjrcQxdKCjC9ixixFjHaa<j8cHu8!!ZiGHmiFWWlJAuzvkGlcmpNnrHjaqCvcfp8zJJpp0vvFmc:C8fHaxpv6eGe2djczmmezfFvYvGuxrvrLl;dnkqjxzpRvmjnG7C6KcxkcnkHnpjcaGdJnjdpmuGndmiaPmUe0aTjJcCFuzm8dczaxdY6N70aK0ilHcGG0c",
"igsaFHdiud0snufkm0Nc6K7rGmismmixZzaGGjijuZssJ8xuZmkZ0cmnscnLlncGgkIxCvcZps0zxaizGiz<J>GW-5YWiatJ!ukGq2FjjxvcGMpLfClurmamAma8vpFLza2jjFzzfzH8pWjHpJ8ecikmQe8jrzecevFjcxk0d8LaaL!CzCiWcCCmjrjYscmcjdmdZgCjzxxmCxxnjnJisndi7uPLYvz!HdBeauFdm-vpjd7jJrN74dcz<mQakGCc",
"zCGc6GuzxxjdG7Lp<qQQtQkkGZZnF!jnxziqJaazeFQHamu7m0mZ00lFmjpmdxpLGEmzGGmHHJlxd5davuJ5F<0C:5zxFPzvL!KKYaczeczfmFggllJz8ammjivlz:MWv5ivuGczJs2ipvzdJFsjcjjmpGmvizaupiFmHzCprkppmLviNfjcjjcGjCvqTvCQn9dpjkLdjmapm0mnxsd0znmz8>zJJYucmrcrZkTzZcFGpvGGc7psaJLcciApLZCG",
"iHmZ6LBxBnasmnlpiiR!6EiGSmmFmQjFJFuixaixuHHGd6HzHpxnx9ZmzxpcCmAcjsZjLKHmxrfxu;zzxaG6H6icq0iuFYjeEpYcautcCrmpLNCzlmFpadmHpmHFzuzaz5x8rcYicpeH6vCcQlacHummmajnm5izmdivGd!kxFcPmGEESmj!xvaCpNxvCCCxm0nppc!dnanid>sjJmn9maJse3jFWHmxYpma2iQCZcmGjCNrHikkFFvjzrZ0mYuk",
"rCjtjHFdGJxvxpZYmAsKccxTCJGuGZdaxHapxajx0YinCxHpmZmGikgLnxHBz0FEzjjndcAlnLxnd-vvaappEdximFjiFzH<!JaP7xkFCLZxAlgb0CpE2xjnjz8C7iWiauFv-WLzzjZCiJcW0PidccPJiuudavvGiQpZKZdjddnWaZCJZrNi7mvvjHPCNCaKi0HnZdHjbnm0d9ppjuKucGjJiamJWvi8QdanpGZjxdjmnznjt:GcJETijvCjvcuF",
"qjjJzWFzxajmcZCijeNCxCbJHcjaa!p-cdcxmadi0ZxzadWfmCxd0mdBKmmnZsFsEznjcpKHzJmvF>acxjHdzivmJmzmvQG-x!FzMJNjTCvpaJtZAudL6YdccjiWljcjaxea7EHziCtPkcCPaWjdak!v5vzE8jC!GQC6DzcN7dPvzNPCumxm0NGCFUvHvzimixp9HnmmnkmjK<jzajG9KFxx0FJ0uxcmxbum0djmdmdZvcmjjCvGujFcclqCZH8v",
"sJPciFc0CeKkcZZYev3jZGSzlAxrjQp7rmdZmmdixi0ZdHCkZkCcuIkmkxjzHzzZHWnF!npZzGd9mkzpHjIjidxnFdHxZQxC>8P6aGiltzCCaCxfsppzaCpcjavHeFimz7<p7Epu!QWGcvCcdNCjjCtj!F;G8<FHCWm8KjK!mxTcxH!vpZmjpHxHjZTCZvzWZiZmsWmammnszdLemjGiEHLiaaYivQdam909HjmjnmdvvcJJeczCjCCCmjjCcGJF",
"qZjc7Cj3HczGkema4nexvQl3zm0viWHuniZxmjnm0xinmIkHPelixjkTmmmjn0FajLmiaxmCcLmdmcxdF0W>jgmm!xB!e!a;2j8pTlmCNvGkbxYZCivdxZjZFjjpcvJiuvFv8ueau!PNcPcGT8jFiiviE858iavJaLd5cmkGphC0xHZvvkxajE8kGNGC8ZCCxj0bGKLnGpj9JicxxuJi!zLjGFFF9vu09a9jjdanmzkzmazFuv8ZdfCcJzxCcfzF",
"ZzcCqCcvcqc8ccmcpppgjmCvvziQ0!p2miaEvdcijdxHjnKKmkc0FsmnbZ0mBaZcimxxmxkmLHFdxFvzjaQ9jmnuZZmm7Qv0=Y5Hz75vzHYaNGNNGuv2i>jGjaFcCf0Ciziv7eGWFJGdGGkH!rcZ6crGpzax5aeCQijdvNeJZCTAaWCEevpxeGzzjmcTtZjrnsmZbHKaGxmiZx0GjjGiYdGGpx!x@P<06nxjdaxGsdmHFnxx8smKZvcdudzam7zv",
"KpGGzmZZCp>Qv8acuu!NmmepcijZuKeJJd8xcjcHKxHL00KZNffmFisnzIxxQisvjHG0GdEcmcz:jnmmm0m0msFsNfQm5ur88EFjjJnJZZAaNiAAFFYWpvYicjCvjxpCia8q>5Ar!vx!cmxJC7xcicpBuuzxvz7aakxcBfzZJjRjlpWZpl0eGLpCcCFzzCCCmmnZmmmiCxmmmFkLEx0pGJ9j5scQ$k5ii!Lzbmzkixkgjzmmippcc4Hvx8uvzHzF",
"NmPGjvHAFGptczjB28kGKaaeWvvN8ZfZLmmLKriZxvcxpiiHKajsEFdBmBdPmsZLsmKTsGLcmmmjxmnJGiQ5jnxKF6WKajZ&lv8vYkZHCcpuxkzCmfvPC0jPjjijumc7uC88 jmfbxrnCSPCzVHHd0cuulpemacilnjdmszGNx4Njz7QGviKcPlak7zZ8HJHjZdKmHZ0Lmk9A0jHsmxxWjj0n;Hm0ms0jHndjdFJlxGkammnHPvvNicFz0czFCjz",
"KjLTHPQjpZv8jNvladGfQrcpaxPi3maxHnGGHptpuux00jimxj0sWmmZKKFnKkxjkQndpLnLLGCmnYmnmi!HsYZmHv0xxjNijWPm7ZC9ivpCCcrJHsnNQxCJzHjNdp&iaivz8F-uTKCYCHCiauCxvdm0jZHJdrapKljxdpCKCK2dnd4SjEmCqmjvJemviCajikkmnmmsNxcdnKxmnjWmWxijn;nW<i8ixjmxccEnGZKpxmmiZviJNjzHFvmvF0j>",
"CKmEmHKiecvcTZtmp!9jTFxivuGd7zLvu5zCWiNkYaaqzcGWmFdczJvxHnGmBZQzx9knnddGHmxdmTx5fcBjvClc9H,RsZkxFvMFevY0fL0maqvZkkLCmPpecmHcmcjpFF8vrv0pCNbGKa!fHGajCvc2uzpzlzQYlCkHujifCz4p7MFPFrrCuHdPnGxNdciczWpL0dxaLZm0YEm9mjWmjdpj<F8!6F$<$m0ZknnGZdHLGnnxs6nZadndxdivadje",
"jLrCdKKskPfx,jiqjHaZZxL0G8Fx8pJGv6FCQzCjjFji8imJZxkiHGqGkmnsZCYcmj6ruxcgLFGmHnH6cjHQGQ5cmj6ECaj2lvaFvxckZLCnrdcveHmCpHxsmHCC6jZcWmlm4!cZckmrrL!jrC0xp0Cx7vzrjFvujisjacNJGmjpiujWWZiCrQpcmmZkxCaixZcmaacnFZmdYLjuamFGz2Fm7jd!<Q<&nj20PjnpZzGnxmFFjpGFimnYdzZmxK9d",
"0miAnHKdHhcjZC>sJzkikcWcpxvc0xFmcFPlZiuiFHGicuxWdBxzxmdpHsFqTLKaKddnmszx!mltnxHijpipcH6fCjjUpcZ<HvNYZcxczxbGcePNf4zL4rT7npQjjxcsHBppyZ6GuEm!cHrp7rLJH7!-Y0GFcjMjCdcidG7jljF5zezQGAJipWacvppzrCjxFFLm0mnuxxmpmGmeFijnFiFnsiWd7md9snHpnHnlKF0mcFx9JxFZsjnmCvvdKYk0",
"pkPCdCIkjnzRs8ePdkHHp0Jcvcci7KmG7xjZCxvCdWcauiazjJcffccFxmNrQCn9EdunfxkGInm0PZnakiePvQr7mmsLf622alLWcrCvkz2cctfdrxv!j3cCaQFfCciFajGdeWNKcFuC5!UQ<pjCH,PpzFxmeJC7KjuuFH0tkGm25mpGTaaCmpdnzvfzjmcejmEujZm0idxum0zdnznmnmzZxKQK0sm:Sn0QnuPdjGjxdzmu<0jL9xzpzdHdmpuk",
"jcZkmKxYcZcJmmFPGEjukxLYanzz5nGddFzjTEddJjYjjZvdmc9mZEkCWslxxLZp7PgmxjdZLzxrKizdc7HcuC:>vJRQek:jAYzpm9zxvCxFmjxi4JQ;88GjCuikCikkJC!Z&AjKZLpu7paLRGSjfcRa6tdumKJFsCcpeAdcZc86ilebWd5zvlkvmxkHzEkrumYck09ixmx;cmexndmnjGipFddr:dzisc,zSvLxpbxxzCm5sddx0Zx<uipnGx90",
"xcdixBGzCjjCLdvZGNGp0JaxmJxaunPHGaxdLYphCcCmfCpjdm8CmKrmsCCxdjvd0msjKZxxQfn,cZddkpNidxipCPZHG9a2CjfCbeexHxjjvdzcFxC>zdzY5cv2Zmc9mFpzpmHWmQrvuJ!pcpkJNHbafDDGvFAmjcpkuRksKJj9FQ6FpazPHjvxcaxTvCcjnZmZdmGaLda9aFupxnFj9Q0JsFnium6<x0ZAbQZZSsnxHnZ<mzidujGnxa7fmfmn",
"NjZCHCIZzpFZzaCPvPHmnKLdHdjcnsKid50CJTcck3ZkmcLzddrekmmmscHdjHxvmgc7mZKjTGmkzmmuxfPjve<xTPpJC7e05na0GvzzvapeFrikG6!;pdZLGxCjqvGPkxf0omqPvAlGzzv8eiPNejllAfBcmGdAiB!jxQZcanapiFHl4FdBFirMlxCQvLCJmZKYLmLiGFdvdvvzzmLKuxddKKstQ7:m<5mxmBKFnHjzmFL6TjddudmzGKzxi0Lp",
"CCCkZnKmCCmLx8zQiYPpmGYfkzxmssL7cddBJRgmjcLxCJjazm<ncxfSxZsusmdHmIilc0CmTpm69uc2mjCrvx;qPQkJNp66k7eaAeFpvzumZxaJvsmaGrZAj8PepslikjPFrZzZkjvAnka5CCaHiZZjKAkvCjc8pHQkjHQrWmzZmcvmcadAAajJjGzQnHcxnpW;FiYxF0d9am00xnnx9msidZ-KH0:x-5YdxLZBLKzixaL0nnsHnn0jmFu7dkiK",
"TjusCcnCcCcTavCZAjuxGkKnczzdiimmHmzHLLQjkzCzaQ8zJp0ZcZiANGH8iZjGjcpGcijAQ2d8xim2GlYc!kimcidrKr6u!BjpHvmuza7azlxz8cG5cuzxY8dc!qGfHamkZPRYTJLpzvzxvidFG!AAkPzcxazZvjHd8k!rJFHJ6fjvn0KmGijnmdGLzLiZnij9i0dQjaxn00uamjnJssJxup9nF06p2ice<cjcvjdzdmj7c8uvnxdczGzxxLzY",
"ZCnpppNviCJqp!ZNBkFmnlWzmknYp0xmm0mLxidiljFJvcazGH8nGKcCclPdccrPZksPcj!CYxj8x7sLnKHKG9kxxiFz0ppjeznzNGHazmpaavAepCJzdJq7WTumcmpvjcZ!RxZPC7G7Q87a88df<A!paa!HnlGajHjcpiZ9EP!!ajeZdpdzJGzmFcZLiGdGLikx>i0Hmmxzd6uizmxW2ijum<!5<m;si8dCnZKkmcxEjxapQjtZCcmcBZsnmdmj",
"ZjrxZvGvkCdCeC8RTdGFmdmu6zum<0nzHYxZGxZmjiFCKc8Fje4pCAjzNPjduCcudct3CpKNcpd2md0isHJGsxsmvclWBeeparaCKbCaiZmzxGWz85Q5iv&scjv7ccccudKpZHqbb5niT7ZFzvrPcBz4YrWFZmHGiQvjzm:rZCcHpdcjisnuFniEmlvFmmdua0FpYGTmZxsszs0jGxmGFxdzm;0ac<:xcf!dcQPCvJaCejz8!ajjBfsILkddmLmi",
"mxcxZsBvjTuTiZZZmdzjsmmmxzszijHpHFsmmrxxaajvWuvHjGlZmCTGeGCeCkjckJcmjmmcJFjjdisLGKdd70x0K8jpHjeeC>xbTmjCvAaaaxxj5jE>9l87Gzcd>Bjsdcmk!txC!ePdQvvmZjlKaPJAHNjmnCRRsZFzjG6iY4!TcjjaZfajiaYzdGZGdzzdazxamjjmQHmdxneaFmjxj2WuHjjGdremisecmHRxJBjdpCemcHccmxC0ZxmKpzxp",
"cmsdNpHZcveGevZhmdxmimzxZmGazpxFndmznxiueivaGziiscclZjF!jCzcGzaiCPiHFCi8ZcJz8jxZjZua7sGif-venYliKzMvNFfapHaYNdHmzCd8mpHnijkmCbrzvdCC!mdmmdK2fZ-fZkjDaDmj!fZdecbLjNpipv05ByUGejaPHdannjY!cjGxaxmZkcWkauimHmjmsxjzanaamTKdJmH-.m@im%>qcSCHmTZsqctLjiWGvjcmxmHdzuia",
"HLNNc!HJvve6HicYzmmkdzsidsizxxmpjFxdsxfbaiZHxcmgIGejjBCCcjvCjjvCqNpGHtlpkJ!q4ZsGucvi6smCc7JWfJL>KaZCvKFdaLpGpcJui0uz8LxmT>jkulpammtd!xxzvrpkJP:px2r!nP0zkmUdiRpndHljzv00m1!fsmpZnmiGmc!GLmmGFdd0jkHjkmZxKZEG0xapandnIHyKxQ0Z7nIKiu7lHPBABFLifcrZqvvcCPpmdGnpnd<u",
"vqkiZZKjZ8iaclYjFajFnxi6zzd0nndxFuzi0nsGLppaxzinFjumZccPZvZkJeCtvj!rCeFJACCndcjxJC673pvHd-7BCCaCWzFvtKaZZ!vd7HpZeeQ<xscWcxmCeHzzHCmjLx7ZkRJe5QCeQ!kCKWrzCDimaIlzjWPc78>by7mkqskNtHEncmmWCkCcFia9n9WGsGLmGnjxuxmxaajdZ0nRHxRQ-K9K6arlfZGjNpQCiCjcCjHCFjZPjdjiGd9v",
"Ks!CvrZccPecjjJcmmcmnnLdWHddLizZFi<n<mmiCixKmmAsxappGavYHkcvYpllcv!HCaCjcICm9LGdZGc85mPHn2>dJN5jluGmdvNrjHcxiFra2uT:0qcmQ2npmPCupcGdcQvkvQJ:zjZkrVcZRRjaTZjZirPvuH!d4dFpb:piqlmY0PmmmpmLAZGNx0v9j0E0nHnFLjmZjmWcGnnfTxQSI!kQ<0msejq#iAJCKjNQcCHGqvjCmszTimmdxudi",
"RpxZccFcCWdpNzcvmmsdxKPnxmmxZFHmx07KrxYFzFxpZYkxfjaGHGcQ7fuvGfNC67IJ2iHCdddHsHCjvfZsZlPdCd0mkjazz8mCimciiiCde>8rqG!0psjiCjsGiiu8FzYprNcTGZce76ua7nc!BRz>Wjjlzce0uiLx5jANZExCd7xcmmLkFjHGmGmFdc9dJnGuLcxmxmGZumppZjzjL9TmQT<!a$LC2eTkpRFvvjlccp*NmLkdcj0Cnxz9maa>",
"lZcxsiCGeacZlfdnm0nHsimYJFaHKabGidvLxmB8uK7vBEzZHmvjjvj3jvCpKHTNG0J!:FJZgmse9QxH8JCNpP!upieQemd!i8aumJn;pv6uejc:LHm$QECk7Ha@rGi7ucvr<EHacieY0vvEZKdJAPlY!jJzfaC0jCGp8WfnnAT!9#JeLspKmfGnGmkKcxmdKjWFYkZxZZmdjYpjmnxnpjQ0Yxa!Xjmaq6PlPCZsPjPscvtZGdkCmn9dHxjnWGn:",
"jTsdscKpuZapHjtijxLHGxnfxJnaJnmnnidFigzi<HammHapazCiJJjivmmmPvAqzr!0iFNPmxdJeKdmFGu0tQT7ex5Qrd5pppmfizzpsYu7Cdjqm9x0KkuZZf7j6dx8dHGkf!zZcBm!kauCjZPDc!2Dvevx,cQuddjC8Ffi=GLHm9I0xdpTZjnHBGmmiLmsLnKgkjWFnHmu9LzdiidzmjLiL$Xd<>pdicZftlSmZYRK0plZjdmdnANZmEm0WJZ;",
"dCYsvTdBi7jjjkZjQaxaHdmmsFFaJmmFirxZ0nLi9YcmxxsjBHjuCcjzPNZlPWC7cjZdiPiRkLdBkmmaxWCip!R6r80uNm0aHNmimGGFjZ>2mdj0LndrnnKxj7mq4pH7zadFHWHg!rvciWCEkTalr!k!Znpk7mJkjuaJiHRo>xmKmrI:LxdddzxnGNmCddd0amY00mWkxmsdiLzn0mmsijTuF>2d0m;vX8GjfMcCcC!Q68KpdcxnAGmjmmnamnx0",
"rxZRlk9vj6fczvJCWJnxpmnLHjn0jJeZydLFdZu08vcimxamjxxzjzjicvxaHjvemcd0dKikAndH6Cppm8ZfqZYmu00jmcmsenCs<mKcJC67CxH6nZssP,ldxuHj!HcvcmKeLQ8RTzikijxm5PifvvaC8i5JiFa06msuxGm2>nQnkpFxjx0a9z05pGxGmxzsWzW6dGxipajviH0d6xxunmnrya0SGu9k8nqP2mnkPH!fexhJbnjGNE9mE0nmFzG0",
"v9PIjUeCv<BnGm!n9GJjhajGmnHajLjapxWa0dui0vxFcGmzjzcsHZZjZjcuCaC7i0H0fZKKGifm&mkki7ip8FL2zxkvCEme6!Gc0dcfHc8ijiG5At8aiqRpJ5jp:JjHcdYe7R9YpC2!vPdf8Mikd*iY>u5mvckk0FidsHj%>LLnFmjmH0kaFns>FZmLneLmW0T0sGps9vFvuHua5mGizmj:ipY!0-p00GZi:PcxTZKCGxicEudmjmkCdzF99jF2",
"BpRnCvixTpTmppYpsjxjjnnInHHmJj0xZuxxunmaz88xGazdcCjcZJjHNHivCvZ5msYYucmmQ!xneizieCmCpcH*70C0CxjYaafv9xCfip!HZex#clrA<kCn<i6d2GjRj2m0H!jR9<jKj!kMeP2GFdzzCGicvcduax;eHYd*i;xnkmmseHmssxa9CdzikiixT<mnivindnvjinziGHGFsn0-a&F05iLk8acipCHaCY8FCvfRlijmZKpjmcxi0Hj2",
"s9mCkCsmCNKNmjCinmsniamGndLnmnkF0jdv7FnaduvdmxjjpditNnivijcvNjiexs9xsQmZ!Qxd6dvxTCPcpCj200xaPjcCKxnHkmGjjCKGkQm-Nlim*k09nx7z7!aTx20trQrB7FGxGmKrHPjvFFaczipccvFFusx0xJm<F:bKnQGm0HmsdLf5m0dLz9aCZ>Kmuj0ixnxz9zxxQamxdm6.din02jmKuFkc2WHcCJ8CCvvjlkxjmCuuGkxn>Wi0",
"f:YEJ82AccHpCNz3bavpdxzGZibidExmmxuxmkn6xc<viCvcucxCcGplPJPpC7jjjccvc3HK!:aJijczGmCGF!v,pG7JBjezHGvjkHmCsjHnsHL9nHIxK,sj3ipdefCGuzujnjpP5FCekPPeLFAWpjcmf5CcjKv!0HWiuxHXFGdm0Yxa<EdddxZicbJcNmcsn0x9FmkGxixm9dmiWvx0m>C0xOjW0aLmajad80LkJcGpaa7zmmnmWWmFna-jpLn9",
"T2Gkzf2HKNYcaP7irzvczZGZWpmidxaFniid7mB6jCudzZiuvfvciZjrmjZkj7CCjpuJuvkFzunjjxmjGEu6FPzrzqcfFFzqxHCdZGnjxHHf9kL0T$kit,TmpdNkujGHCixpjj2rziFc5HxjWpvxaCTEbdxHxjkLddmap0c2Caix;EdH0dduucKkFnxdmlcixisFd0xjcpGpzaxu!cmaG0j-p>0cjFmG>z0vv8Q9zcmil,u!dmkZHTnF5d0Fxju$",
"KrflrjfmAvicnp0FGaxmjdPCxbxdznxGinikzxnrCipmzzzizccFzCPZmmPmdrpCi8p8vucu6HmHxHGz5!FvdFdijjZpCpevccaxckKmkjGi0Gk9En000smmksPC9d7CZ02!xmeIKkme8rCxE8mkzvJPpHEvacFzz6aa0-0<ic9FiGKxc<jE00kaGLCjNGmindLjGczjmKGdcvzuWvz0nx0$YcYGjFGxi$Yi7iKcCjjZitlcALFZnmGiFdaxmxjp",
"CyZvjxQGtepdjlj!CclmvxKmiHjxjxzWmdsLuxm0PkicmjfCviWZJjcvHZZIFjpp>L0Cp0vvWEvaCmYkHxHjdmaceuQcic0pmnmclBJZsmQdisu<GHtsmFVnncmHmccKzpapje,HWeRi>zue!zzcFjGCzcrfvj8F05Ln0ij0dL<dxLQWF0mLLcmnLmzjmHuzmexn;xpiGmHcxczeEFmd5p:0naWxnGFni0ivavCzjckJd;sZGLHzLmWJna0ijmK2",
"BtCZrkZG2CdzjrmFvcvCfuZpGdksdmmbiGimkKvavalmcjPixixGCpjpdlTjYTdisCzxGaaJbzzZGRdcduJcjS0e7iCp9j9vKcxcBgNH0mjniia8zFmsLmpSj0Lijz0FauvvG0mz3QJW2zl8YmjJxcKHCN8dFi-u>0!zma0 a69JGaWWpuxF0pmndxLdcztc02mZuxmCGjJmvFxiEamzFc2jj9YdCmk905p8i8WKvZWcCr7WjnnmEJLnHn<Hj0!9",
"A:fjeBbafavkvFzpkeHcmNHuindnikkddnGWgCHamicmiczjiejHjpvmkxGCPcdGeduuv8iFyKjm,JEcZc0Cmczz6c4imC4mFKkHmZGH,nsmpsd<dYLxQimKm00cFdi5dzu!ZzuzGPi!evadnY4apFkHCl8EHi<p$iGun0n>n90miizZv5x9d<xZnkxaxdZc0mHduuxcJLzF9mdmvzkmJYuzx9LapG998&v0<cWaCdmdljcdWdepmGEmxm5Edjsi",
"HrCl0cuGrqkmzmmZHvHCmmcjsmmkpjHmmKmKxmaHfkGZGjjjCjvvCjjQrrpGZcsCjdzp0se8ebGc2nmdTcaCZNZn487ciaFNHKkmKvxg9nmnfmmiZGd<Q2nH6zFvzzsiu8auQHaQ:pEmmqYiY1m2ecPYfCqvEr7H20aijuY0eL:0n0mH!xdxj9dmku9dFzux9xZx0kdGFEFmeWveWFzFznuE-Ju9cxEdi7ii2znCkZKKilp7j0jjmLIZnG:zmjk9",
"n2BGarvv7qaCmZzCZZKdGmF0mnsinbmzZWnILL0rmCGCZjNjCjizcC9Hdjpm6p7vnNi5nv2ZjldivLvkPdjpGPckjempumufKWfxzsxmimkmnjn0sHznm<jL08slmCimu8aJCiCK95CmjFDupva7czGFWCfczprx02apjpL20W6jxsLZL0dE00cki9upziHduxLFpJmLmGdaxFvxYuxkmn0npdnmvekde5H<pxNZxHGHCpbJmxniTHjLnW0Eajn>",
"ZjxjidNzpmjWxTZxxxCCcJdsnmHpmnjjnLmQmxK0cZcNvpmjZ5dxJkezzdcE7ACdrbc52JpKqniinGmzNFzvvicerknGcCdcCicxmcvNeizPxmm8mKGnxiZux7xuYfai5iapvjaFCMLAxjTxGpHHlvzQJ0dxmmzdpdpxmdGxZ6jjjk0!mjGKc9kHFa0xa5mzxEJJ<WGGxHjxGEGunEmmcdvpumpYZ0jdrYv0aWCnpvPCcGGmmusnmm0nim0Hni0s",
"N6mGvs!!HjCCzGvCjpTFCEximKCknb6znmnnjpk0xJjHjcmeZEJxekvfCxxAreSnnnn6FaWWn!k:innk9jNJqZ8aeimzCBv7Nmjmcpmpvccja8n>FmmAGrQussanmnKxuuvHdEzvWCzF0CYADL5raFCAm9FvFvavd9C0mZBZaW0mjj0W;0Hk0CpzFiCFj0xdmkWk>JapsLjkCWzaummjcdiG0jjHp9xdxppvpKkKNTcPjjkm6mx0wxnLnEeLij,s",
"vrcKjLccGijdjCdzEdcazxiPHBmxmZsfnGnxdij0ZfFdimmCJv0k4dxvL7PWmmDFYfuevGFT4Pku,ucF5jjjCvijs6LFvCcvjCimjiHexKCvx80an9<sGnrAlLxmfkxdFzpCCJuEYzWGKea:kvkK-CCKzKGEFkimF:Licn0ciHxmji9i;im0cdjL9mnnnupnGxcxCFcdjY0H0Jxj0HFCpi8FpjGcn9HcKNZmKUvkpmdjZccci9!HpmmnY6imnmx2",
"AncKxmwCJ75immaumdGjjZxkLKGkmjxds0FH0xnxidciiGuYjFmjkjlGxKCZG8Z48$C5aJFFzjdi6kuvaajjvjqexzmcmk2zCC5cdjCeCGjacLx0Q0dkdAntiu0FnxHaz8xCGFvuH8G!japYJk8Z7CGippjFcLFmGdzmkmk9Kjmj0Gum<jm000ixiWxmjxnxFz8xzaj0nGumjaimvmccmd<99pckzujjpZ<iekAZ8vTcN7ejmCdaKYni!mmm0HKs",
"EHkCtisCmluj2LJaNmZzcCsmmmindZ0KGmxGkkmjHvxxjapCC5lvmrdxvzQKWpLjpzQkGddzFGvcvGxzzxJzi7G6pi7EeupxeFCFNlCGccaavcz0KuQmxmKnnwLaGdJaFvHFeavuaazENWvPFcxJxdsSs0bkGFGix0vsFzidEmZG200x0xJGim99xsxnGLjjLjI00ij<GGaj0uxiFz9xmd99><mjcp0uYal9mcYH88kejkeiYjenKKHnQxuzxsnk",
"lbAJlpF!vFpaxvFpCxiCvKjrxmbinpkYKinxnnmpcFcvjFzJz7Kdc8vpdCGfCcmnjiL0xJCxcc!z5@dGdcQjtqGi>e8vvazxcCjidjvCcizzmFavudizuzmzjnYsxuJxzvvzsG!aEFuFHi8mQcslTnQLddZYvLvidFxkFxH0mdKx9a$FWG0G0ddpsjxxJmBjEiTj<FY0mFnmsxcavdaxvakk09u0dpdu:CfpmPYGecF0CdcxmeHxmGHzm0m!xd9K",
"iCKAleQxCmmv7dacjHjHccrjPxgszpkLKx0LmsnxdmaHjvazCEYcnkjadRjmTqca4jbkkQqWcQJc;mCLxicvjiZZ-uczCzvaJjvvGCjicmxcmmzvisszsFLKmiddjkdFvliSiC!uaz8F5adzNcsPImHmWZWWmGxzxcGdzmmdjcJH9dEnj0xn0pma0unxJGFzjunp9FipjZGxz0j0mpdxmczlxiu2k9x2pnpbEYFPucujdpxxr!sdLFZQxxmWiujs",
"pFZEAim!jzCiikczTcvjfzpjmmxdmznnFmZKxpkpcjjNccZdz!nkJzzpvzzmZCvbpCbHPK;jc!Ge<WxfpdJcejjCu5cvidvJcCjZCcz0GmBczviFGG!m6xbnszYumKd0pPFvuz!FEzuaazavmaw9Q9nnT6jmaEm5xcmCxcdunxYd>jpup0um0cCaj0mLjaFCxLG2an00sZJuajHdFduxxGkmm<dkmum9vmRzC!mzCZFWcmHpcq<ZKjKmxjWjiHnn",
"acmZBHfmpx9G0kzxFxmnxudzxKmdGjvmmdxFFsizxa8Hz0F8zjHxKpxmxiKmHgHzm9NkMMVpeZlm8CjZGcTjezzdLaiuzzaxHGEmzamHmijmj0:k0Ym0u9GmjJdxazd0jfzrWQYmWQa0zj88c0bEIZxmvejBFmn0dJmmxaFdGdGF5di9mi5Gad0iGmZHmcxFmmYuGWmjxmiu9ZdcEju0GmFuExa=FmlakxvpvxnPCeFjNj8fizpzJZapajrrfikj",
"CesAnTmfYFi;CHmaixnkHmsmndxzLucYKnFFsju0xLxadxmmmJsCkddWmsdisdQj9BApYgn9encaijuvCpL8kiHuJ6ivz8aJanHnLimTmimZHmkjjnmx2djdFEzui80xcjBs!eJL0CzzpvueCjtE!WZCPpqr0RecdGJvmxmixzmi2xi0da00LuuxmJmCcYdjmkY9xjnaJcinjGAxCF5dmpH7p8GZTpKpinZmFmv:C7sKGp8q!mcxVQcJaunZcPjp",
"caGKnd7kjW09zmJuamdmG0fkksccCveaciFzs0dmxmaGk0fxxKjH7ZkdmJkiLdjJpNQZeh7juPmpFJNpCxGGezHzf6Huzvza5jmWnmmmnnmmnamnjsLW9j<bJdauxzxzprcBCrnf-akiiP2CJ9cCzljlvjG7$QedjaFivxi8FFmCGi7aG9uxmdi0cxFYWjmmK9JxYs9kxJdjiajcJC<ckzJ0m8AlaePcneiz>JxGfNdPHjprKvrZNpLGvpZZcja6",
"c2LKbGHkmYddxkFd0FmndmufzmmxvcHvFFaFxYdmiudzdkFdausGi0xzdZask0ampHUvp3rcp!mGz!zCcamxiiv8AxndCzFFznxFxmmFmjWmFnmxmH9Zn9liYxaivzkmvfAmQ2A<.520BmFiAPccHxHFzv652Qppjuimxma<nmFd6k50EdEdmxd0G0nHzmniYinnanaYpLudcmnYJjkjC8viuePzlHeiimaYqPcNpppGHqpBpvziKQHPcCmnmCCC",
"Cfdx8zzmjHiLmzazGZZnZd7xmmnmYdmCcmuzFzGvzFxF9pdK5dcvaQnCFmjanZGYsnIj2es2xQmTqTjjipum6mzCdilxcGdviizxGJnxJzGGbzsasGFJnmjd0mjdjzdyZpGpY*U!i8-W2k!jWKzqvcGKJk7c0Ii,xddxmHx-3kk0mdxZFxFmmk00djCjkvxdB0LGkWu2GGiKmxxjzcZiCdu-C4kEZ0az5kH!WFldCkjjKeplC8vkTYLcCzCdHqmi",
"vivuJCjGJ!xx>vLzjmamdxuxnidFkizGmxF0izdc0zmddsGd>xxcn6mcjeFa<fnPfG!k$iTHkBzEuHmkdvcCrixGnCsCpxzznnHuWG!xajnmjLaxz0n5xpHjFmcjxxCxzCcuv8NrYad8GGvLcdvjHkGahCAmkNu2jz<GmCi9CxCi6dijzFGxd0meFzmZdicLxpE9smu0cGpxxJZHjvCi!dGzpjCC!HlaNxGpCWjKBcCdPpncauJ!ZlmfdcpkPCNG",
"Gv!F6zn0dKHm0v0z0JmCmisnmGnmF77JGLvaxdCGxiiajcxG0uFdA0HmiZedjsxIQx!L:eDKpc0K8CjCZxjZiPYJedqnxxxG6zuxiFmmmxFmFxHnaaExpdHGmjGcmkzck4GzEzc7a2e5%7lBA>xuzBPFvxLZLGH+jiixxGppdix6xmLCpvvL60m0jdnGzcFkn0!dFuzdiLdYcWzjmCF0EzmFfc2CjmsJ2fWlcJa!rdclAZcaLaPnk3ZCvjckHG7r",
"quW79jTH0HQi0xavxuJjmJ9ndnFmPs7FxxadaaJGvcFduzmG5pvdm6rnvC8diimczx!hbrQcmsxCNmivndaCeCJum7csmHmCndmznKmGGxHndmLmp0xZH0HKpppmjjNdmzz:!p8uvmac+LevMxQpNlQvQJVv,aE>djdixxx60isCixGm0apcskpsnzzZnnijJux6ve9kmGkJmcxmrLAx!G!Jv8lAQk0cBxoYNZimeKxjKr5t8nZNjcfNpZmNNFsk",
"ajpeacECjnmzp9dcvzmkFZpGfcmfLHzmixrizmnKcLdmxijv0zFiaHiJp7d2pBZPQ2KljekAzzjtJHcZcCdx0Fz8xuszCFKqCHxjmmxnxmmnmPLnni>jYjWmGdGGucmmLJk%H2Hjm7Zz-7K:jKB,CWBFBvJC32x2cG9dzFFe0LmixmmGLxeLGxvxjxGLz<FaL0xxFumkmFiZamnxZmEzYFmPpp8jGfsKxxzcPPeEdL;vG7injGFNcCcYCmjBHAvc",
"GZZ!8J!HkmmmjjvmazddmaxdizFxHcuJpYiZzndGCZFsmzmja7Fc8mqc7H87dlC!ZeQcraGWvPcCJJxWxzuicQFjd0sdCCdivGxviamazd6d0xLLJimnxjKxdmjjxxnZm8CaecpecedHcZR6CH!&jNYpPfkmeciiLidmimm0iLLddsxGaFdxv9Z9GiGv0aS9JjapxLcnnmjLJKxn9xr;TzxFu>cHYsz0ZGbBcHrVcJ5CdezvmfmYZRCE7cCrcpZG",
"CqpCuvJacmmJkmxc0nxzuLGGdJNxva8pzKdixLdFzndxFZFsivLjzzdcaJddamznRjfzkFZGiCHccHvRQ9js0KYHimxkmCnm6zuzdajjdime0JFaFmmGnt!pmmjYGpnjcck0jCH!8J:m+atez<H:8cpcKe7msemZE&pxjFdF0bLGsGGdEuxFxcZxLdCF<aEvZumjux0mGmHmjKm!uLHaLxvm@Fnc8c>qamWjvHkHtGa0bepG9pexChTZ8JmlZejc",
"spj1uJvijYnGmxaxznYmdpn08GWjmCdxmE5uuddfdmixJEdLv6FCFciFexx7amCFTNZi8ZCjtFHkvlvZximmuHG8dakxCn5a5CdGGGniFdxdsFnxJFjmimmmCxpKGkmpvavG7CHc6xj!xzfkE5Rf9jm8xZdckscCmi9vndkmpLxmxczFvdmvc9JmL90F9xiax9YnFmJmnGHjmjjjxZiiKJmxp3ccplt4lpimav7HePcujmuexGzZGCpHdTmPFzP8",
"v8FzEHuGjY0k0FmnzzvdddGmemcFdCZcmCdxxFCZBdfammTkm+FmCC1ZPHmp8zvmQ4Q35B;c:FGZHCjcrzxmK8mcYdmcmjj7mJxznaxiHiiz6Jxzxaj5itnkpkbGGnmjpCTj:kml0F5E:!sCv7NriCnNcCHCPjJ!jz<GGddjmGGHeGLiFvvviFJnG9pGc0dGpdGdujxdnHxLdnpmLncmLKmcs8ccmfK3PzcjZj8vezuzjdpzGzjGLTGYrTs2Ptmc",
"25zvGm6jGLpxixxFLzi9dxumuvPcGCfxvcxHLimdFzxkzkmii5CmkfhzcHGcCdcAZ&U*7K7x*FjCJCsvasZjHaFF!riC9LxjQmnCQJjiL<9iadimjp00H0psjjEm0ZZjcfZf2mC7dHum>PeCeNRCmZKjnlAc0pv!<m5xLzuzdmmL0zaa8GxJaxGmxdmLHccaGuHn0p0FnLnYjm0ZmmdsGuiFzecsCvHkLeitjldPiQH7pFZc!dZJvRZGlmepi6ij",
"CvHzczNaJkzzGcxLdd0dpd0vqCmmHCizvZdiHmmiGmnmxlFk5a8pNkcc5CJjiccK!kR1jTtcivCl0mcjsipiKmBxnuzxfzqEJJcvxYmuGnznHzLdjmnixdsnjpHmGpx0kaYu>vEmCm7v80cnNpZacHgmHCZG9dHz<j;GJkc0ZmYuJmmdFduxamzdcapGLvJLGanp9mpjnPsLjnaFKCK0HiCFuivjnr3>CjZpr!3GvmWc8dcm3LCTxVfn:Tr,HdJj",
"8pd>v0KCJWxmmcxkcjxFax0GamcCZfcZz!7xZCmNZkdncGmcai8Hcmv!ejjzp6vt!qQ>8C-caCZcidxdzzjGmmjjj0dZmz0diHuGFmYsmHxdaJ!ixnjnFiFaHdYGGjmkidlz:CG2ak!K>ir0a8DrjZcmfcvdjpC89i0xmjYpzZciGxmmxxmaFzvjxdvGcemmCjEx0dimbLnmujdJxmsnZdu8-eJqGvjvNpNjaU9N4cQkvGjicj!Q7mTnpCi0r8ZH",
"ppvemaJzmazcdNxcJvPcuFuvdpvkFWPHFxkrzZmmcscmLAsFxJdrYc2Q7ipCavHYY5qipC7Mzncn,ucjGvvmc66<de:vJAevnxFFdZmcCe0mxxcFmnuZm0xii0mmjmKmslF32e!cZk3Y-cnjJiZZHQpdijZZF56&0dizmxvdjZaejjFcnuFj0admcFv5zFiG0dpmsxnnnmFju50EKzdCWLk0dzvkzJ5xKjisavjj7PElppmpvdzC<-CZpJ7idEjJ",
"Z0jxpYYmcxjCvZZcGFGFd8vcxajCjHcNkKdxmdgSFZxkHIkLmpvjsH9k76iccJGCz4,HdfrjjmG8v4kzGivza8a0z7vkCcvxicmGdJxHCmpCdxGimPd00kGdsazbnKpk0ejc&vJjrLvuvZfadfNc!ZadpjcQC7j;9zdxxmmixncCskxdaLnmxmxxFiWaFcm0z00xFjnnHGnanpnnQzN4T!prHpuGeP8za4Z6rjiZcZFFcjcad8pccVlCzNdhYzQN",
"GCNjCDY0apadxxaFLpKkmFFYcmsPjjaHejxrzLZmisCjnmZTFLpvxa2dHaxdcjciC&iHfrfq9ms8xGJvmsdzazicW0vjejvaza8JG6QudmpGjWCFEdixs0njm0zGinnjaevc-QCCTvJ1Gpxnz7njANYZZkHBpaZ7ccdmmcJddCcxz0maucpLiixmHkCjCCCZdndGsxIkzYFsnxuWJZctQTCvKrcuWYxrj2HdZT8QAPpapmedu:GEvNCvaCaYZpJJ",
"9zxGfPxzaFv5xGzQGaLkvJicHuvJxx7xxKmcdKQPxjxdbfncv;madC7jcdidJHZJj5vApqdc8!vjxHmpZccc0r5u!jxmKvJzsx00z!zmmYiucGGCnzJamd0nzeJzanmm05jmpiiZ7GCp8NNd0rfaZQ!Wvvn!CjC:scmmccJpkGcipmZmpFGimmnnGaYuJcsAYdpmnmTmnmmnmmaiGkZjT!meQdL6GlKNldzcm!pvFWZaeC4Eja!vL:za5m2CTJxY",
"znMWZWWmQimjxJCCKrJlJzuxdkJzzFukYcmmnGmYKdiid7s9xpr7HxcpmBvGFTqHxpaHt9kxapn7xWvlZHmZuvje8zcxHvlFajzuzFxcadaKmvGCaxjFsFdGii0minnxu8cJ24QRAZzrHim7G,mptMNKxBmIT5P8LmsjmdLnCiicmFjxjHdxjnxHGzmrGmpZj00YEmimFkmajJamGzliYzaixAYsklcWAPjpc!0jpCvexYFdx7cdm;muezaLZ67P",
"KrErFYnpxxvivPc!KCm7Liaiej!e8PJHmkGknKnHFaca0SpnrdLZECnz4kj6GpxHCZWhaidCjzZnamdlxLrCrGNeauxxFHFjaGYzj0mjaz0HcYCmdd9xFmiHKFja5zdmezmp7l!QWWx9dkmecdjZjGpAdiWxQqCcLjingdxzZiaddLHHnm00mxjmxdkxxncCGxnnGsH0mmHZZFimCBnfAGLh7Mm9ZcCmdu7CcJzjujliFjpjUeLLE&umtu6zGrjZ",
"naullNKmm!m8vEFELcmuvz8Wfv!ijFsCpPmc0scxvHFamHRHA2ZjKkaZ!p8cTCshbrRh7YCHzzmFzCxLNZpvpZFavpPzvEi8amauvmv0azHcjaxcaJ;Jcda8uzjj0zmxi1zda3PLHkW2iNm6j9AYbGjHkcxFCiPdcFkmJmLHaExxmGLZpJjpZmfnn0T0jzKndGGamsnammmsmHjnJaceZ!Na!dTicCZdNemFpp0!jjijdijbm;cdJ8FcnLczQZZG",
"vEYCakvRFQjcGmjTGzGmkcCLNZz7HzjccdcesZmFmFmxZxNCprciGcrxCGC7HdGzCvZmjpxkpvzziAcmGmcCCZ0pp2zjFcvvaEdFzuF5vEHcaYKQmm6LmmGdzHmnxv0v77Cpl9ZWTm!z2mYqztTp5WafjCgpLdGpkLkC0cYzmELGmHGnyGpnxxxKm1l08c7nJKxpmpWFmYxGnHaxZfH4RnvmicN9uvCvQzkzcF2Bvf8eldEmapzQ8>FaJmpzCcd9",
"JajTFzHczPdmzm8kCCPcH87xtGcjGFxCCprlfnkmLdnfmLNqipHJaCixPBfWjjHFx&cN4AZ8kFccKQzZHjpTCTQ6puFzzZ8FFCp8iC4jmmWTT!FcifexCK0bzNjc0cmx0EHNtQCvvPQemiC;UjNC0Zca7jjiWFaijxjZldHJdckpmmjCHmpmmGvcHmsa2IxHKdxjxZmHG9skZmmnmCGr!pmxixcaz0NKD*uxjCvkpppCjum5!vz08aP-CLAzDzJH",
"07BNciFHcHvxKLiGzjczGjd;iljNa5ATxidZdGFsCcZcHZk2j2fs8ca88jqiJqPvpzCKjKc8sCmmGBdZCNkCcPIvvvap0jaapaCz27ca-mCHHPHz7CumxmvpmcBnpCdxzjZ9l!PJCN!Nccc<CmZmjrCjGCjuQYFCxmmHC9nZmxxGjEZCmmzxiZm2pmQkaL0cdnibd9JHGxjdLxbJbvldJnxuicFjxecvkpxmvCijafpdq6n>JzaLG0!v0PFdPczK",
"aiRKQcvPvWEmKP6xcdpzjxiGCdjCccKHpmpGcmnmKAvmnkZ;Gic7miF0xj5cGzPPxkCnAjNjxLdnAZxFzccCccW58pZpGeBivaZ9JviemLHNcHjmiG0pprgammuzkCdkj9HfmQNcRvJclZjkceKskNJHCcNjWxvdamLWd9iCpmddxAxd9mcdGmdzdxLxzpdkd900r0xzWijxmmZTv8ZtEk:Gu7pCqacd7cJCsJrqnmKpCqde!@jHHiGaFjGCjDvc",
"viZBpcCcaEdvWzdavzlFZjtCcZzavvxv2CmjrCZCmLiF0sG0C8iCuvc8jijNCjJC0kVCQ!mjjLdnnnzmecpNFmHumzzHeN82GauCLjmmHLpZWZae<LpczienZpzHcCaivLkcCbTCflHrAtClWvZnGQNsjfacdfcxcEZGmnmj9zjknLxjcxz0p0F9mYQmxxdQdZ0pijzmWxmHbzaWcclk!KGlplJeC:FZxEHCv6rAfmGkFvvzQ8ilnJmcGW9amrK8",
"5atDNmbiGacaLvi7vvCCHp0epjjajz8v,dExcxPcjcvazzGNvpvldikmfjjsHifJC8ZvHBcPKjckknCCjlkZKzWGcipJjzuzJaicHdFmdHzjaFcGFCrxzc7cczpjaxxx>sYljc!NZCvpkmlzkxTWjJAijjcuLHvJ0YiLFxHmCmn9xdFkkxdxmziankmZ9n3xZ99sdGxFmpnZjj0LxhlFBpCxtapH78Jv2KnkN6eBFpjlCmEFJ8dv0EJEJdkHkAGj",
"1riCfnJMcCdFGx3mjHQjmijajjpeCcjFdzmCcuxCvjaGp0zRccPrsgmdzkefzkdcPjCTRmcKsxdzcCknmclPZCvcnxFH>vu>evrezHTGcCjF>Ti!kZ;iciclidcZdvAmujY!lNTlCevrRhvYHxZZpQZvTG>WJCvmaCzmciGFFGmznm0ZSxm0dEidjFHimnGYs0jnnnkjnmKHZJmHidEAHv2bCCl!CzcJ9CncjjeCPmpzJ2Z95aJFe2!Hc7jcKjBz",
"WdGCGJCmFHzvvCcCZpFHmaiGj3pp!fnLFmv0mv0vZa0jvqZCjaP8msfQmccGsczmNecjclvmfGxCmmcFmlLTQcvpCvamzm7zvCmxuH7jNLa7iRNQ8j5avecpCLGvGHHdGJc2mzzcjGHqcjCcfzzHFTjpCCdJxJxxdacxE0zGcvpidJ0JYkdxuYuz>xm9LKjZn5bexmmxnmpnHnnHaQAaTFj93CcdpHZdfGjvijjcluxCWjjjvpJEC@kGemFvFkqm",
"rNfdYZGGcCuv5cfjzGHmFpCCcJ6d6HApi07zzaavFuiNcQpIFuPj7YpHGpjzjjCCvjf6CcKzrCsifmdPcxZC!CcCFuaaj8<xGaNbdxkNkHcnqPPmGvjjhPQcCvBGkmCvvGk7czshrQricjLJhac5YPHZcCCcvdGuJinGY<cGFGid0Epmmk9cuF9m;<GmFKp9xiiaxFZjjjbHdKHmCfW*xJcCCjvjC6QcvKjcqccfn0vEJ0pzuzP8Z&qHzjkkCPfC"
};
