/* XPM */
static char *mat3[] = {
/* columns rows colors chars-per-pixel */
"256 256 24 1 ",
"  c #D5C6BC",
". c #D7C8BF",
"X c #D7C9C1",
"o c #DACDC5",
"O c #DCCFC8",
"+ c #DCD0C7",
"@ c #DED3CB",
"# c #E0D6CE",
"$ c #E1D7D0",
"% c #E4DBD5",
"& c #E7DED9",
"* c #E8DFDA",
"= c #E7E0DA",
"- c #EAE2DD",
"; c #ECE6E2",
": c #EEE9E5",
"> c #EFEBE8",
", c #F0EBE7",
"< c #F2EDEA",
"1 c #F4F1EE",
"2 c #F6F3F1",
"3 c #F9F6F5",
"4 c #FAF8F7",
"5 c #FCFBFB",
/* pixels */
"32,;;*<2;4;;<>,<2<,,<;;*>-,<<,<,&$&%*,,21<>11334544543433435555554442324424444545555555555543334334<55:;:15;-&,<221---,421555431-35553545<,44553555545422,2<222,*>21<<,2<:;;,,-=--,;,,,22334544>32<>,12,<-,,>13555525555322<,222545241121<2<43<<2323234555434444",
"32,;;42212<<<><22<,;,<>2:;;12<;>$--,;,<<<,,13223544442434354555544544444444444554555555455555323332<2,;,4,>#,,335,415555542,&<>=125533254<5555555555532,,,,2,,<<<1<<<,,<;-*2<;;%=-;,-,,<3445333125<>,124,;,<2,<45455323454424252155554423<2>>>3<,<,<234443333343",
"21:--,12222<<,<<<1<,:;,;<,,<><;**<3<3>2,;><211334454344543345555444445544454555554455454434533333335;-:23&+-,2521,12555555554,33454555553<4555455555532,,,<<;;,141<>1>,><-;%;:<<,,,*-;;124455333<<,223224-,22,24445453,4455533213245545433112421;<3;,22:33<12333",
"1>-,3<2333222<,<<23,,2<;2251,2*-*;<3<,1,1<1111<33433544544355555454444444545555545554554254444333<22-;,5;+1232355215334455542555335433554,455545555524<,<3,,&;;,<<:;;:>>>;*>;-2,,,,=;:<<134555534<<2,,1<;-,342<25555554535555452,4255454333222<;;<;21,4;;,,<<<12",
";-;<123343322<<<<222,<,*3<<;><;$;,,34212342332213245355455355555554545443444545555545555453344433,2,,:45-<,2<4<5455455555545555445432<553<2555545555422,,<2<>;;:><<;%;,,,:-;:*-:>,1:;,,213345553222,>,<3,;12222>11445353354555422,24245554333<,*,3<1,1,;;:;;;>,<",
";>,<2333433322<22322<3,%21<*>,-*<;;5333<4543533111445344544545555555444444445455555555554354442222<,-,,,$:<24,545525555555555545544:3,555223434555553122,><<<<<:31::,:1,<>**:;*&%,;:;#:,12345544543,<42221-::423,>,5;343<5555345521234555533<;-;3222<24<1,;;;;;-",
"2212344444433222333432;<41<3,&;&2-<534434553333443344454554555555555443444455555555555555445443,22<;:,,<-,2<53325455555554555453332414555213444555553232<<<,3,51<;%;<<2,>::%,,;::;;,,,-3<12355452554223211,1:,:2<;<5>;4>,2355445551152555542<5;223232222<;;:><,<",
"221234555444434535441;;122>*&<$,<&>545425554354333335455555545555445455535455555555544445444432225,;,,15%;32<,32544555555255555332,2:555521545555555211,,<2,<22,<11<<1,<**%<<<,,>,;:>:,:;>234355545445421121,;:*;$:<<135,3232<15551454555542<;,2233332332<;;,<22",
"332334555543445554432-;2212>;;%;<&<44443444544555422455555545555455444525555555555555554434442<3,,:;,,<,;;:2122353445555545445445232,3555312554555551:<,<<22<2222,<211<*%;<1,,<<,,,,,2,,1;22232454234533321,32,,>;&><<1344243443551445545221,;533333424222:,<221",
"43334445555354555543,;341542<1-;,%;554455433455445442555555555453<2222325555555555555555434422<,,<:;;;,235:;:4:454545555534533542352,345553135555555323<>2,,,3333,<<<:*;2;1,2<211>,<13<,1%1233445542545555553,321>$<,>1334445333551535521431;<3434532444211<2<22",
"332233545555444455433<243544<1%;,><45324445334555554555555455451543424445555555555555555454335211,:,,;,,5<:,14<54354555555544232453<5525553<5554555533432<22<24442;<,&**;,1,121<,:2<,<;,1--234315554445555431113>*%11125135432335252245<5331<5555434445432<<2212",
"322333445555443445534>;51444,2,-:*22554254543135524454554555551242552455555555455555455544433431<5;,,:>>:;;;22,44335555555545543<5<55425553533555555544232223455432,,;%;;,12222<1<2<,<,,,,-,23342455555554245,,,3;<*<<233443532254211353543<<4455544455433211223",
"222334555555545555542;;555442<5&;<<435542444411343441555355553533444435555555554455445445444334225:>,:;,:5-;<22242355555555552352222445554,554555555555323343455553,2<,&:-1122222<1<1221,,1%:23232455354534442<533>;;1<22234352<54412343333,24455444445422421132",
"24334355545555555543,<4544<245*;>5;33445444543545545,554355551354444455555554444434454445422332222:,,-,1;;@:222<2335555555534141<21<5344552354544555555423455455442<4<,$;:21212<221112<<12,1@>4345225555555444,,<3*>*>111334531125252233322,25555544544555422222",
"44433545555454555532:,3333,1,23-;2><244555244545355355533555512534444444555554443344454443333211<->-&:,:=-:;212:4345555555523323<;,432455155345555555555444555534422,;-%;:<33212<2212122221,2%1222355555555444521;1>:;1112343331133<35<3333*34555424555543553222",
"444425535555455544>4;><,333;<,;%;-2342454555145544551542455451254555545555455544544455554233<>>>2;-=-;,%%-:222324325555555533<:<4232<3555555354555555555445455534444,;;;--;>2212332213223342:>,22455555555554454>11;2::<1133324>143<335<332:45554435535555535544",
"54443434555554334531,<,,,<41,<;<&;2234<145545433312115453553432444555555555344545555455544221:;:,*-;;-,;*<,412<34235555555534232535235453355455455555555555555445442,1,,,&&,,432323222<2322<2<;22234455455555545:431<>>><1233233<43:334234:355455445455555555555",
"4554243455555552355<3,2,,242;**#:,354243<,35555555535355125333453155555555554555445554444434<;:;,%*%%--3;<;<2<:<44555555555343334234345335554555545555555555554455432,2,::=$;221<223444124<32<*<<223454555555434<443;<;*<1132232,4<1154334:355553345555555555555",
"554534345555555524533;,3<35,2:<%,3:4555545531354555555553252444443345434555555555555555544231:*-;-,%#%%-%;:,21,31455555555543223443333252355524555555445554545555555212<:=-$;,1222232<22224<<-*,<<<355555555434132522><%1323423222<254524;2355544545555555555555",
"544432345555555555233;<32,,;32<<;<22445555555,2432524422,<,-<223442453345555555555555555433435;<%;#<-%2-;%%;21<24545555555543,2344434333444554<4553554445555555555554222211<%,,22222232322<<:-<,;23355455555434134345;;;123433513<<255423>3555544544555555555555",
"55554424555555555524342;,,32522>%1<33:1353544552<3113432513332,521:>33334444555555544434225225;;-:::,2,;$O;;,2:2552555555544333334443355553344312354555344555555555553<<1221<&:<<1223221<1<;#>%*>><355544554321344432<;$>333154<2;24553,&23455345455555555555555",
"555544435555555555553,2<,233232<-<;,1243342355545555534535<55453<3<<432223333555554454:<<<;:;,;,;,,,51-2;,%;14:5542555554433,,3343345533355355422333454454555555555555421,21<:%::<<22,<<<$*;:,;:2222445444321244333431:&13543234:<44454,>23442554555555555555555",
"55554444455555555555222<22555422,,*;,,-113443555355555555424555512><;312,2455344553,12<15,1<<:;;;,;,15,,3;&;>12455255555433<-23333343333435553422313455332445555555555452<1,>;,:%;1<,,-*<22<<>,;><,3234545<11<34454434&;2351222<<1455542,34443555555555555555555",
"555444444555555555442332<35553222,-:1>>;224353553555555554245543212><<22235<5234335,213442332<,<2:,,-*--,$;,<<3455555555434<;453224335543555541<<4245554554455555555555543,2<1<1-<;;:;-,,22<<23;-,23,254445<<113333353;<;13232<1;245553><34345535555555555555555",
"555544533555555545543322233542232<%>2,,;,<3354354555555555254552334<<;311<12423335<4554433431221;,;,;;;*;*;,<254451555555442;3334223455545555521<2333555454444455555555544,<<<<<2**-;:<<33<11131<*134,24232,<2132333451;-;112,;;;155554:243334535555555555555555",
"55545453345555555542332325555332<,1,>;,>,,134555345555555541444314<;3;>>:<124222321,3354334433312,21<<;;;,;,22:45545555554433,3334344544555555<<2:23244443344445444555553411123<1<,,1112222231<<<;1342443222122231333441%2>52,,><354555;242354445555555555555555",
"555534333455545354523433234533<2,2<$;:<,:,22545553555555555435444233<1121<1:,155432<2;<113321312<22124->>;;12212555554554442;33332233354544545432<<<2233324322554545555532<<<3221<<11<24<1132<21>-<34,44332>12221<2222312;,1><<1245554;1435453354555555555555555",
"555433123553555335442334<4453331<,:%-;,<,<14344555355555555532<34331<123<>,2534554<5<,:<223333323321<5,3%%52124144<5355541434534244535545555555222<1><<232234155555455554322<1<244543444233<311<,:;24,43332<1221231<12<2<%>>;>>5<55553*5544552444555555555555555",
"555444333344555333353443<325323<,:O*>:,<<12334555555455555553,5,125411<4143333,455521,,143433333523,;,*%&*<22<4;452555554251<33255555555555555432<22<>;<<<123445555455555543224455554554534332<<<::>22212321<322112<1112,*:1*>23255543&1444535544555555555555555",
"554443133224455222521,12:333,224;>@%;,<3:222345555555555555552542<<21533345553455554232,;,<4<11335,<::,%*,:<222235455555415222334555555555555554322<><<221;;23554455555555434455555545455543<<1<<,1>133<22,1,2222121212<<*;>,<33244531*3555434445553355555555555",
"5554431<2334522423>22233,23<512;<<@*:<<21<123355555545555555424344,11<<3343455335555244343111,;435<;,*;<2,3,12322545555555524534555555555555554533<,>;;,><22:2455454555555545555555555555553<<<<<,,>-,3<,2<<<1322221<25;<>;<2253535542;4545444544233554453455555",
"554343313222313<2,12324433;;12<<3;@*1<1<211233355555555555555325235111<3234553345555333432333131332;;;;<;,2<2<25:5555543552,5555555555555554334442>33,><<,2112355333345555555555555555555555443><<<<>,:1<<,,1<212<221422>;<22<3354554<*3545544434455444344344555",
"5444322,1123221,;>,5434422<,<,><,>&;5<213:<333244555555555555522234,511212353425455553543<1232434412;;;>;25:3225-5555542235<455555555555554222<52,12221>,,21<23<5433443555555555455454555555555311,,:2<-;<1,<22232223221,,,5222444432<>55555544454534322<2444545",
"5332222>121:;&:<22434353233322>:,2-&;,,,2<:1233355553554555555,-<,1>1,,,111552,32454433531*524<>;55:4;>;:%>::222,55555521522255555555555442,,13331,241,:,,31<33255333335555555555344545355555542,,,;22<<>-<,>,23212<:,><<;<1231433322;2535554534343325;,3,143444",
"4543333;,11:,221334555322554222<4<,O;<,1;23;<33435555555555552,1122233555,153332223344431215114:<,&<44;<22:;--211455355432524555555555454211233342111>1:,124,52355555355554555344445543454545541:1<<<2<2<,>,;>1::;;><2<5,;523222<112;*245555555344321:2,<,112434",
"444332,<:>,,224544555543<432,;;5;-->$;;<:>23,13353344455555545,:443455434,:434423352343,333344;;-><>;34,,,141-,2,153525553,2;455555555542:3222344243421112443<,25554433355544455545445555443555<12<<1222<:-<<:;212212<22-,<2214,*;4*2%2255555355432<:,121,,,1434",
"43224,,2=;,1,245545532:122,<&%;%*%-%-@;,,,<22113352133555444325123555555553<23143243>2121<<;:*;:,,;,,3%1:12::1:53=2555355523344445344455412<1<5554544431345554<<4455555543545545544224554443453:2221212,:,1;:122123322;<<,33<32,&<<322<45555554433<:<<,,,1,:,232",
"342>4,1%--:,,:,254552,5*OX$ X@;%o @o;;o**<;,112:33232<4555555334423555555454232344332><2<<4><>1::,>4;,<3:-21115,,-5255554455235435355312423212355455454554555523344235555544543344443322241334<<1,<:<,:<22;;:>,22,11;1;;;,<232;%,232<&,355533453<2111<,,,,112,43",
"33:<,,-:=;:>,2,4,:;,2:% ;,<;$&%;*%--#@-o%,<;<:<4111432542455554555355555555541:14444112>:;1;1>1<><1>2-,,22;=155-,,3255555551;44235553234233321354234432315555525555533324545332<333443555343112234445332<<><,,<5-;1,<,>2>;>2,-;24422;%<44433332,1<<1<1<<1,,>;:,2",
"42<<11#>:,24122441,:13@-><22;*,2,1;;#O@*#:,:;2<13<:4424223453<55544<555555554422;5444<22211%>2;;-:,-;:,*;,;;-4,;=4255555553,,<2322243243444433222424222225455555555552223322224444455555553134134555533222222,;<<223233451;%=1124422>;23333221:21,,12;--:1::;:,2",
"><1<,@:,5,325<441,,;;:%%-<<33<<>52,<,%.%$-:;;1124241<5244222355555545334455555442;55541<541;;%:<2,2;;2<>-<45>;<%=5325535253,21<53344455444434353554434244555335545455333233333445555555433223524555454442222<::<2344355443112234332<<=:244322<:,<,;:-;,;;,:::::2",
"<<3<-132<422452,,<,;%%-%<:;2441223432,;;-%;:4::,<2333<<321225545555535555445555453;45453233<1<1:,1,>2211,>231<:%%221<23321253,334432245442432225445545454223555555555553434545555555442452554345525442343322::234445455555533432<32<&;:2222>:;,2,-;;;,:;-::::,:,",
"<<<%&41432<452,,4:,:#@#@%;,333322<2322,1<--<,<,;>,2245<,423255435554435555445555342;1544443>2222251333141,,-:1;%,,131:52,,2141<232<32<<2222322222244244224525355555555555555555554445533,355555424442421222,-13545555555555554522<<>-,322,,4;-,,>;-;&&%--;-:1,:,",
"<<2;324413123,5,3>,@*;*;;:334;31134344523-2-,:3:>;<42<<,<354555455553355554355544332:144444114143<-23525345;-3:-3,55453253255435<:<3><21321<<,,,-:;;;,124454345555555555554555555245543,<3455554354542521>;;234345445555555554332<3;=,21,>;-&%;:,:-$%-;==;--;;>,",
"<>:<<232542524,22,,%;,2-:<543244232353514;%-;2,4:>1:5<35:2335454553454555554445543342;*4435342143353332544;5;;2*;4<24543555555412312<32225543,,*,1:,<%:34254445555555555355555553455:2323355555535234422,&><23454455555555554422222<-2,,;-;-,=;;3;:1%--2;:;,-:::",
"<2-413224,335<533;*<2,;>234452;3143445314:$&;:4:>,<,5,5;3<43455334342555555435444432425543354311355&-233<55,4,5;421;4522555555554433<<,<2222<;::<,1:,;,,3234424555555555542255334423:33435554544554552-,:22134433555555555555421232,:%;,-&;;-*,1<&-2&;*%,;1-:,:,",
",:-24333243<,:;5,,o-,1122444231<454455214<O-;<<2,121524;<<2,133254433355555555445444432154322324251><2533355155<225,3555555545444222,,:552221<:::;,::,<<<323534555555554334315444442,35555555555535541=,,,22<2233455555555555543332,:<--,:--&*,;;-;;%;1%-:<;;;,,",
";;1<4233334:2524,&%1;2<5335331513545333,42@-:*;>2<,,31,,;,,1124<132344555554455445544<,444532422224;;224523;554;15,44335555543443222,,,444332<;;-&:;:2422334525455555552455531455544;321455555524544<=,-;,:,<<435455555555554544442221:-=*;-=;<,=-;;;,:%=;;&,;>-",
"-<31145<4<>334<45@;2,2442554211<5535423,2:o-,*;<2,1,>,,;3:33,>,:<123455555553434543211<43343133322<32>3241555,4;:;13552355555455432<::,2233322<52<11233:,334525455555525555554354323,<52232153353,,,-=,,3<<<2,554555555555555555555542<;>,;---:1:&*%,--%:2,,>:;;",
"<22445,43423,,,&O2>,353245532<<33554434,3,%;>--:;;,42;;>>;2:<::>,21234555555554555543245535343<42245>31454,,;5;4:-;,552255555544443522-<<,<<22-555555221<<445445555533555554443231<,<2<332,;>;,:21<,,23244332,35555555555555555555554<<::2&*&-,:---;,,3$&:<<,14,",
"23443234,3432;&%*:<3244435441<<2<555452<1,,-&&%-@:;;:;@;:5,-233<1<%<224555555555555533455453533331232>424332<4;21;-1544,555555555444232<:%-;;355555433432;324543555335535434<2233<<<2<534>;3244;<,<2453533545<5554555555555555555554422<>-&,,::,3%,;;:,-,1111233",
"2233225,234<; *23433444225431<<2<45554<3151-%%,::2$,@&:%-%32234243;,,2355555555555421345545533233225-;3234542222,;;<3555355555555544421<22125555555433424,>4345353<2323542222,451,<,15542;;><23>;,145434554533454555555555555554554543232;-<<>2<>@;;:;::,211,25,",
"2314332;32;2o,2<5445453<454312<3123353331152;@%;:2::-<;23,1224222<4<,<3355555555553514235545434143244&1>123543542;<,554434444555555423225455555555554433342:444525555334534<<342<;<,3553,*<422<345<44555555333332555555555555554555554><:;:<,;,;>%=,=;;-:1<>3112",
"34242;151-2&:1,34334543<4445<3<4224354321211,&-;,,,;-,>1<>2443343211*<3244455555555554335453543<34234354,3454325<,1;4554543434445554532344455555554554543343<3345543455522233342,2<235322;2,,14444445445455323523555555555555555555542,,;;;>,;--&&;;-*;-;>122<11",
"32312;*X-@$;,<1155555<<54455<2<1<3435441421,;-,-1<,::4<><444345532<<=3244455555555544255543443<31312245;<33454<41,:245454333543455545431355455555545545453442<235555444323342<><45334531<;<,3444444323232443342255555555555555555455551,;-&-:;==&;<-,::,:11>2333",
"<4,,%%@;<<>,35545443<54455451<122352441122,1>%-2<<<:-12<244335554513*223344555555545445554431::<31,;<:--2455435<1;2;,2444444334455555432245555555545455443454,234552<1222<>,;:>45554455<><1>234223<455442433333245555555555555555555554,,%%;;-;&%;;;-,-:,>2213::",
"22,-%;<;212444354313545555422334334223<<211;;;;<,<,::2,333335555445,:<2223455454551443555443231>;432512143554223,:-2:,444443223454454542444455555555555454454213255,344142--;;<455555551-21222222244355444233432234555555555555434455552,:;:----%=%;--:>,4222121",
";;%O-<;2455454321235445555431<<,<23434<232,,--<<:;,>3,32224555555523;;2335324325554335554344<<543<112<2<3455532<125:5,144444332454445543<254555555555555455543-,,52,432;1%%%<32455555552;<,,,2131124535433322213334555555555555554544533>,<-;----%-%-:,:121,2321",
"%o$-<,1334443222545544445532<>1,1334231<2<,1&2<:;1,135234445555555552*<234225333423<44453532343454545345445542212511::,323343433455445552145544555555545555555552;1-@@-:-*&<4455555555,,3<232332312453421<1<,<22433555545555555554455452,:;;::-;:&=-1,,12132111=",
"@-;;>2><2422244455445555432<:4311<42242<,,:-$;,<,,223335455555555544<*234555533223145533443333335545534<444534424,1,:,:2333344444443444551244545555555555555555552:>22,,;-<4445554552351,<:,31224<2244114444413344445555555555445444444,1--::>:>-&--,,212121,:=%",
"@,1;:<<<<123454555555544332>;32332,4421<2-@2-,:,123244555555555555551;24554533433245423433322132554554442445552511,,::;23223444444553445541455443355555555555555555412244433455554551221;,1<21324342232355545534553455555555545444454332<;>,><;:%-:,21:1342,-<<$",
"=,,2;:32,43255554445444431<;,12335<34211;,#-,:;;14525555555555555544,<24424223222444335232<213345555544244445543215,:;2<2222244553454345454<233455555555555545555533222345334444444213211,>3113<2142433455554444554455555555555555222321:,1,1,1,=;>1>222,,:,=o,&",
",,,::<1333555554555444445;;<<435,4:4214:%=,,;<1344545555555555555453,<322422232<3323222,122543445555433124445454251<;;,<<<<2222344443544444542323354555555553553555212,32234554543325432::,32323233334555555554445535555555555554442222;,1,11>1,$;1:2321<<;2&@=,",
"1;,;2,43555555455544443:;144445414>431;;=,,3,14445555555554355555542-<13242<23<13<11,<2435444444555543>24344454543<,:-;><1<<22235443345553445524323445555555544355425554,244445435325532,3,3243432334445555544555454455555554555544222,;1,,:,,;%:2122211,>:,:%-,",
",:;212555555454553333,#;2334543<44:21,>%<,2<244445555555433323555542,,22232<232<<,52355445444335555543,2444344555111;>;->;<22332453334454554443443223455555523453<323334<123323343315332>1,323433233535555554445555545555555455543222<><<22,1,--,2,2111,,,;;;O$,",
"1,222255555444553331<;;<23332<<<252,,;;&,1234442455555553323334443423;3,<3<,3<<4<544344454355545555543224443244454211;1:,;<<113234553444444434445555422442544555555455555434445533555412;<12134435354455555544555555555555554555,123:,1<2,<11>--,,2211<,,,;&&@,,",
"2233335554455345443;<,222233221323113$%;,33345444555555345322234<333<2334<,<<<<5<22334454455455455555442234434454442>:<<1<,,<2<32345444544555344545555554455455555555555555555555434532:;1<23554335355555554555555435455544555552421<,,<<1232,,21<231,,::;*%%:<<",
"353324325555333,1,-,3433,23433>3421,,&<333<2545244455233<54<12444323333<3;;;<42221333443445554555553553234544444442<<1<<,<35,<333344444555454445545555555555444455555445555455555554323;<<333432553545555545555555545255432555542<;>223122121=;2121211:-;-- ;;;2",
"53342355555534<-<12<4333331<32122112:-<34343255344444543<2331544433332223<<,:12253433334455555555553445434225445433<23<1<,52,22121144334444544334555555555554424355555555555555544333<:<<41344<434555555555555555555424345444543:222222<31<:3::12122,:1+%,@;:234",
"535535345552,>3<1<2<443424342323344,;,<24344441435544532,4522,55332423<2,<22,:2243444335555555555554445554443453234233212;<<,,13223212244543333352225555445424544455555555555545431<>;>,42244144555555555555555555555<344445344:<222233><1<%;:,,2,,,;4%@=-:;3344",
"5555<55455<,;22223<<22,2233222233351%,<1344525422433532213343222244532312212,22233443355555555554555445555424445544343322,;;><<,1<<><3234555455544532,,21<2112245<33544443,<331>>111;>1313452455555555455555555555553<,55553542<413333211>&1<<,11<:>,%@::;245445",
"35255555432>2<332312222<2>,133334441::,1<3553254322235,24355433445433,223<<<,32233444455555555555555455545525555555444221,-,;::111<13<25445555555555555455555545533<,<1<1254343431;<<122354354555555455555555555554532,3442443232334432222-2,,>,22>%X@;1,14422,2",
"53355552,1,,331111>2,,13111222223331,:2123553235543342331445255443432,;,<,21,3323234445555555555544545555553555555545432<:,22;;,2>>1<234455455554454555555555555555555455555433444141<2454345455555555555555555554544,>332123<2214223323<-5,;-=@%$,*,:;2442,5555",
"4535333:<;21,1:,::%@=,>421422,2433432,#125535433355312441555552444435232112,,23234355453555555555554444454445555555444222122221,22;;:443455555555555555555555555554444545553434454<224543534555555555555555555555445,34,<;;:<2441,12<,2<1%--%:;,,2,;;,2445255554",
"223324<21,223,3,,:<=-=%;%;2224412325425:>3554455324513555555445544443433<2,<52234445554432555555553<<:3444425555555555553424432,<1<<<&32344555455555555555555555555555555454454433414244555555555555555555555555445325,2<<34343412132**;-;,,3>;32333344443555551",
"233335<:<33,3>;;-&%@1%@ %o;11121<<<13342%2555455433223434455554555543423222<2<23455555554345555554132<132543455555555555444443322111<,<<,34344445555555555555555555555554454535334335455555555555555555555555555441<1;;,<:-<<111,>24:-&-;;,1><334333455515543122",
"32332;;<331;;,%-o%@=--1--%%-:1222,<23322%<45555355432224555545445555345222<,,,2254555555353455444444422,;33244245555555555555543222<<>2<,;2233232233243244555555555555555544555445334554455445555545535555555542112<1;;2<11-:;*;2,2-*=%%;,2,23443555554255551222",
"<,2;:<<22<,-%*$-=-;;,,:-,;;1;21235323333<-,2455555452:2145555544555555424,,,<42345455555443343322245423<,;<;<24455555555555555532222<,:,<<,;:,122233435444525555544544554445335441445545544455555521555555555323<1;%;>213424::>*;;-%,,,-<,1443553555524554<<1232",
",,:,<223<;::@:;,;-,,::>:2-:,@211243224251%,145555543,<,4133555554555553132,,2234455555545255353544454342<2223332445555555555555533322<,<;>,21,2223423345554452433444333335553322255544555445542<111223435534333,;-%<>;<<1<>>;;4,-=--,,;:-<<344545543232<<2<2221,",
"><<2223322;<$*;;,;2<>:1,5;1,@,11<<2213442,,245555555232122155555555552323<2123444555555553333333434455344131:22454555555555555554332231,:,<2;2222224344445452223443<53331125323;44555453324212333111322,,242423<11%>;;<11<2;<:<;;%%:2,::<<,2<34445424433<<<2<<<,",
"12122321;2;%;%%,,1,1<<::5<,4;:2232,33,2443;;13555555353232245555555554322231344534455555554433333434355435441;,355555555555555554533221,,>,<1%123533435555545534432<33333324423<2544432332333523233<<<3222<4<<2><>:,<2444351;<;;;&&;,;>1111,,2222234533,2<<2<<:3",
"222122,12%%-&+;;:1,,<,;,;->2<$2,<42<<3<3443;;132455552541224455555545,231<,24445544555555453355454435555555555<<15455555555555554443335,,,:,1;;,<233425342545343343335433333423,2,4221343454444212<,;<5<2<13<<;:,-;42<4545532>2,;;;-:>%;::,,,11:2553543<2<254<,2",
"251:,1--@,-,1:;,,<2<<,:,,2,2;=-:,,532<32<5351;%;23555545412134425555544222<2,4445455555545555333444555555554554522445555555555554545541<<>,;<;;,2<:<223455553235433455333334422*123,,<;,1233,-%*-;2<<::31<*,;;%;;,<22<4455451<,;,<;:*$&%&;-,>-112455444*;;;><<<2",
"2->,,:%:-:;--;;:,<11<,;,:;*%3-%%%&<13,<25<23432;,245554552:22554555555554222<<45554455555554445435555453552,55,4444222455555555553334<131113>5:;2,,,:2<153532233333353422554222;,121221<<2,2-21112242<<,5*<<2;131;4,14255453<,222<3;-;%&=%;=:,15<2444343;;;<2<32",
"2>:,o->1122<24,:<;<2<<2;--14%&#%$%&;1,1,342<2452-:245555441245155554555543231:545555455555555555454454434355555531,5455444544545554223,,12221,>>;,,2531:,:55421<<<2523523353324;&%%;-;>1,:&-<1222<423<<>>21442,14*4,4454422<><5412<::1:,--=;;>-:>254552<,<;<<<2<",
"1:2=-,212233111,1:,<2<,;;;,---;;@=&-,,21<,2245551%>3455555525554555255544433,214555545555555555544454443555555554223,:2,2324233232<33<<1;;,5<<,5:%,23><:::4:35223<,,<3<232422<;2241,,1,,,112,;<,<2311351423445,<2,1<345323<><34432;211,:<,:-243=;;;2232<,;,2>>><",
":,-@:;42222131,;,44,-;4--,:-;=;%%-::,221,2245455,%,3555445514545545155534344:>24555555445555555545555555545555552:4422223211222332<3<<113,<<<<,3:;<232,255532<53,352<2,>,11<,2234221242222111,212223<2<432522<2<2<23444432<33435422>11,:;:;--5-@<;>232;,;,,4,,<,",
":,;%:;2;21141,,,5;;-<2>;-,;;---&,,<>23,1<1214453,-24555534412525551555544322244555545455555555554454555555555555214442244423>223311223;;1<,<2<55::5,45,254553,443:142,2:2,;<534452214334333333:123<<33432<22444212>1154532<4443443<<,,:1,,1,%$@;-;;>2<2%,31,,<,2",
",,%%:;>,1<,;4:::-:,1131,<,,,,::*,1,1,211234,2543::145555522,25555215524343211245555555555543555345455445554455542>542433432342222<2322<,;,;,2,51,;-,25,555554<5532233,,535544<43,1254443423223,,,,<3<213,554333321<1<3542,44443332,32,,222,;&@%@-;>:5,4:<,><;>1<",
">12%;:,,>,,::,,=,112111221<21,<o1231,,>243124432;1525555422415445,55543433<2:355554333455555534555554555554445552344323333224333<2<2<,,,,,>1;:34,1,,2,255555332443223551455255444422244544421<1,,,;;<;;5,<23332411;22<32<34443432211112214,:-&&%;;2:5:;;;2<<>;:,",
">:5+1-<,>,<>1:5>211,12111<221,<%,541,13224125243%251555542<2<4555355534344,2:355554555555555555555555555433544554344543344323234,,1,,>:>;:,2;;;:,--:,222335353132<543444425342354343<454344524::,;,:255:;213223111:<222424434321<1222<<12,;:;%=$@&;-:-<:;,122<;,",
":,:1%2::::<2:;:111,122212524;,1-;>4142222433424%124555552<,<,25545554534443,2554335353555555555555555433324534541352444343433435<<<,><,:<<<<,,,<5:==:2513<554455332554555322335323442444444442;<;,,5<<,,;<<1221421:53<23343422<<2313<1112,-&-%;%$&:-2-:>2<<2,:::",
"-<-=%-,21<:<12,24,,152555222212;#,1222344224321,34555552251345554555343212,15555545345555545555555555545444234445;4443443233343>2;:2,<<,<,,;<;<,25::121352355555445555552335344443322444444432;,1;,55<<<2;,,12121>>32,25<4331<<121<12<2121:;;&*%&%&*--,,,>,,,;;,",
"1<1$%52122221121413215334442211:-<1114422,232:%<45555551,:2455554552224<3,:3555545345445545555555555444414444443<%3344423334343><,<>:2,<,<2:2*;;::5;12<45432555455555555444333434432243424341,;,,<2<2<2<<,2:1,1,2>112<4<43332<<11121<1<22,;:;%5%@%&%*-:;,,>;;1,;",
",2=%$#;,<22112245,-:123545553232@;:,12121>,1>1:2445544122445555435534,2:1;3555454534445555554555555555525434444322<343332332431><<,22,>,,>2:<;$<%;=1;142253455555555555554313134544312334421<2;:<:<,>:<222<<:<,,1>;;<><333331<132121<11,1,,;&&--%$;%%-,;2<<<2;,,",
"<,1:11%131222,25251:13<44355543,=12112221:14%,2445544211,255555434233,2,135555555444544555553455555555554423335543>354333342324,,,;;;,,<<;>;;&-21#,:,33<35145555554555454553354554322344232,<,,;2;<;;;,2<>2,<:;-%-;:<22323332<<3211212211,;::4@&@;%$-:,:,2<,2<3>",
"5,=121%,,221,2124<,,242455554321:2;22<22,;%;<34455542<<,345555552333522>3455553453453455555552555555555555344455432,3253224334;1,32222;,22;,3-,<4&;2233<55155555555443555555345454422243333<<1:%,<12>*1<13::<;,;;;::112222242<12222222111,;;$%:%$%;$-<<,221222*:",
",-24153$12,,,-<15<,,,24334354422<5%><2<;*&>23434555522,22555555531425>1>34545444445445535555544555555455554545542335<;32,23324;,,:,<2<232,25,%:,5-:22212235555555555555554445545544323343323<>>;5<2,52>;31->4;;<,1,,;;,,22121112422222112<;$#%@%@,2--5<<<<<122;>",
",,%1125-;;:,;-212,2532555335233<,>5*;<,3-,<23434554352,2455454555,435<2>3455544454453454455554455555554555443454433241,1232323:;;:22,<;>:,211o;22,4124,452555555555555555544455554443223333333>-2,><>12<;;,;4:;<1,,1:>,112,431232232422122:-%%o%%;&=:,5<<2:222;:",
"22&%,24;==*&-<:1222<3<5555522332<>2<,<;*;<22335554332<53455455554<324:3>55554455535545555555554555555554545534555453521322333432<,32,21;,,2:1=;223411425345555555555555554545444453433332333323:;;<<>,>;*<-1<;112,11,22,5112212243433221<3;:-%@%$-;,;3<,,<<214;;",
",-%;24,=--,=-3,<,2:<,2554442253222232;;*,213434554432>3345555555225322;>15554445555544445455555555555445332333335532252534334432,<;<*,<;;;21<%*43355355555555555555555555545445544424443422<<2<<;,,2>>;<3111<11332211112113233243234522411<2-$%%@%%<5;24<33133::",
"<*@%53-***;-5=4,<,5,2<45555334433332221,&:34335554452<222555544413122212;35555455445555555545555535452342545433332212<455445443<;>;;,1,;;;1,;#>135555555555555555555555555545444532444444343332<><:2<<111<11132<221221222444333344554243423;;%;;%%%;,:,:1,,-1><4",
",%+#52,*#===%*42,114232554543233333<32<2:*,44455554<3<<22555555442323223>34555454535545544444555345244442245555552<4<=35555434213;-;;;;,;;1<,*1345455555555555555555555555544444422244454433333,<<,21;><1<<1<<<1,2211,22221222444445434535<;<&;=;-:@-,<:;:52::>;",
"1&*,-5;*--,%=:=5;,122355554322332222232<:*53355554425<;<3555555543433532<45554445554544555444555354212545255555555221%<35555542,<,;;;;;;;;2>@,24435555555555555555555555545454544322345454543233<:2,1;1<<<<<<<121,2211112,23332224454444222;;;44;;&$:;2,52;4111>",
"3-@%;,54,,,:-:%,<11242554532332222322<>;,:24455554221<1<25555455524434<<<555544454555555534555542554333553255545433,5,31555554331,25-;;;>2;:;2445555555555555555555555555444454544533345545553331;><,,1<2<<<<21121:11<2><,223433434533452422:-,;;*-O3,55;554<:<4",
"=@@2&%,3=%,,;>%1232445555443222333222<:;,%22455443332,2<14545555551233<1<5555544455555545555555542533555542455345521;;<<255555535-;4;,;;;;&&54445555555555555555555555555545434545543344555555343;;<1;2<<<<1222<,,13251<<2<2234554545555451:-1;;>;<;%&;:;3;5<2,<",
"%&;;,--%4;21;=;1244455545223342332211<<:;-1134544233223425554553455315<1<555555555554545455533343355443554243555553<<<225<234532<,,:;<>*;%%:224555555555555555555555555555445554444554445555553433;,221<1:,,;,<<:,,232:<<<,<23425345554434,2:1,52<1;,-$@@>4;;-;$",
";:-21;;--=;,=%,,,45554434424223311<22<,4%421224443352245345<33425433134415555545555555554555433555234555533435555532,23<5335521234,>2;;;%#%<2335555555555555555555555555543455455444545354555553431<>2;22,,:;,<<,2,,13:1<1<,33353344534425,&3<555535,32%-;*-$#@$",
"-;;=442<&<;*=,:35554432324235322<1<<,,;%124232444343235323535534522452122445555545555545455554555341355554455454554<22335534553322<<,;>-;&;1<3245555555555555555555555555554444445445444434555535322&,2;;:,,<>2,<<,<22,,1,1:244444445544254;>,55555,;2@%%%$%:-1-",
"12-&%%>5<,-;;2;2343433223111222,,<,:,*&;<<334434235<35524552532332424<1,<5554455555455554555555555532533555554555532<,2345345554322<,,#-:-3<<222445555555555555555555555554455555454444435545553532<*;2<:>>;-;;22<<1<,<<<<<3244443345552555,,,555<;5<;$3,2,;<<;;",
"$1-212*-45-;:&<,5234552212,12,:1;;;%#$;<<<234444553345<334513232<42,14<<1444455555555555555555555555454453455555355433<3355<4555322,,;;<;;*@%<21225555555555555555555555555555555555443535455345331<>:,<,<,;;;<,,<<<<<<<<<<;<45444545554555;-,<51,;4;:%;3;-<;4<;",
"<;:;-;;%;2:;<:5,<234222,<1,;1,>-;*;,,,2<<22245444:24552<24<3252233115<<1<234444555445444555545455555542434555555555533224155355552<,2<;$;>--><<2235555555555555555555555555455555554353434553534223<;,2<1<<,,>,<;2<<<,<<,<<:2453444555355523-:,2,@@;&2>3;<;2-&;%",
"2>;;:;2,3,:11:=22511411;>1:@;--&;21<<<11<<<<4555134555135,1324222<33<<1>14544444455455554544355454555443335555545545553<3<<55454532212,:,::;-%1124455555555555555555555555555555555444344455434212,<;<:3,<<2<:<--:<,:,,,,<<<23534435451455,55,2,1%%:$454;55;%<%:",
"%%&&%--::251>;-:5214,1;-&--<::>5<2<:,,,23331223>35551334<43454,242211133554443454554554454455355444443553534444553353543332254555534211,-,=24@11223455555555555555555555555555555555435344445432<1:::**;<;<<<<2<;,<,,<,,,,3,222244334325451>;555;::,#;<;&355*&1;",
";$,<*3%->:,>;-%:1112;%;>;21<<3<122,2222134443333355425213555532444<<<<3345544444545454545455445455543324355455554444235<3234452555543112,$-5@-12224555555555555555555555555555555555443444344322<2<*;;:>>;:-,:<<,;*;;;-;;;<,,2343334412535,:;,1:;,5%&<;2555%%;1;",
"5,**-5;;--,;4-=-::11%4112<32222222<532444454333335513<334555333533>2:<3454544445555555555554345555555554555354444454333<23123554555522222-41@>1422455555555555555555555555555555555353434434432<1<1<3<23<<:;,<-<<:::;,,;<;1<1;244244541543:;,<<1>:%2--&,,;:<+;-;",
"-2,=3,55:=%;---1=12=,211>,512222214444443334445545<3221555552455112<,23435444555554545455544534335555535455555555545432<:22>45555455421111:%#,223255555555555555555555555555555555554533441432<1<>,<332332<-;<<;:<,;>:;<-,<1;322513333<444;:,434,1%=-%5:;%,:-%=2",
";:::;-2,121:>3;-:>:%52215122222222342443444444444252<325555524443,1<153433545545555534555544455535334545355555545543333<132125555515222,,1::-%>12355555555555555555555555555555555555552441232><2<22333122<::*::::;;<:;;>,<:<23232432,3232,,2<3,:--%@%;-&55,=,,<",
"%--%:,,-;==--<>==-=>34253222333412455544445445424<533335555544441<<;54443454544545544554455345545543542445555554544543,3<322333555554221,,:,1$%:115555555555555555555555555555555555445223<1322<2,42343221<;*,:;;;-;*:*&<<,,333311553<15432&<,*;,-::;*$%%,,;$,-=",
"4125,42,51231>>234-233444323444542225555533333554<13343555554443<13;24455445554433335555455555443545435355555544454353<<23122524555455211112,4=;222555555555555555555555555555555554354343,23332<223<2231<,2&::;*;&;-;%:,23<3323434243<4331;2*%2-,,5,::o&@%%$3-$",
";;;:12312455453211-53434554433444513445555455552142<445555534443113,335444555555333344445555555334555443345555545442<:1<<5442215555535441121:1%@;22445555555555555555555555555555555555552,<<32331<34341<<<:*;-;;%;*-%*;>13>133233213323332&,%$-,;12111$#%-1:2;,",
"&&;:><213344333111,1<33455433334451124555555554213223555555444441<3<134555445554322332455555455535555452555545544511<232322352,5555545433312353%:,22455555555555555555555555555555555555<2115<323233143321<<;%*;%-*;,%o#1>11<<112112312433,4>&$4%,:145,#:53,:--=",
",21>11>144554323,,%:<33455453234545425555555554214321555453543321<3<,445543545532334434554554445344555443554545551123453441,52,35555552544322:=;-<1245555555555555555555555555555555455<<2<2<<24<322321122<<-;;%%;%-;;:*<>12111341333<23423<%@&:1:<2,1:--,5,111,",
"121413433444343321,%:2435555343431124555545555421244355552543422113;>3555443543432122434554445545555554545554555<33555333522,2355555555244332>,&@*:243555555555555555555555555555555453<3222,2,2<,12333222<<:*;-;-*;<::;*;<21114333231224335-%@>::%2211,#;2345,,",
":231223544445433421,%2345455533332<254112135544422344<5553434443<1113434433345432<132344454445555555555555523:2235135523,252,41,344455555544123%&X32235455555555555555555555555555534432322<22,131,2332332<<,:;4&&;,2;*;&>12<133322423342423:#%:,1,&1134-%1242;;",
",21224434444454442213-13555554422212<2334215454424444445433354441:3<<544331154211<21123232545555555555555442>>,2<134<3;;;-,;;;:,443455555344221;$$;>2445555555555555555555555555554231<3332,<<<<<3<<13221221<:;*;;;:<<:;**;11132324133545442,;-&:,2;-,121:1,3211",
"2142453331121344444212=33455552322,1354423244545<4455535424333443<1<<3453<<><,,<><<><<221224445555554555434,>5,5<124>;<35<,<;2<,:224555555432,22@&%2125555555555555555555555555555552<<23222<<,2<<11<3222<<<;;-;;>;;<<2;>;%;<222>233145545432,;o%:14:215211212:,",
"53332,111241>224433431<%>2355532321,22244312122414544541523432431:<1;;;>,11<22<<1<,<,<12453244545555555553>33::21451<1<355<,2,,2,>,555553333322;=-@;,13455555555555555555555555555542532<2<2254321<<,211<<-;;;&;;<;*222;**>@;3111-233345545543,:o%:411:113>22122",
"34115533343335134332<321:*245553132,;43343321111<4555554324<23222<24131,,2,21111<22<<<2,<,<511,<,1:545552,:>4-<:1>:55<255,:211354,4345541232332;<#X5<22444555555555555555555555555555554<213124<>;,3,4,>,;,,:-,,<,:5>125;>::-,42235,4153555455224&%:,4,;5<<<12<5",
"222233522333332,2233333<<:;<45554321>%23322<11,1223455554234213342122222111,>,1211<,12<<,:2-;,<322<1,:2;;5<<2;,533121143,;1234435432344323332341%o$&-<12445555555555555555555555555555554322,,,:,,;;>,;,;;-:>,:1>12,>111,1;1=,234432344424544541>,;-;342<<><<433",
"2122<3432345352224232222<2-2455554<3,->3222211221123555545134<3323242432222,15,2222222,,<:1<:<1<,4442,12:<21<;5244,;&555,255554355<2554232322>,;@o<::,23455555555555555555555555555555555432,;,2<<<>-;<:;-:*,,,222<,-,513124==214343;331244454552,;O%<335<<<1542",
"21<2,3422354353<22<332233<>;3455543222<1,22,11111133455555433544541423223342111,<,,>22<<<;<1:22<21,13,:<25<15;>441:1&,;:25545554254122533<<<1;:%%&%;<<23445555555555555555555555555555554554;>:,<<<<4,-<,,>2231112<:=1222,:;:-11222441233344454542>;&;354325<333",
"22411244333252222133433342;324455424431,1,<<221221333455555354223423423122423433212122<<<<41<<21122222212<3>5;:<35;;;:5;144555552555532<1,>;,;o---:-,223555555555555555555555555555555555543-;,143222223>1:1<11222323,<221,:>5:,1212254332344544422;**<334,1:32<",
"2244<1<<<33322,22223335235;33435554444313233322221214545554<,,42432233434431453232<13<225<,,1<3123312252<2522,4,2225554:5555555535555522<:@$-*,;;::,<<33555555555555555555555555555555555541,,142333233322;;1,2233325-2422::,,%&1522121343434454522<%;<45552;332",
"2144<<<2<<,342221344453<3<&,22435433444422233232234145554532345555231<14332432443333325,,,,<<22234333522<35<,<-:2<2,:4,124455555355532<,:-,<;,::>;15<,23555555555555555555555555555555555444;:12333333455532>,2234223-132111;-,=,2112221334244453431;;;44351-232",
"3211222<1<2<22<22135444232%,,233454<345431222323335535455444545555554434,124345335533321,<<<22233452342522,,3<;3522,5,4214555555455535<3<,,,;;;;<222332555555555555555555555555555555555532,,,1334344544544421132442<-<31,,11;2:=>111222,:4335554432;&;3552<:244",
"3<2211212<<212<534453322:22;-<3332,22233322333444555444555255555555555555431255521,<555,<2214424454221155,:;,,:4515,2:1445545555555551,:22>-;;;<234444554455555555555555444355545555555544151>,5454554454434332<2325<,222<;22,-;:-11,11321-444345433>-;2554<<243",
"222435332522554333353<<3;*;2<$2>2:1:12<<,2244333555555255<455555555555544531223443322325<2<52434434222115;-:55,5<45,1,4555555554555555;;,,>1<13,2245555555355554352222445343555554444454411,2215445455444533322,2<2<;1343<,<<,-2-,-1,152221324344321;;;3552<3<44",
"3122323544345533212-,31-:,21<2-,->:$#;,,::1332333332212211555555555555555555255334423213<<<24444531--5-,-;-2552115413211555555545555555<,,<2233222545555555555545555553323332343323353<<2,,,2322554445545544433<1<2<,:1333<<22:%1-:111112<2=24434523%;<333<,,244",
"322334435355333212;,-,;,<22<2>%<&;;-%@,<,;-3223434355,3,3355545555455555555554544554542222434443,11111:1153551422341><<35555555555555552;2212233223455555555555555555555543232<>1,1<112<1,1,145255454454544554<1,224;,<1325<11;*,%,><,,>,111:2445442%;2433:,;242",
"32311<1434533212<&-&,,<222232,:;&&&:-:%$%;;;2243222124542355555555555435555555554555353455354<1<354444,55,*<155<3353>:,355555555555555532,2222331455555555555555555555555545232222<,2111,21,::1125554555543333,<;,2<2-,232<<<,,1---:2,111,<1,-412443==;4443:,112",
"<2>>1:<3332222,>14==,,2232222<2>1;:;#;%#@=:,**<;,1<3322442<35543<4234422344334445454454545332<23343441255,;255512532<1,4555555555555544232<22222444455555555555555555555555544323453222442,1:5:1<2233555543432<>,>;,,-,12<5<<>,;%1=,=-3,31111;:,254<-$:342;32;2<",
"332<-%-2,4322<<,,:;241,113222<<:>;-@;<,;%$O-*%%%#%;--1:,3224<252,2<<2,1212,121,212<,1354454<134233331111,;;252,5525254155555554555554543<<<,,<33254555555555555555455555543555344445533541,-,,,1<222534453332,,;<:>::,><<22<3,:-$-=-,-,-&,1<1,=5,231-X:;,:122,2-",
"1><$;;--;423221%15,:12,223<22,;-;-&-,,<;;%%;*%%;;;=,,==1;;:,:,:*-:;,,,<<245445222222::232<,224422442354,1112<243222354:55555555555555442,<2;,<<222455555555555555555455533545544445454531:=-1,,3<12254545212<1:-&;;;;;:,22<2,;:5=.%=1,,1,,,,-,-<22533%&;3-<23,-3",
"$$;>1><<:-214<;:22223123<231,;,;;:>,,;<;:<;>;;;%$%5o*X&*:<<,>*%;>;2<2214545454455555211,12243432343443<<3<<<24<5,333,,<555555355544443211:<>5112<2,255555555555445555555555444354455544<;;;3<13354444444231<1,5*>:12:2;<,2,,;;;@ %@,;<<,>;>;<>:;33442;&;;;322;<%",
"2>>312><11::;;2123223223531:;*5<<<1<12,;:<2<<;%;;***&;&;3#4:,><<,>;<:>:>,24555431125535555554322334322232344222514541,545554555554433332221<3442445344355545452555555555554344434444311-;,331255544211,;331<1<;;11<3235$;,<:--o@$@**;<,>;;<<<1:;;4>2;,,<&>3,<>%:",
"122334323222223>24444552,*3%*,,2<2223<<<>,2,;$2>2;;;;>,>>:;;;%;*;;;<,<1,21,:,222334455212<2223424532,224<33354425353<5>4554555544333333221312331355555555555555555555555555534444<32111%125534535225335;1<;;&;;<1211234>--,&%&%%;<;;:<32<123322<1212<<2;&%>$&;:5",
"<<13555333311124433343<5<1;322<3333,>;;-*2<&4,,,2;22<123<;3<21<,,442333554553555554423533455445532,1343344344533344432,2533544433333232111311333<34455555555555555555555555542445454325$1523355545254115<>&:;:2<13314332;2;@&%&;<>,3;,423344<;<*3442211-%,<<,,<2",
":-2545555555553332321;<451,223442:<:$;;<,<-%:<22<2<;2<<322<<2432222<323424434454555555555555533<122445553554522<35425,<;254441453533333221222333345555555555555555555555555555235343112%<<2553444243111<%;<1;<>3334452>:o@-%%**,<152>453222<;<%1332224>1<3323443",
"<2135555542:::;:,,2,123554545443<1&22<1,,;;%2,,,2122<1132221:<333<3444555555555555555554322251<12255555455454222435452,,244244443333333332111<11145555555555555545545555555555443351344<;114132531,,<2>*>>*3<111<335222$o$O;;<<<>3325-3422>;:<22442<33>-<43<,223",
"5>;<5535321211111224225555<32<,,,,%<2,213,;;21<<31111331234<>;;13323555555555555555555555552254545555554533235345553555212454545444433333312311132344555544454544545555555555553<3333241:422351<;;53>2:3;<11323343342:%$%<;;<<,12111<-322;<;<22355422<<X242253<2",
"3<22333221132311113224545<35555553;3>;-;>;;<,,<<<<>1445422312<:><32344455555555555555555543555355555554222<544555554555<4143454445444433332<11223233445445444544544555545555554443442222233,111<,<:><3,:454333453>545<*@%;,<>11213342,<2,1<>222334431<3O35423,33",
"24,43333<1311445453333544545545322;;;,;:,<:,1>222113344331<,,<312222122222334555555555544555554434433133225555555555543,;5344544544444443331313233313444454445455544533554555454545554531144<1,;;*>&**2,<34345543<<254:$;>><;2223335323521>;22445444223-33>32322",
"3<<444<,11333443222244553255553221:%;,1;:;;;222,21433351<<:,113<<23344445555523555555554555555532335455555555555555453;,322354434454554443353<33333323444343445443545553444544334443443<23433<>;;%;;;>,<334444553455<<4%:<41214533554<><54<;325423432<<25<332545",
"4><22123435333245555555544445333<<#;,:,,,,<>:<><31<11211,:<3412431232,3445555555555555555545555445555545545555555553512>431523444443454435333333333233333333334445443555455454343333323<433122<;5%&;;:21244333454555552*,142335555553<12543;2244544,41%54:535543",
"4<4,,435335345555555555543422<,;<;-421<<1<<<2,,111<2>:;12331312333423352334455555555555523555235555554555554555555554,25333341<34444444413133333332323232333233453435335444543332324512142<512*<;&;*>;>,14434344455552<,2<34455445555>134322124444223<;44<355544",
"32>,,55551555555545555554425,;53<,-,2221222223,22113;4122<1<23344453244555445555555554551235555555555555444555555553233<342112332122232331233233332233122333233433334444544433332332<3;122<>2<5;;>5;:3;<3235555554454,154155555555545<34434322434232-<<531355444",
"51<<25545555555544455555423>,<,>;%:<3321222235332212:%*52125,<22443424555553555555555555423255553534333455555555555113113333332332213222312233433211113111<112322333333443433333222512;22<5<;;:;**<;>>4<4435555554441<<;;<<554434535333443222332<*;2335422454522",
"23,44233455555555455555311:3;;,::24523332333322,232<>;;;;;>1323335222355555544555555555425555555553244454545555242335431333441112333111321122233322<331<11112122223332222324333222233411<,<,;,;;;*,>:<3343354533533212322<3312132354><55423>5<<>*;;25523;2443423",
"424531255555555554555423412**,252233235442233>,2432;;<11<,;>>;32315235355555544555555555554555554454425232233544353333223323211131222<131<1<1112<11:,;;>31113221111112223323233223325<<,,;>;;;;;4&:<,<2123223>::,,,;;<,3;1354434532133522323<2:&-;>54554:25433<4",
"<222222555555552252213314<,&<3224444442224,,;23231=,123222222;<233545545555555345335555554555555521453325432,,-;,,5,,2,,3445333<2112312221121222321,1,,,:42221223222212111321<2222235><>;;:;;-5,-%-:,,<<,;423545432444451,:3445543453<<,13<<<5>,<<3,355543554413",
";22225544554554422,,<,,23,;13,24242434<121,23321;:334442243424231235454555555554544555552355555535255432443;,24532425445<154434321<><521<<123132222121111<,422213221<<<<,<<<<2<122321<:<:<:;;,;---:,<52,<3454344455555554432445<515552<433,2211<4123225513554421",
"4433332445542111,122222,<;;3<334445443<222421411,<434453334243542533555555555555541555535333545232<232<1:<2424554344221232151231>111221<<11233333432222121<1;,,<5<<<2,,<1<1<<11<1111<>:;><>;;<;,%:<;;;,34555555554555555552;2143532<31;:;<242,43444551531454422,",
"34422233233:42215112,1,-<-;232344521,5222251,2245425455445543554553355555555555555234335555321,<<21>>5223425435312113311212112<,221222<11222334324432242212221<,,,<4;*-;1*;2<<<1<<<><>;;;:;><<,<,,212<,255554444555555555512,,,:<15222124555521;355553;,1454142,",
"24212>53,11<:3,<5:,4==%$-<,2:><,142114,,;<1254455555342235555525555355555555555553523255554553324,1,;11222222331212,114221<511<<2122221<>3435533433433433332222<<1,<<,:;-:-*-1::;-*&&&&*;:,;<<;;%1211;,2552555555555555555554324<<1::3521455423<555555434,142522",
"213;>3221-;;,&%,=%=-%%;,;;223<,>;,12;-2123551223355545534523545555525555555555554323535555454455432;>2:,,22312,43131111124331:4<:12121113223333354534345354353442222<<1,,<,,<****---&&&*&*****;;:-:12<2;3553455555555555555555524225;253453442243444444541412;2,",
"1:225:5;1==::&%%;,,2::2<<23534331,,,%121222555555555555555543354555445455555555554433355555545334422;>11>,2,22:21321,1211223111:;2>12<:23333344554454435555533324<2232<<<1<,<,,,><<:-;:;;:::,<<<14-,<2>2<43353555555555555555552242434-1453<<23255555555545>5123",
":2>>:3;-5,%-;;-1,,1,111344333222<;2,:214455555555555555555555435555255555555555555434344455543355553,:<>,23>,2;-1:,1552111111>1:::$;<;<1<2<134435543543553355552<52222<<11<<2<<<11<<><2<<<2<<1311,-=;:><2<:;32334555555555554344221<1<-244244355444555554442>,,-",
",4*,<<:-;&,,,,<1;11132322221<<32:12,-44454554554554355555555554435155555555555555553354555544333433232;-,<31>2::,41,<221<3211<3133<<,,;1<2223322344545534542554221232212311<11<112111112<311<<3232:-%%5121<1<><<2<34332555525,1212<14,>221<155555533555534::=&-:",
"<;;*-;224<5:3,<5<2,22,,>,;>;<,;;111-3454454441,%*%>,3&154555554442453555555555555544353344445534523335213;2;;2:5114422<<<<2<2134342233<11<2335432344555544554444222352334323222333221113434332234221:-45;;42<<21,244445425544424411;**%;<4<;13<2<2;32<<<2->-;3<2",
"3-&;2<3<,3--2;52-:<1223232>4<<;;,>::212223212255554544:#435555555555544555555555555335443334445433222331,,;;%-3:,1-,:,2,<<211314444553332;2235331124455555454512333124443343443333332234444444443423212,;;*;1<1232<<3455554512222<,:15>;<$14<1;<3<<5<,<-,::23,:;",
";&;<>251<2;-5-1<;4112321133231,-%112111,335,555555555543;25555555555553555555555555355432553432322221132;;&=-;21=%143323222211233223333222<23332333334555525544534322144433344444433334445444445454322221>;$$;<1,1252,<355554133,121<1;4<>$:<3144453<21<;34;-&%&",
"%;:><22322;;&<2,2,22442<3243332%:;1-<>;%-%:455555555555434,55555555555545555555555444445223333312<2,2,2,::;;;,2;2433554354,,<225433344335<21334344445235555545353442434445445554553433555454454454454222<1<;**$;,2:<222,45443211<11<<;2221;51311212<2,1,--=,&:-%",
"1<4<>,<2,,;1<,<<,433545545334<<;=4,,23232435455555555545435@355555555555555555555544443312223322121121,<1;%$1,,:424535555121,;2,,<,,<<23112335444554542555555442233235555445544443431455555554544455542331<<<;*;5;,5;<22,1241215<<311<3152:3532423<<123<,,---&;-",
"&&:;;;;-;,,,2>,<22454555542<,,-5-432322344445555545555555545;,455555555555555555444434241222231:243,15<;,;&*,<4245553<4552;;,%4<;;22<2<<<3334554555555455542533335245555545454445232454455554555555555223232<<<:%$<:<<,<15225,1-121141:55<;3333551<<;,1,=1=--%>&",
":--%3:;-;;,4>;1252455544312:;<5:23233324444554533234555535552=545555555555555544444343212,2222,41232<><24;<-:24<55554235545232,2221223343344555555555554443223353444534555554433323344444554554555555534332223213%@-;<<,124224>:<1122124<1355333441<,1;,,4;>-;:;",
",%,%-=,;,55;;2424455455332<-,-<<233443455533435324555555555552;55555555555555445443342<><222121<2333322<>,,;;1-<5554355434332<>:21222233324555555555555544331555545555555555543322434445444545555555553433542413<:-#22-,,22412,2,<<13,245;233243<523<,4*%<;;*>%%",
";<%,;;;;>12<<1545555554322:>,,122334555555455542555555555555553$25555555554533334432322<<21;:<33233333<2322215;,345425555332<<<>;122222332455555555555555544455555555555555545444333244444454555555554345454452232>*%@--3<131,2,4,3,3,,<31,343535411-,;*;3;%%%-1",
"2;:%%,,,<<<52235555555542>1:122355555555555555345555555555545554:225555555555442323222<1<<<<11333334351244231,;23455254555322,<<;211<233223555555555555555554<55555555445555544433432223445555555555534444545354322<2=#*1:,21>1,<<2>2,2342;5<<5344<,2%*,;-%&%%-,",
"%2:#,1<145133355555555544-,223135555554555555444455555555554555342%5<5555555555322<122<1<;,23333432<122445322,,5435525544433<2<<,421<2232223455555555555555553455555555555555544444442144455555555552344555455552221,,&2%;:<111,25;<2<<225;455333232<<<*;;<>;*;;",
"%%%-25<233355555555555551>:423335555555532<25454355555555555355554432%5555555532344<<:4,*,<11233422343<344552:<542552455554321<,;2<222<223<3355555555555555553,555555553445555544444322345555555554533454443444343422,:-%<;,1<2332322<323,3,;,<,24<;<>&2:%2;;%;&",
"2-1<<4223<3344535555554312;<2144555555553545555534555555555555535555555%255545432,5$%$;-,122422353345442355523<3535525544443<21,,;,<<3<2132<2345555555553455552355455555335555545422322355555555554533335234433433321,:,%2O2,,,1<3<2<433;<3,2;,,;<,2<,;;2,;-%:1>",
"22223<25,<2355555555535:<13<<23555555555553355553345555555555545454555552@4535225@&:<2<2511322<25554532245553<55555545454444121<,:<22<2<1232<335555555555445554<55555555434555554322213355555533344444443<<2422322222>1-;,&4,,1121<3133<-32222,<11<13<<1;2>2><33",
"2<243445233455555555455<<2,<3555555555555323435552455555555555555555354553121-,*&*<:422235554453545544455454535555555555443222<<3,;,,223321252355555555555553222555555555455555442341555555555224445453335<<242<,111124>;:4&-,,12<34<24,;2,322;,121;2<,;-;>2><2<",
"224444423454455555334432,:<,5455555555544<4345232144455555555555555555433442<<,;;2>2334455555554424434554431245555255555432<21,,5::3<2322344554545545555545542,;1555555554334432224255555555432335443442<<1341111-:1,4,>,>,&O<<2,>23312:;33334<;5321;243,23:2<23",
"4344422343455555454355<5<,<24455555555432222212432543455555555555555555531451,<12333334555555455552233454411255544355555432331<>25,223232345535334355555425521<522355555542532333344555555443123443<212<1422<31<1<,1,,2>3,>2*,5<<<1132<;<534523<;-<,2:4,-;;,,13,",
"<22454443455555554433>3><,33345555555554344433221124445555555555554554452311222233552124554455545334443444,,12552355555553122<<<<<<<23<3345553143121233434244135433535455223434232,555554443,>;<32;;<::<<2><111<:>3<21<<2<3,2&<;;-435;;3<5545432,3:,;;<>31<2,,5:",
";<22<2234445555545515:5<,42333554555555554333424121,55455555555555433332425211,22222224255345555433212<43312244253555555322211<1;2<21344455453254<14444<11::<-342435434424214542225555545444>,2:3;;<12<2<,<<5,5325<<21,24<;;&3%$3>343&32245545544,22321422234422",
"<-<22243323544433345<2,::12334353555544545555532514115545543334434444443211112112321<3333332555433:2322,21>>22555455555533322<<2-2522545454542535242133%-*,1,2:25322>14323334242<455555445<1;3,1:,,2121<1<<4<11521<221>;2%;;&,<>*-<1:;225435533342>,32:4433<2441",
"22<222232224444324421512<15433554444545555555541424,<55554453333333<242322,,1,22>4<>22222<32,22341,3:1<>:1,25<345555553532322<<4=234255555425455343;;22<<:,22-11423<,211222222214455554444:14222,323<142122<3<3<23<223<1@&%%2$*5<;1;:;235354545334434333424442<1",
"<1<52222332<3331233:::35,,33334544544444555545521242,255454443433,21121<12;:>,1,<323433322,23332,21,,41232213145545555453222<<<3=<24445555<45555345<<53<242>14124<1>5,22222232122455445442:;>412342222444231<,1<,3<2<22:$;15><&,;14>2$2<3435545534544323,;<32222",
"3;;-<22<132<3<31252-2,15:532334544543555555555541223<155553231<2<224<121,:13123224332>322222<<2<:2<,3423422232455555523223,,>:,;2<2555555<35555543,<54<154311,:;-341,1113223222255555444<1,3,<235422544424342<1<<<2<32<*;>;<>;<&&;-,2$5225255555444232,3<<3<2354",
"52;;-,3,,1<<115<2<,>,213,332244424533455543355554<<51,45553,<1<222213233<1125<11<11<21121<:<12;1;<22232243221443555545325<<,;*;,41455555535555544,,322,2521:2<:3;,231,<212222222554554421152>344432<24355553221<2115,:1,>1;:;,<;2@:;:%2>443545553<52224,,222<:43",
"324<-#:1:,;#;<<,4<<1;222,5333444445544553445455552<,2<554145222,12211232323421123223344322232212<1223223422<2243555535322,,;3;;<<5235555,24454244::32<2512355555555523<42424212354554443>523234333<2<11233454211245111:-:4;::;>114=%&&5,<42255555,532214213<5435",
"44445,:*34,15,;,;-,,53422333344251245544454555555552,<33<55522::>1322222233243332445333223321222<2332522422<2324545434325,,3,2,,233355413225553542,<<,542555554555554344423333333444451<1511243344532335213232234155--:,=:,,21>,21>-1::,:2443535453554452<1-3553",
"<<4555:,2,51,<;%;33245552233342222<,2343545455555553<2252512<<2334232332223313311323334532<212212423442355241224543452223<>;;<1325451234<354555542-,2444355555555555455544444344445542<122<34434433333345344311212--2--:->,52,433211,2&-><335553544452221:;43<2<",
"4;123312122<;5,3,433445534<-,212,2352121122344445543154,2,11223222243333211334445555553213443314433333245425<1224443322<2,:5,>,<<23422325254434455,4:3554145555555555555424331114<1<<<<22>244343233455554354335555,:,,,1:413212,2>>42:1,;<>244444325232,2322,533",
"553,,1122<2,233321354555455522;;><12<222323332323442254223<125221<113323444233325553555544333443433422234444112244433221<,,,::,212244142551344345422,535512555555555534444535321<22;115;25523324444344354453322551511111112151444>3,2:>;;>3:545555555455,<213555",
"5555,:4;,1:2224553255554455545<<;2,,<112323<2353235255555215432,>::<2<32211333344553355545443333332222434433521244422221<,,,;,2<232432422221333344,2,354555355555555543332345325123<:,,35524433444535<144543343,24%,1411532414543,1511,2323525554355424-435423,4",
"335555,5223<25354454355435544453,;*<,<<1<2325233245545241554324,;;;2<>1<1223143445443333333333332243>131343435:143332223<<,;&,,<12222222124133333<432,45555515555555332<123444232324133443523435555555332454452<52%,111155545155252:22525513<445535542:355455555",
"5552554443443545555541443544322233&:::<21<,11<55,,3435,355423<,,>;<:>4,>,1<132<312135334523211131<1<2131343422522332222<1<,,;,,<222<2322522413332<4542<35455543555555542<44454455543445554334444555555545333433125-111,2455555235335<3552=<33<4444452>55<3355555",
"5554455555555255555555,24422<2211<<;<:-,@%2><:553:,3<5555451<2;-*;$@,;3;,:,:>:><<1;,<22222333232221214222<22222<32322<2<11,<;;,<<1<221221<1511233343452<<455554555555554<14454443345123454453343445555554533434123-;51:4555555254322253523,2<4155533255555555555",
",;234324544555555555343321,1<,-;,,:<<1>,15--%;;::;,,,233<1,:-;*#;;3,;;@;*-;;--;::,1;;<;<,1523334332223224322223,<22221211<,,>;:,<2<12<<222<233213343<3331,435555355455314<5555555554445545433243555555555534333255=:,2,45555555552554545,;12555332154315555322,,",
"4441,2242445555555552;;;-,1<,1;,<2<1122:><:;,:-;=4:;,<<435:;*;#24;,,,<<-%=;--&*;:**&%;;;-12111332314312323233222<,<222<21<<,,>,,<22<,2<1223223<2244332455<24345554545255;>4555555555434455432334435555555554555222-1121555455555554245332,,25554431353*,;,>2,555",
"5341;;,<23455454*;<1:*:52222455331,22215>:5::<;-::=*,;22>;-:*&524<,,,,41$-=%-&>%%#%$3@%;-22112222232><44<53422223<:,<1222<<<,,;,1111<<112232233<22322,3442,1123453555554:35455555554333433335555545555555555454531@,23:4555355554555452;3,&,22455514542;;5535555",
"5445>:<;<232,=,25443:555555545442<1,222,>13,11<51,;%-;;-;%@%,,;;,<,,,,,2<;*@&:2:#&;;%@%%-222211222132<123>2233332<2,>222222<<<;,11<,<<<33<32223<12323><3432,,223353555553<4544444443434354355,2,454555555554555515,32,2:45555554555453<>3,22:34432235553&:455545",
"1;1<2;;2,1,<33435,254555445524445<312223412,135453,1<,5;%;5,<,51<<,<,,,,<-,=O5-%**;*o;:&-24<<<2123212:222<2232221<2<<<21222<<,:,<11;<<<,512132233<4<22>245222<222235553424215212222123<2222235434555555555553554151;,,2,35555555554543453<522;<<2<1,13351;344333",
"*2;>;2-*;,<<24552124551244214114523212234313532552<55535:41:5:11<,1<;;;,,;;<2%%-%$*;%;--;22222211111>;>23<<322322<<<2<<112<21,:,<3<,--<;,2,2222223<<32><321252:,434455533<:3323524433454445542<,52555555555445453<1:112,3555555555555453,,44333>2,24223354<;315-",
"534;:1;=,;13255544255322242122,21<<1144355<333354225551,,,:1>5141,1>1,,4;-%&;<-%%#$#*<<;;<11222221<1<<>4:=4,112211,<1,,11311<:-,<3<;;,;2,,,3111,231223,1221<;<,22<553433<33<,1<,223<12245455,%;:25355555555445552<12111>5455555554444553&<5554541%-<124435554445",
"45555432=2223354352334335454444454442135354<534223222212,,15>555222222111,3:;&&;:<%>#&;,<<<2112212211<;>%;-:<1222112,,,11212,:;,,-;;,<:<211<:<:=,21:<2<32<<;;,,,<<44523<<333>;,,,,--3;;;<;%%$31:;355555555554444<<1311>3<2344555544555444,,;,322:<1<<;5124434355",
"33324545554:;35>233445344555455554544424334525,21<112545414212543323322233322:;32;-%$%-<<<2<2212222223<;=2%=,<212111::,223332<>;;<<,:<<;3,1,1,,15:;:,,421<,-:---*,*<12244345<3;5;;;@*5%;;;-&-$##%-35555453333344<2;<>2;<233354444555555553<33;24444253;<;%124444",
"1132444345454541>2424333454544445355434523335,355253555434244243323333322222232<<:;%#$;::,1<21211221222>,-;:#;,1241<221112<342;><<11<:,,-<,1><1,<<;-:;2;,<;&%-&&<-**%<<33324325*;:422,<<254411,1%@,2355554543222<1*<<2<1<253443455355555<53134<245<13343>21<:1,2",
"*;$<2<22<<4245222:254455455555533332344333<323555333444245544423222222222322333><<,*O*-;;,<<<2<2222212231,%=--:,1241,-,5554<5<;2432<11,5:-14,211,,3;:,,:;;,&-$4,%*,-;&;-<2352><&2522354433255552:o;25525444<:3333<%:22>222<5<4235354555535455531*:2<:24455122113",
"3443512-;;-,11235,<4433334542335533543444433245545554445523423212333233333332321<,4<*32:;;;><<,2<<2<2122211,=%1:32241,:,5,524:322<15321,3:-534212<,:>3,:-;<3,%;<&%$*-5%*%O;,;;;;<<24555554544343;:=-255533322:2124;<14;;3131234453455555554255554<:22;;245543123",
"33443444341,;22<2<<,433322213443433443434433555554542332234322224233<232343422<2<<*<*2<<<:;21<<<<21222122121-%;2,115,-=,:1;;<1>,544452112,2,2231<,,,:<>1:%;<,;;,;&;;*-:;<1,;$;;%;<353554355555541-@1:534433221131>;<<24:><34<34455455555555,555542:1413:<4444252",
">3455452433<5;23<2><433222223335545444444354544443343332224521,::><<,322,<<<>-;><<$*<<1<<<<,<1111212232211<;:;;%==5--%,11,>,3<:,452255221;-,11,,<,<2>:2<,;*<;,;%;2<;<,<:-<<;>221,<4455455455552522-5$;552243211322*21211<11<<2344554555555345555442-1311%>132523",
"354232223353<;:,5,,<33222232344444453353344544443444234442111,,,<;;;-;;3,,<*;<;;*<&;>>:<11<<232122222<21<,<-;-::-5:-5,3:13213>523<452542<,422,1><>,2::,:,,,<>>;*;<21><:<;1<2<3<:14,145555555554454::%;<52514423,14;<<22,315531344555555554,55553452,;4222;;:4>44",
"344322<312322<:-,,,535223323225544355433444452443454334212<13;1<1,:,,,;---<<<<*,$*:>;:;:<1222123223221<<<13-,:,;:1=&;>,,<2432<:<3245345322-11,,,>,,1;;1;,-;:<<4<<41<1<31<>>><15*24:2224553525545341:4;@-,1<1:<2,1<%5<2<<<244324455555555322<<2432553,,<443111443",
"334414,,15324<,*<<,2<<212222211233533553454442454454423221<,,2111<111<1<<,,<2-;2*:%%*%*;-;;<2235443432121,,+::,-;,%-,>22,22232;23244325321:22<,,<<,,;>3,;,;>;1:>111>112<<13<125->1151515435455555551&%,@;4,2:;-<>4;><&21334331454555543,3532532554555<;11242;231",
"2255431<223343,;15,<112222111212253533554455423533432344421;111212,,,,,<<2,2,**%#OoO3;%%>%;@3>1,<,2,,,,5:%%,,,::,:111224234542;,4<3524342,,31<,,><,,;:,1;*;<><12<<<11211<<>35,,*:2,;,,11253455554551;-,4&1;<-->1>;2<2;2313434<3555455445552444,5535443,22242<<<1",
"1:345411212233<-;,;;122322222212323233534544534345324422<1<,<1<<,53:;:;-;2%,,&@<$;&*>><3<<:;#&*;;*;-%%%,%-<,<<:12;>22543244421;;224314411:,2,,,<;,;;;1,<*,;<;;>11<<<1121123<15,<;;4:4,1455555555553<,<42;3;5&-1:1:3<3;453323334555541:45544441335444541;<31342<2",
"2,345331<223332:,<1,<22331221112221333333344535355154422<<<<,<3,,-=%%3@ooo,3#%<$*:;<<122222<>$$#O;<$*--,,,,<14,242,23444444331;21<4<24322-4<333,,4;;;;1:<;,,;1,14<>11121,<<215<5:1524,,45555555555421:;<>5>2::1,<><13>543111<2555544:2524454532<4545443<1233443;",
"1444322<2<23333,-;2,,2233222222222323343534343355353442121<2;-;;:%=%&%%%==;;,*:**,>1242344432>;%4<:<<<<,,<1123<,2,34244422221,;2<33,4222-&>,32,<,2,<<,<;*-,,;>111<<11121,:<1<,45;25212254555555555551433;;5>2<11325<<:25535<344555414444533552532434454,1<135431",
">233331122342212:1,;>122333322222232223134343555335322223;;;,,2&;%,-4-,,::;:,;-;,<245223422332<::22<<421221211<,2432422,111,;:;<<432411,=:;,3222,>,,:<;:-;;;;>1<1,<<<<<<<<232,:;212245545555555555554<,5>;512412<5<,23*541233355451&3544441423424435534<><334435",
";354431221222222,-5,,143352232222323411233444443244311<<4-*@X@;#$<;;;<4,<<>;><<><34353325442311<2223333223314>15432331,351:;,5<><43431;%-::122122,<,=;&-;;:;:<1312123>>;<123;;,34;4455555445555555433<22<2221212,:3,12:553335554412544343233422234244442,1445333",
"2,544321,242234<<--:>1134243222324411212335444333333113<*,%*;**@;<;;:,<1<:<<<<11<35455334222254212555432422212142333:42341532223,34421;&-,;1212121,,;:>;-;;;,<,224152<:><135%,<23>4455555555555555552<4<<4<223214,-4;23541355555452544343235522235453434;-343334",
"5;3345233<<424222:;1,53554353324234<>&:43354433223221114%$;;:;*1<<<<,1<;;:,1121223455443244422422233453344242225244313221:1*:322<512<2,*-1,111122<,,>1<,>>;:21124434333<<<15;,<13,45553555555555454552<;<>,2<:;-;&>324552455555*2555344532342141255254434-234443",
"3,,4345223:45,222>;;5,>55552543242332<135434532332121:<*--,<::;2;:<15,<<<1223333334553522343125453555354422222223334,343222;:,5,2412331,%1,,1,1211111>12,1:21222444542123<13<3115<354432355555555555543,3;4;<%;;33444442245555;144434332<223434<<44254532><33444",
"33,3235235,1:>,>,<>:1:,,55252233234343122134532331,<::4%>;;>;:;;;;;2<2511113543434355334445423<555455445443323253434,1433121-,<,,225,212:-,:,11122221:1,>,,1223345455344343<5;<23224454543453555554555522523:>,,:,,34523,2334*3553532221<32233233455554432:22433",
"33,&,233552-<>;::,2,;,5,545543422323433<133333332<1<:;1$%*;,*;;%;;;:<<31<><4444353445334443444<55555444543332324<322221,22,,,:<<<2221<11:;-,:32212232,13;113224445554454445>4;:335<345545555455545455553<,,223<21>;115:,,4,3,43344,23>><;2223333234555553323,434",
"314>22455113<;;-;>23:&,:25442423543331>2223332<,<;:1;-*$%;**%*;O$%;;1<>:1<123445444453534434551545454554444322112223222,313,>*:<,223<<22:=-,;;5533<21;;1:;<2435455553445433:<;;<34<355545555555535555554532,541133%:2,:111,445554,222<;;-,31235232455554322<:443",
"22>;,345151155;-=-2,<;--:35,23422334322:232211<:2;>2;2%#$$;@&@X*$*::251342333443444445544335422455554544433332223232111>1311<;;<<1<322-*::1,4:;:&,2%3,113222234355554545433;5;,<23,35555455555555533545543332432122<%,3,343554<154:3:<:>2<3334443,3355554222;>22",
"1332-123521422;5;=5:,2;%-%-:,32343442331212,2;:<,<<2;>%$$%##:;;:>;<2323434434455454545355554314455544444534321423232<<2,213<<;*<>1223<;2,244<%331>3311312443433345554454455>3-<122224535555555545445444455555<15<<<,,1,544423422411-3;;&<>;,1233321355554422:;;4",
"322<,;2421544544-=,452<<,$<5:;234442332;;;3>;,1<11,;%;$;***::4,:15<><<2212244444533434444435524<555544544342124422233>21,21<4>43<,123<23<3442<,;<<2433434244553355554545542:1:*%23<323545455553454554534555244:332:415344443<34,2><34<:;;>>-,<2424145555444342;>",
"<,13,;22225552;5,=,35::2;35-2>353443231223;<<1<32>;:>;%$*<;:,2<:<14;44533522422453354455454542345544544444223335112352>2<,12<1;;,><142,3245552<<;;<355454525455555555334541>>>:13;:22>4553555553444555455555541,;1;<>>33425:><;<>23543234,2<:;253425555554432<>,",
",122<2,2525532,5;%52454>-,-54;2212433232<122324,2>;*-%$*>:-,<2,<323254352244224553534445444353<54553445324345512223332,4<;<<,,1*<<<,4;24245353<<;:112353454445555555554322<111<125:<23,44455555544555555555553:1555231<222-::122355535335422;-25<344555555442222",
",522<,3<525543412-<1<32;;1;552<,><2221531132,<<<;-%**;$&<;,,>,<<3245345555444445553445544453423444455434555113212144324;41<<,><;<,;1<<532555444<>1<23445444444445555544332<2111112>,21,34455545555555555344542:3,-,23,<12*:;4<554454324444545;2344144555554322,,",
",2<<2<2422544,,43;<,,<4:,=-55,;<:;:1**::,211:,:<-&%%O@$;,,2,,:<235432214554555445355545555553334444443345133212341443322,,<<1::%:2><11445555334,>*1<355544245554555554433<<211<1,22:,>1,354555545553555345555313<%53,1:;&3<<<3532455434334453<,4341245555434324>",
",1122<234133<::4;:3;:1,;2$54<,&-:;>1><::213,;;2*%=%@*$,;4<,:,2,345455544541345555555555454324523444424441124222,,14523422:2<>2;&;<<2235<55334;<15<334555443455354554444332<11<11<<<;:1,12334554455545553554554:,,353,3>5,<><1<412334444333542<433512344554343325",
"21<52133234,:3,;<-<2>-2;2%;;:;,5<>>1>1311<;#%-;@%@;=*;<<<<,,<223555554453333222444555444333555444444424442,21242<12514423:4>2-%-<2,<2525352222243233445455545453555533443,<211<<;;;4-<<2233444455455555445555,-;533412<<>32345555355443332435,,<231544555343332<",
",112>223<33>25::;-;:::44:,12<5:;;<,2<122<;&&<;@;--11<<<,1<<<3445544545453445555342252234345554553435214242>15<25,11:1353,<;,:;&<<1<234245545>::-1<33434353444545555555432<221<<<5;-<*,<<23354454445555555443<1:;23345212;222545453333322123545;,2555545553422435",
"3,,232<3<422;:51;-,11::;:=3;<>52;>3<<<313>&::2*;:,,,,,<1<1<345554444443341355554332342444445544433312242521<<<11121:,2244,;,;-%;<<,344455455>:5:<:43345454554455555555443<2,<11<<5,2,:<,1335555445555343343<<,,;:233323,5344445543325322122545;,5,255355543<,<2<",
"22124<233324;>4>;;,,5;4;;:;<2;;21<22,4,;;%@*><<<3,1:<322345345444534333<5,<345554353443345554544333144454351,<43244:12:-:,;,;;%;2<<1355555441:>42;,<2355334455555554544322221<1<<<<2<-<,23553555445544443;344%:$<432<<<,21455554443<2%4:,233355:1224544353223222",
"2<,123243224-;<;<->:,,:;-&;<<%552<<2<<;3*@>5;2<<11124433454423444432123,,<<245433544534455444444433444342412;11151211,-:<:;;:;;3,244243555242:141<<3355433555555555544221<2<<,<<1<<1:;<1335553454555433,333344:-<34342:>21445555453*<<2,<22445<,>1,34554432<3532",
"444<54344212,&,>;&;;;::,,&-,-,<22<1<<:&%o$*:;<321<,243522354<34444322<3<<1<34252455345454433443454555542352<<<1514122<1,<::;:;%4,,2;443555524>413,23445354455555555543321<<<<,:<<<<<;<3<22355444354444<442532>512323225:;<234544332*-21<&<23545,4,5,1143522<3523",
"3352233433<2,:5;=%&--:>,,%-:,252<552<@#%$;><><2<,1323254454415<2243322<<2<<,<24455555354435443445555555455121<5:,245,,44<32,5:>;2<52542555522:421:33445445555555555544423<11<,<;<<<,124<22224444444433<33221<-4334322242;124454322,&,43<5<1353411:1:124,2141<332",
"34333344323<-;,5<:-%&;&;,;52<223125>&*%;<<>23<3<42224543454312345332342,<2,<433455554543235524554555555423<23,;1251344454:>,>;%*;,234555555314442<4<43415545555555544232,,<,<,>>,,=1221222423345544443142;11,<23324321,5<11355432><333352&123545111,,,,,21,21525",
"44431333322<;4:,,:;;$%%;--<,2<<1432:o*<<,,<<32,<42,255445<342242221244545533544555455545444343555555553233233545,1532212,21:<-@,:23:55555533254,132245445455555555542,1,<<<1,<,<,<,<<11,232333345523<5332<<;%234323<<<3<1;335545,*43253222>44445544453141,151235",
"45432233321:,,;2,:;1;,5;2*,<22221,32&;2<<<<<;<<231333233433334314<125554445445454544444424444555545542332234242<124455551:-,,1=-2524525553425411134555445455555555421111211,111,,<,,11112233234342<<233211&2<534423235<2212554424-53244431:114555554544243154555",
"545412222<1:::513,,,;;;3<-,<2<221:24$;;23<<><<<13343555413<334312<<155555555445544344444454455555455334333353<25555542452::,,==15,4,425543<354,1:3554434555555555453<:11<,21<1<,;;,<1221122332243<,<3333;-;54344534,<3334<<455542,;24224522514445555545355454555",
"45432122<1<>-;:,1,-,:-;<,*,<<2222:2<*%;<<<;>,<<234355533344333222><1255555444444545554445455555555452334355<4534553551,522,4:,,,,23>54552235553444545444455555555433232,1<,,,<<,=,<21122<22222224,<3322<<><43322345524342<24542,25-><515423,;2345555545555454555",
"4544,211,,,31-:11:,;;%<;;<,<2<<<:2>4;*,,3,<1<<<5355553531343133122334455444455544554443455555555554343343<2,34555<541<,111;,,,1:-4,55445445555453545445555555555432211211<,;-;,:<<<<122,233322142,2332<;;;,42222<225244<<225542<<,<;24535253:>345555445555555555",
"54431,2::,,,>=::,,;:;;;-;&,<<22<:<:;1$*:,>,<11>255545452443253314244233444454443544555555555555555443345,2<>25553,:5413:51,2521:14:45543<554445444545545555554442312211222::,,;;;,,<12<22422121:5233213;>:><,>245553523223<4441112<,-;,52523,-:32345555554555545",
"5432111:,1,,,:=;<;,--:#&,-,,<<<2::::$%:,,><21333445553335443223<224444444445443444555555555555555334352<22,<2<,<;;@@%=%#,512244-23,35424:55454535535555554454332214221222,,;,;,;;:,<11232333222,332221&;;:,142,1553553451223543234<1<<,;%11235%34345555555555455",
"332>,1,,11:-:-%><<,,:;$*,;,<,21:,<<;%<<<<12,<25435454435333555534433444244434344455455555555555534342,12<;;:-:;%%;,,53,5-,11,21-31554341353<234355455555445531211124212<1,,;,2,,-;:,,<233453432123331>:<1,;,3552>535553352><2443332231<12,,,<:123434555555555555",
"431>1>;:1>:,5=411<;<<-;&;;,,1<<,<*;$;:<<12;12233355553533445554344444244242334444555555555545524323222<,;:2:2;%;<553,212421;:%%-21454421532:35553555545522411211,122211<<,;:;;;:;,<,,,22435444123331;<341;4<,4545213353214<;<<35553314335:,::1,54434555555555554"
};
