/* XPM */
static char *mat4[] = {
/* columns rows colors chars-per-pixel */
"256 256 133 2 ",
"   c #6A4A43",
".  c #77544D",
"X  c #7B554C",
"o  c #7E5850",
"O  c #80584F",
"+  c #835A52",
"@  c #8A5E53",
"#  c #865F58",
"$  c #8D6056",
"%  c #8D625A",
"&  c #936256",
"*  c #9B6657",
"=  c #93655B",
"-  c #99665A",
";  c #96685E",
":  c #9C695D",
">  c #A36C5E",
",  c #A96E5E",
"<  c #AF715F",
"1  c #956A62",
"2  c #9C6C62",
"3  c #9E7067",
"4  c #9F7169",
"5  c #A36E62",
"6  c #A96F61",
"7  c #A57165",
"8  c #AC7365",
"9  c #A5746A",
"0  c #AC766A",
"q  c #AE786D",
"w  c #B37666",
"e  c #B97766",
"r  c #B77867",
"t  c #B97967",
"y  c #B17769",
"u  c #B47A6C",
"i  c #BB7C6C",
"p  c #AD7B71",
"a  c #B47D72",
"s  c #BB7F71",
"d  c #C17E6D",
"f  c #C17F70",
"g  c #BF806F",
"h  c #B68076",
"j  c #BD8174",
"k  c #B68279",
"l  c #BD857A",
"z  c #BF887E",
"x  c #C4816E",
"c  c #C9826F",
"v  c #C48373",
"b  c #CB8674",
"n  c #CD8876",
"m  c #C48679",
"M  c #C98778",
"N  c #C5897C",
"B  c #CC8B7B",
"V  c #D08773",
"C  c #D38A76",
"Z  c #D98C77",
"A  c #D48D7B",
"S  c #DA8E7A",
"D  c #D6907F",
"F  c #DC917D",
"G  c #E08F7A",
"H  c #E2937E",
"J  c #E9967F",
"K  c #EC987F",
"L  c #C58C81",
"P  c #CC8E81",
"I  c #D18F80",
"U  c #CD9185",
"Y  c #CE9389",
"T  c #D49283",
"R  c #DC9483",
"E  c #DF9887",
"W  c #D4968A",
"Q  c #DA9789",
"!  c #D6998D",
"~  c #DD9A8C",
"^  c #D69A90",
"/  c #DD9D91",
"(  c #E39682",
")  c #E99781",
"_  c #E59985",
"`  c #EB9A85",
"'  c #E49C8B",
"]  c #EB9E8B",
"[  c #F29D86",
"{  c #F29F89",
"}  c #E39F91",
"|  c #E89F90",
" . c #DFA095",
".. c #E7A08F",
"X. c #EDA08E",
"o. c #F7A086",
"O. c #F8A087",
"+. c #F4A18C",
"@. c #FAA48D",
"#. c #FFA88F",
"$. c #E5A194",
"%. c #ECA393",
"&. c #E6A499",
"*. c #EBA699",
"=. c #EDA99C",
"-. c #F3A593",
";. c #FAA691",
":. c #F5A896",
">. c #FDAA95",
",. c #F1A798",
"<. c #F3AA9C",
"1. c #FCAD9B",
"2. c #FFB097",
"3. c #FFB29D",
"4. c #FFB89F",
"5. c #EFACA0",
"6. c #F4AEA1",
"7. c #F9AFA1",
"8. c #F6B0A4",
"9. c #FDB3A3",
"0. c #FFBAA5",
"q. c #FEB6A9",
"w. c #FFBBAB",
"e. c #FFBEB1",
"r. c #FFC0A6",
"t. c #FFC2AD",
"y. c #FFC3B3",
"u. c #FFCAB5",
"i. c #FFC6B8",
"p. c #FFCBBB",
"a. c #FFD0BF",
"s. c #FFCDC0",
"d. c #FFD4C2",
/* pixels */
"9.8.5 T 0 I *.6.T S i *.' <.;.A v w.-.1.A ' -.Q ,.N ..T w.( r T $.T T ] P 9.` _ n ,.1.i B ` +.v ` ` A %.#.` C ( ] $.` m A ` ) X.] R E u B %.2.] ( y.( <.1.#.{ b %.H Q _ ` <.>.E $.A =.~ Q ' +.X.@.>.1.$.9.2.:.D ` @.D 9.;.9.n +.' ' A v %./ w.q.>.X.>.B +.] ' ( F @.( { ` { { ` B <.@.) 5.9.,.` X.) ~ 1.( V X.B 1.R A T +.W +.b Y m B u :.( _ ( S m 3.3.T M S n b W $.8.>.3.X.;.` ..+.1.0 S b ] %.~ v $.) +.D 3.' U <.q.:.+.! D ` ( H ` S 1.t.w.} 1.<.=.T *.e.t.M V R 8.] A 9 M T ~ t v O N ` Q Z ~ _ [ 1.A 9.` M T ( $.$.Q a T ",
"1.1.] ,.:.m 2 P _ | B } 6.| :.T b Q D 7.>.} 9.=.+.O.I %.:.;.S I _ ;.] b ~ ' ' ;.] ` b ( v @.>.W V A B 3.X.D ) ' _ ] n m 8.` F A ' ( %.,.<.,.>.F 1.h >.! <.2.$.` F F ( $.6.~ D %.E ] ] ,.>.F F D R ] ;.[ R %.>.` Q <.' >.9.3...( $.] D n $.b 6.1.y.;.+.( 7.>.' X.+.( [ :.1.` ( ' T E ,.~ &.{ l ' %.H M B +.+.Q A 9.,.c $.>.u ' b x @.~ H ] S 9.%.R 1.( 6.1.H >.E >.0 v s / %.<._ @.;.{ >.*.H d $.+.7 l L -.B Q D ( *.W =.2.` ..' b ` ;.( ] ` q.w.1.@.( @.U } 8.i.:.q.' } b W ( ] =.*.$.$.W l ~ b b n ( P D S -.+.) ,.S ` @.T m &.",
"( 9._ _ i ;.u h | _ R ,.U q.-.7.D ( W =.M L ' %.( >.` E B W _ m %.1.q.} $.v y.@.-.;.P ( H F ( Q 3.v A R H R ) ` +.+.' n k X.Z ( T T +.] ` 8.w.m 3.$.~ *.h N ..H ' %...d m ` >.j D ' ,.8.%.( ' n D *.q.H S -.` D -.A +.1.` ` ,.' ' b A W 1.} =.*.1.w.0.` +.h T ` ( R F g R C S T } _ I T _ +.+.%.M ( H ( $.q.A ' { W B V >.;.A Q j X.H 3.` $.x #.,.=.<._ { q.q.D ;.$.<._ T C / :.3.@.K D q.F A <.Q ( ' = y 3 ~ D ;.*.Q $.y.;.+.J ` [ A >.1.6.~ <.W +.1.=.$.*.w.i.d.y.1.} N F A 8.6.<.1.1.' W ' :.F b M T u A Q A ..$.v S P N S b ",
"T n U _ _ ' _ ,.s ~ _ P ~ T Q ` <.X.1.v 8 8 v P ( w.} N m t.X.%.7.6.v ( S E ] ` +.b R _ -.T n -.B ` ) F ` ` H -.;.>.@.D Q ..J D v ( j +.X.Q ( ' B =.0 n V D ` Q E 3.+.` F %._ X.( ~ ' $.` ;.X.B ( A v X.F 1.] R +.' $.;.` *.` $.<.%.B T %.~ =.' 8.q.0.] ] h B >.3.-.` ' A ( %.V *._ _ E ] w.( ( b S ` n T S S ( ` ~ ( n ( ;.' ' F D *.S T B _ R ` n F } A A 9.F <.n n >.9.( A *.] ) ( w.9.;.y 1.0.( H ( j ( 0 %.) A v x B ' >.3.>.q.y.i.9.1.%.6.>.S x b &.5.6.e.p.3.| _ $.%.$.` *.S :.O.,.W P ] :.( S ( b ~ %.R b H i +.&.] +.c ",
"v $.>.{ ] B A } ,.<.$.W r / W S E ] #.S 0.D T B T q.1.R ;.N =.j b 9.] ) ] A S 9.#.@.A C %._ j ' ` ` { ] ) @.@.R S <.;._ +...J R V A $.( ' ` ( +.,.%.+.X.) U n ~ +.` X.` %.R %.%.[ ` A q.9.+.C ] D c C Z A ` ( X.,.-.+.9.%.$.F +.B 1.T b _ ' <.<.$.3.8.3.( v 0 T Q >.S T F B ] i *.R [ $.` %.+.+.( n v _ Z v H T ( X.L D ;.1.>.+.+.' H F V ` ` C T T 3._ ` %.` H q.' S 5.B _ ] h ) X.F R q.8.A ;.t.9.' T { 1.i w.( u C 0 L A E 1.%.&.6.9.%.=.8.+.0.;.H T b ' 6.$.e.p.q.9.%.<.' >.v A ' { 9.$.8 8.( { C Z >.] S ) v H X.v T n V B ",
"P ~ ' B { ] ] : %.P ;.n M ;._ E F ) D ` +.~ b ( } <.%.=.<.q.` _ ~ ;.q.` [ F T %.3.A S F +.;.9.N ` @.>.( A ` D m ` b [ @.` ,.$.~ R C W D A n ' R X.*.%.+.H ;.` n +.) H ) v %.R $.w.+.X.$.:.] ] ( F X.X.H F ` D D $.$.$.+.3.%.-.X.] R s v W Q Q T ~ W / ` A E } A :.$._ ` H +.( _ C ] 9.O.( 2.-.' H ) F q.@.+.;.] ] +.9.' _ m ] ] ) F F ;.` :.2.` W *.~ h U <.9.( w.] S m *.' ' C D F <.q.,.<.B R ] 9.1.H @.` R $.` q.v ( C S T $.%.*.Q ~ $.$.8.~ *.0.` ' D a $.7.8.d.t.w.Q *._ $.<.W S >.q.1._ 7 +.S T %.( 3.A ) 8 ..R R +.E ( _ ",
"1.y b S 8.X.{ T ( F 0.F w Q ] +.=.+.Z D ~ [ -.] E N ,.%.+.$.X.A T ;.<.{ { ] b 9.w.O.] ,.A -.3.A F ' y.@.>.i V +.( ` ] q.( A A ..$.D F M B D D ' b v ( D v u ~ :.v ' @.' V T B n =.( %.q.9.;.1.{ ( @.` ` ` H D ( ..' H =.;.3.+.$.F _ _ ] R i $.A s W _ ` ' S %.D H ` +.{ ' ;.) ` >.E ,.0.1.] D { ] H H 3.>.;.) T ,.' 9.+._ _ ( S ( F ( { 9.1.w.D H F T c B T +.P W ' H S -.C R b n t $.^ ( D H R >.u Q ! L %.g j $.1.6.Q T _ S C E B ,.%.q.H A N ,.9.>.S R ~ ! =.,.q.9.~ <.E %.1.q.' ~ F A q.*.1.` n ,.' ( C A $.] Z B B <.1.$.9.",
":.1._ ] v >.+.:.u <.<.9.E %.>.;.,.B +.F c +...n A D P $.<.( ) ..=.6.;.] ` R s :.:.` E ' ` A ;.+.u } 0.+.' v R ` %.' ~ 3.;.` ( ( 1.T M V F D D 3.<.' 3.<.F ( y X.>.A P 0.<._ D ' *.' 8.;.0...<.y._ C %.o.@.X.D F D D A A ( ` +.$.' H -.F _ R F S R b V { ..X.a D I @.+.<.;.H ;.A ~ ' ' *.1.$.>.` X.R q.X.q.#.$.A s 3.>.D _ ( { ( H M D *.$.W p.3.{ H ;.` b v 3.9.:.%.) { ` ,.:._ n v g R ' E b :.R ;...X.$.w.' j u B $.d T >.' A <...$./ 3.;.R &.<.] +._ ` _ 0 ! *.R v <.%.E %.' 0.,.#.F H N A 3.;.9.%.O.O.R 1.] ;.,.<.A *.u 6.T ",
"T ' H T u U <.` n Q %.9.n $.1.[ =.H ^ ;.~ +.D V S R 7 ' ;.%.$._ C ` D >.:.` ,.y.3.2.( D b X.%.' ' q Y A R @._ F ] 1.i T 8.D ] -.>.q...B ` 9.+.1.>.+.;.t.,.$.v D 9.( :.,.+.` ` H ~ $.,.<.;.*.| 7.@.H N J n v +.D 0 R A B C _ _ I T ' ) W { n _ ' ~ S _ O.] H ' E y E 9.S ) _ @.' %.( A ..7.;.` v i u &.b ~ ,.7.*._ L { ] B Q T { 5 W C ! $.' $.3.O.@.Z Q _ F <.y.>.H %.3.0.@.+.2.$.b H C A B ( =.` $.,.1.] ,.t.` $.:.' ~ W a i T ' =.<.8.( ,.U $.,.3.` H <.A S 1._ 1.,.q.%.' F ] =.) ' 8.n $.E ! 3.1.A <.{ ) ( R ;.%.F j A -.B ~ ",
"@.) +.` 3.,.P j ~ %.{ ] 6.' ( ;.1.A T _ =.9.,.} ( <.I U 6.C >.` } *.:.i ,.F L 9.9.F ' <.S n F x R Q n F D ( 1.] ] S 6 i h b ` S S <.$.Z P $.Q B q.>.[ 3.%.R ' ] :.o.n D q.] +.` Q ~ 8.<.1.H v 7.#.{ F J +.H ;.' _ o.;._ ] -._ _ E ( C ;.+.$.%.,.=.' ( +.,.T j j >.S q +.>.+.%.( ( ` V ,.7.>.0.1.T I N c { _ U $.S B @.:.7.| T S B 1.` ( F P { T 0.T B D Q ] U &.y.R _ %.i 8.%.>.W R D ` v ( ` ' -.` ` _ T q.>.0.;.1.~ $.1._ I ' ) ,.~ q.] J Z V ' y.H ) J R ` S @.+.9.u %.-.W %._ w.;.9.0.:.$.5.R B Q ' 0.) X.>.1.] V b $.' %.' ",
"` ] C _ ! i N A Q / A c P S >.E 1.S S :.H ] +.9 L C 7.S B *.m %.Z T T 5.' ) B 6.3.>.0.q.9.D A R ,.` >.R C c R D ) ` 3.-.( _ ,.q.+.;.' D ( ^ P ' 8.:.1.` o.` ] Q +.` V A i T R ( R Y ! %.' W 7.>.B 1.] -.3.3.;.,.1.#.<.D H ;.] { 1.( F ( ] ,.X.:.%._ ) -.:.[ $.i i E ] H ,.3.] +.i 0 ( C ' 2.;.3.H F ` X._ ;.` j ' &.[ 1.;.} H ' P Q q.8.1._ N / 8.1.,.b / N k c q.$.T ] ` D X.` :.+.Z @.X.-._ -.1.;.Q | R ,.w.*.9.#.3.' 1.] ` M 9.=.y.q.0.` ` F ' 7.w.;.H ` { ` F F 9.T ;.( H $.B $.E W t.@.m W 1.R v n Z C A ' ] v V v ' E ] X.",
"<.( S B n $.1.9.( >.O.v C b i A 1.S +.q.Z F ] 1.9.| v h W ) V 1.;.;.( ' A ( P 9.<.X.{ 0.q.7.1.` D R +.8.A b m Z 1.r F F ' H 1.:.( +.R ~ i ~ ,.*.D $.=.>.9._ _ ) ] n H J Q I B A ( ) B A T ) v T T E 6.9.] P ) E ] { :.A [ +.-.n H S S +.;.;.<.E { R _ ,.+.X.3.' R q.' ' ] ~ <.' q.$.$.S ( v 1.>.%.S S ,.9.>.>.Q _ M w.-.F >.9.d M v ~ ~ S 1.( ) R S $.j M m 5 V T ;.] w A Q ` ( D [ D T ,.D ' D  .N _ b =.=./ ' 3.W ,.$.b T ] <.%.$.8.q.9.$.) N W q.<.P ;.9.e.1.Z c ' -.$.w ~ Q A ' V F t.3.,.F S #.( >.H ( ` ] b +.>...$.] %.S ",
">.J I | -.$.=.~ A ~ w.9.;.@.H ] 0.,.:.y.>.` +.;.y ;.V b *.q.1.8.8.8.>.@.v u *.8.] F H ,._ R ) %.( o.` F -.1.M n S ` ] ( x R ` D B h A ..H C v N i b c 8 ' _ E ;.F >.Z ( H ;.F @.' ' j +.V S +.H F g R 0.:.J { T ` _ ` F H T b C H S 9.( +.;.:._ M R 3.;.o.:.2.%.v +.B R ~ ' ] _ 1.F +.U W Z %.#.) 2.1.$.9.-.1.) A B _ #.1._ _ 1.M V A ( _ ;.7.<.] Q ( { X.T [ U T %.@.$.0 v M A ` E H H 3.' ` H +.` P S W Q Q -.] 2.<.D ~ U ' $.%.&.8.s W E +.' X.u 1.w.' } y.] 1.( 1.C a T $.( b 1.n $.( 9.X.x i 5.( %.S ] ` Q n :.>._ :.' } V ",
"T M ) 1.W 8 ! A N ( 8.~ >.{ ` ~ <.$.1.<.X.X.;.+.-._ 1.n T 6.*.&.8.9.$.;.1.=.N _ %._ ( j ] ` _ { ] D @.>.o.[ 9.A ' ] H C ' ] h S E ( R H ] V ( 9.0.>._ 3.A A Q ' ~ +.] ( +.+.~ W <.{ T 3.` >.<.1.@.F ~ ~ q.:.2.>.<.;.*._ _ ] ' :.E C S I W :.B E ] { F @.R ' _ ' +.' >.i s d u A ` -.' =.T ..w B T 9.q.] R :.,.1.] E <.1.] S _ >.T _ J } N ^ 9.Z H ~ &.U ( F ` A C w.y.q.<.1.A ( F H F A B +.0 T A $.-.B ' _ ( H +.@.8.%.W M T k / 8.w.A _ _ X.w.' u C T 1.9.9.;.q.,.,.V ~ %.( ( =.+.( T R %.9.Q ' 6.;.] H ] +.Q Q 9.9.>.C 8 ( 0 ",
"| 1.A _ } s W >.5 <.q._ ] ( E q.<.X.u %.T ` i ` D +.>._ D &.~ A / 5.y.] 8.' ] Z ` +.u X.] | R R R %.9.( >.D #.9.C Z H A C 1.] #.F X.%.=.>.A 3.9.q.0.y.[ H +.~ M D ` ` F ( ( ;.+.w.' +.-.Z $.$.8.,.R _ A =.2.9.O.( S +.%._ T [ H H ] $.0 v M ,.1.K C q.<.w.@.] ;.C R n 1.%.{ +.q.F n F H { H 0 R v W 6._ S } <.{ [ ] S 1.] b { <.( 1.q.:.v n m -.+.*.a ` _ ' B M $.q.9.;.] +.H =.V H F 8.,.3...T s y E ,.X.` %.$.-.;.] 6.B $.~ F [ $.U <.] ] n } ' _ S S %.=.9.1._ 0.2.*.v T _ ` E T { B -.t ' N $.1.9.....( T b V ~ B <.>.$.<.' ",
"] S ( $.,.T e } _ =.6.H ] Q %.*.8.t.,.9.( D -.-.' $.R W T H $.u D <.8._ 9.>.T :.+.] s C B S J ( :.:.#.x X.R D q.` F ] R { V I <.( ` ` m H +.! T 1.q.q.;.+.S +.] v A S ( F ` 6.&.D ] ~ ` } C B B 1.+._ C W q.%.0.9.` _ >.-.1.;.{ ;.+._ R ( D S ( ) T $.1.w.>.` S S S C ;.| [ ] ] +.( &.B Z { W u R B I I W *.1.O.-.) { ] 1.+.+.<.$.~ q.7.,.C S 1.] ' E R F X.D 5 m N D V R ( +.$.m >.@.` H 2.>.w.6._ R $.,.c Q ,.q.y.>.' T $.<.R I *.6._ ' S ] E | [ ` :.B Z 3._ %.8 6.$.} H A ' *.] 3.( b ,.1.^ _ T ] #.] ( v C R B 2 S ] E *.R ",
"9.>.8.9.y.%.Q &.; 6.7.;._ Q > ^ 8.6.,.-.q.` { / E 0 ( S _ ) D n ' <.%.] $.0.M ( B ,.@.] ` A b %.C s n ] ( D +.q.) _ ` @.%.( ) C W q._ { ~ h ) T =.=.Y R ) F ` @.+.H V D ,.( ~ b T +.H R C @.D 1.9.J A 9.:.=.U T 1.;.;.( ] ;.( R _ +.X.+.( F >.i Y E 9.$.:.[ ;.+.( Q R <.| ,.) _ Q ,.$.i ` ;.' r Q +.v 0 8 S n W 3.-.@.( R T N D ' q.t.;.*.` ' $.;.,.a D ~ b } $.B U B A b <.1.8.P e.Q ` H ` ` _ R ;.S C S ) v ] ' q.u.` d %.} T 5.6.A ( S ` { 8.9.<.] { $.0 ( ;.b ] 9.` m A E q.1.O.$.9._ $.~ S _ _ ( +.R v ( B $.T S ( 1.1.1.-.",
"..3.3.+.y.w.<.m N ,.M Q 1.>.] W m W T -.+.+.` C 9.%.~ 9.q.+.{ <.*.&.<.Q I _ T ( S ( V D S B M Q ) 2.b -.) C _ 0.H i d ` C _ A M R ( :.U ,.A H b ~ T w A { ) ( ] ( ;.H H +.[ +.>.{ F F S -.F ( ~ 8.9.T =.R W J ;.R q.y.` ( D O.#.+.A A ( %.C b B i A $.' %.V 3.1.] s S M -.] ` _ A :.,.V ( 0.9.$.T <.' $.W m 9.b L m ;.>.R +.;.] ~ $.6.w.w.( :.A ..] Q -.*...) H H ;.~ b B ,.$./ <.b A ( _ i ( C -.( _ G ` F s 6.*.$.X.q.' v j $.Q *.+.+.s 6.8.Z <.1.q.1.' R Q _ 1.~ +.:.E Q , &.3.-.1.' %.>.@.` { T ` _ A $.T N T 0 ' A -.b n Z ",
"] +.V <.,.>.>.@.~ 7 ' ( b R ' n C M V E <.C ~ m E 1.~ 7.;.8.q.~ 9.=.8.>.M D S T M H v 1.;.,.Q %.<.#.6._ Q ( ~ <.#.+.y ' ;.R S F H ] q.@.S A T C C R ~ C -.X.7 $.:.M %.&.*.%.%.;.;.;.;.{ T ' *.} $.( ' -.+.X.X.q.1.} _ $.0.( ;.{ A _ Z O.Z ( _ Q M A ~ E ( ` ' ] <.$.i ] 9.>.{ =.*.<.T ,.q.;.u.0.w.>.1.,.%.v <.<.' <.9.v $.;.E =.Q E ] %.2.( _ 3.` ] ` ;.:.%.-.+.;.H ` C m / m ,.A _ ) -.M x _ E } { C _ [ _ v L =.~ $.' :.j $./ } B ;.>.' *.<.Q Q *._ 1.9.q.c 2./ ` R { ] H Q *.y.I C W 9.1.%.>.>.{ [ _ ~ S j A s _ _ n ~ T 8.H ",
"<.b W 6.=.Y $.;.{ F ] _ :.( m B Q S ( _ { :.9.;.Q *.=.6.$.&.8.v 7.:.:.1.R H ;.3.S ( 1.A ] ` b h W h ( H b ' ;.A 9.( ;.m <._ _ ( H Q 6.y.;.o.D q.n O.$.H F 1.n %.9.R O.;.1.~ ] ] 3.>.~ ] { H $.E 6.+.` ( Q b &.8.A 9.6.<.3./ 6.>.2.` C ( @.>.3.| 8 P N A i _ R A +.;.C ~ ' Q +.` _ >.` <.:.6.1.w.,.;.-.>.( { $.%.T B R ] [ X.Q $.` R A ( W t.R @.1.%.` [ +.%.t.3._ ( d F T B Q 1._ X.H H n v ] ! Q H ( Z ( %.%.' ' M v ' H +.~ ~ <.S $.1.=.%.,.] 0 $.<.1.1.q._ q.' ;.-.S F 9.' *.<.e.;.i | 6.*.( 3.@.A ;.;.b j ' u ;.` B B >.` ` ",
"` J { F o.) b ! ;.R c F ~ i :.) ] ( b ' ` V ;.W F T $.] M B 6.` q.7.$.%.] | *.e.1.$.y.2.2.F _ b @._ u v ' E 2.1.' j ;.$.<.` A S ` D $.0.a.u.t.9.X.` ~ Z ( +.R v ] H 8.$.R <.;.,.1.:.-.-.R 1.' *.$.T *.` ( A W %.( $.*.=.( 0 ( ) { >.) S Z ` { +.' E ' ( _ >.1.*.] B ;.a B ( ` F S C b *.%.q.*.-.:.) H 9.u ' 1.A *.` T K 1.P n *.] H ] ( ` w.%.` [ +.` @.+.A q.;.%.A 7.A H =.8 %.1.1.) <.3.W M k ,.[ H N _ ' ] $._ S M _ A q._ ) T C %.%.m =.3.q.;.Q Q S ,.1._ 8.6.%.] b =.q.v | *.M ,.C F 5 8.d T v >.] ,.v W T F Q +.S 8 X.*.T ",
"( n E :.>.E n ' ` ( s -.( ,.V R ;._ J %.<.3.[ j T A B / ( T W } 6.7.1.R _ 9.8._ S F m *.~ %.v _ { 1.;.( H L 9.%.b M V 1.) S S Q =.$.=.<.e.w.y.-.{ ' v +.` O.) u $.i W A ] ,.( S *.9.:.$.3.` 7.S S M ,.+.` Q R ;.$.' q.>.F u j q.-.#.+._ S _ ] ,._ ~ ( ( ~ ] ;.( ] S B 1.T S [ 9.<.v y $.' 8.q.,.%.X.Q { ^ w / 7 n <.( F ` T %.n ( ` { { ' 0.>.+.J F Z 3.` q.,.:.+._ A V @.1.@.S #.] -.+.;.8.<.N B 1.>.J E ,.1.1.t.2.>.I @.9.T >.h b 8.T ] W 9.' 6.q.$.6.*.P =.A ,.@.( A k l <.A { m 8 B _ ] ] C S %.$.u +.~ b 1.:.` ` A i -.$.S ",
"T S R v T H $._ D D ] ` ` B $.S _ ( n F Q 3.q.1.] H C E T S H %.<.7.1.R %.8.<.,.i N ] y.3.( >.j ] { 9.] ;.%.w.-.` ` Q f ` ] *._ L H v &./ =.1.q.O.q.' H ` ` ( v R R / T X.( ^ :.' %.S &.q.=.$.<.T Q X.X.+.` H <.%.*.1._ ] E b $.<.] +.+.v +.H S ' { T ] *.} M D ] D 1.S ) _ ) A ;.$.f W &.~ ` 8 ] =.n n ,.$.m T s } 1.D H ] R D Z ;.` ( ) 9.y.#.K J H =.F P -.1.O.) +.7.;.' %.w.+.;.>.W q.A ) M _ } { 1.<.p <.B 9.q.q.1.>.w.1.q.( A ] A M <.q.1.$.1.-.' ~ I P e.-.( R D A B _ S 1.] M S ' ` { 1.;...D 1.U $.8.%.%.o.G V v f S ) ",
"` { _ $.( ] A _ ;.;.` _ U F { ' ( +.` -.>.` ' T F { R ' A b $.T ~ -.) T &.*.9.+.Q b / w.3.R ' T Q a 1.n { ;.e.3.n 2.O.H ;.d I I H %.*.j N ' ' ] ;.0.D 3._ X.;.D ' V h ( +.] S $._ ~ ~ ~ $.8.%./ 3.X.%.8.1.:.-./ $.$.8.#.{ _ *.T d ] S ( ,._ _ :.R c v ;.j *.u H f M T O.] ( _ ) <._ P b u l S ` +.X.q.3.%.<.=.$.S / ` q.T _ S ) ;.I l F 6.7.w.:.;.:.X.E %.s ~ { _ +.S T X._ B 6.6.j T 9 $.6.*.R E -.S { C ] b } F $.<.] a &.7.q.F 8.T M Z *.6.i L h *.b *.A I :.T S %.` 1.9.9./ w.+.( @.) C A C 1.M ( ( E u T n 9.( -.:.A S ( F ",
"] ( n V ( +.] ' +.X.W $.W R ' ..*.H ~ %.<.1.) A E n ' B ( f ~ _ *.7.&.W P B ~ >.1.V h q.>._ _ _ 2 m 5.~ &.T <.2.9.8.( :.v A +.s A 8.( H & *.H ( R ] Q <.E _ ` %.( A ( ~ <.-.( Q E { B H %.q.9.` ) F 8.R S <.1.H Z T S -.9._ _ %.{ T _ <.j ' F <.:.W b H { T >.} ' _ ` @.T _ ] 7.1.$.F %.R n ' %.<.;.w.;.<.<.X.#.Q _ 8.q.w.~ $.c A ,.<.1.~ *.~ 3.1.<...( +.A ] ` ,.;.j A v } _ 7 *.,.u U - R B $.$.9.q.w.b _ S C M / _ ,.} *.q.| T y.E v S 8 / C u N 6.M } v 8 8.#.9.9.-.T $.8._ { H ( ] _ -.-.8 ] a :.q.S ;.:.' ;.@.A <.H ( ` H ",
"_ 9.1.>.n ] { ;.' B 7 >.B ) F n :.F R q.` 9.%.] ( M I ] P $.B Q | -.I _ 1.Z ;._ 9.*.D $.L T ] ~ F 2 U ( m S Y ~ 3._ F @.F S X.R $.+.V R 7 } @.( ( ( n S S H B D O.S ` E ' %.H '  .>.H R T  .0.O.` F ~ { %.] 1.1.S C W | %.i <.Q ;.$.%._ +.` ..B I %.A ( F #.;.( ( +.,.3.2.>.m C >.Q 1.M 1.' %.;.:.%.i 3.q.,.] v ( *.q.6.' ` [ M A +.X.*.<.1.:.v ~ _ ( K ( ` 1.j ` +.*.>.A | ( 0._ l 1.( Z T B @.R 8 s w.6.#.) R 7.R i I T ' 7.6.r e.>.] ( T M E C %.[ ( Q / 6.q.3.8.~ R q.` B T S ( ` ' 9.A b M u _ } 6.H P &.8 n X.] -.R H ( ` ",
"` :.` { v >.1.v >.A _ ` ( b H D X.) $.<.D ( >.-.1.` +.R b d v T *.) 9.9.:.' R <.*.$.P { ' ;.] ` ` T A B ` ( A Q _ :.>.A +.H M B ,.;.~ S q $.9.;.@.E @._ _ -.R ;.S F q.( X.H ) F b %.8...Z $.w.@.` F ' 1.7.,.;.<.` S v W ( V F F _ %.] +.+.X.@.F ( *.v R 9.>.` A ' %.' ,.0.>.9.T d R t.<._ 1.( D h b $.%.( A F i 6 <.q.~ >.;.C F v =.9.1.%.%.~ H B P :.+.] >.w...v %.@.R b ~ T 3.#.~ +.A M ..D H ] m $.9.q.[ _ >.` [ -.J s &.1.$.S =.:._ ( %.@.F <.L ` ( A &.L / / 6.i a *.t.>.] M ~ H b R v R a %.v ,.7.B c J F ] X.F 1.{ v t.v ",
"C } D { T v P >.w.S %.3.+.3.n ) R ..<.1.T 7.l <.3.;.[ -.H T ( B _ :.=.q.<.{ _ 6.7.;.M T A S Z %.-.3.( 9.S %.R E ;.] B n Z D D D *.@.1.' W C i 6.{ ) ( ] ..w.+.` W ` ..-.Z H ( ` X.) D E -.~ 6.%.] +.T *.8.1.1.<.>._ F F F E R ( { _ ' v R Q ` Q m ( ' .._ _ 1.] I b _ A <.w.t.,.9.B :.<.M n B ' 9.8.%.D ~ ` ) n M ^ *.A +.;.] A ~ : %.q.q.;.#.` :.W <.;.( *.8.q.q.;.X.T M S S 8.0.*.,.] ' n 3.+.i A a $.6.6.q.w.-._ R ~ _ L 7.] b w.+.Y +.%.&.U =.R ] i } Q :.i m A O.S ; <.q.3.~ T A n ( A >.;.y m ] %.;.S C F 1.] _ ` A _ ' +.",
"' v k ( S _ w b 1.D >.` ' $.` ] r ' =.+.Q ' 6.3.S 9.;.>.7.-.0.H b &.*.6.*.,.R $.<.' ' b S H b *.u $.T 8.1.D _ R 1.9.` H n A D V <._ ' _ ' B T Q [ ( _ T 8.8.>.1.$.q =.' R q.t 1.>.;.D Q ,.~ ' ] ] ] ,.F $.$.:.] [ { A ( H :.` Z [ 9.A _ ` D R F ;.] 3.<.] ` R A R S 1.( +.E >.0.8.S y...w.q.6.6.3.>.2._ +.+.>.%.n I ( S E _ _ _ a %.0 8.9.@.D 9.H S @.:.n 6.8.q.9.;.,.F n Z $.=.q.%.$.1.v ;.8 <.E B T &.7.1.=.=._ R ] 9.,.] v -.C 6.#.F v %.+.v j i B 1.T q.%.~ ,.w.2.>.s m _ ` ( ` q v H 3...-.B Q 1.$.+.H ` F E T C b v ` ] -.",
"Q S A S S _ v $.' >.B A -.R ;.@.( %.9.' Q +.~ 6.q.:.1.#.1.;.1.D ,.I 5.6.-.` E Q &.] T n ] [ ( ^ H B :.A $.x F ` ( R ;.+...i i _ ,.6.' X...%.F 1.i V b _ b W @.a u +...&.Z Q u R =.,.V F F F ' ] 1.<.*.S <.7.%.q.>.+.{ ) ;.` X.n b A ` W +.} ,._ $.b b 8.9.V ] ,.1.1.{ B ] ] 0.+.0.v <.{ %.+.9.s _ >.] ` R ;.0.B _ _ ( ` ( ;.;.-.( B 7 =.1.X.) 9.H ` T ,.~ B / =.<.q.M ) ( A ~ j V M Q $.l X.,.( E X.( *.6.=.} q.:.A 1.q.m =.+./ w 7 ( $.%.,.F $.e.} _ <.7.$.` 7.<.=.w.X.&.' n -.` ,.;.+.C A 7 M B M W S ( E { [ >.1.( B A :.{ n ",
";.] ;.' b v A ] <.2._ H %.:.Z ) +.D A X.' 6.1.n B W ,.9.9.7.7.q.T b } 6.` ' Q m ' ( 1.( A m M C R ~ &.a ( ' x E B A ] >.;.A Q $.;.$.S 2.@.~ ( ` :.S ' m ( -.T R P j j n ( q.~ ~ q.] H H F X.( =.B P 6.M } L j $.q.;.1.<._ ` ;.1.S X.;.D 1.,._ F *.q.<.*.%.W 9.( H [ C v ' j y.n <.P ` 6.n 0.1._ } q.9.$.) *.8.q._ _ ] | ] #.F | X.i T =.9.1.A ,.X.( ~ ,.I v  .! %.Q ,.i ( H J +.B T 8 n C D Q +.R I $.j / ,.' ,.A r *.,.w.e.L ' R D H D ! q.] ,.B 1.&.' *.I S 6.U } 6.n R V s r u T B $.s _ ( D Z +.} B ( 2.>.M ;.-.T 1.,...1.B ",
"H O.{ O.( ( S q.0.>.H H ' Q v %.2.) &.M / $.8.9.1.( _ / 6.*.*.,.+.T ( T ] ] ( b S _ _ _ _ ;._ i ' E R -.1.#.b v ( %.F y.O.D ' ( 0.$.s y.o.D 6.;.[ >.A ( 1.1.] E b E R R D n j ' %.` ) ] ` X.1.-.) F v 1._ ,.' 2 Z 8.' R ) >.w.w.) ( ` ;.>.;.] V B E C >.] { q.T O.[ ` :.{ j 9.3.7.%.>.A ) ' ~ ~ +.U U ) S F ,.3.@.>._ { y _ S C H R n ~ ` ` X.D $.>.+.9.2.m N R @.9.<.:.E ) H { %.` ,.m % >.X.<.C :.a H ' T 8.0.R B ^ R *.M >.+.' ( ' ,.C 8.I _ i H ~ I A A =.! w.6.q.3.1.[ ;.1.T v A 2.t.7.Z D { ! 3.D ( ,.;.-.) F _ ' ;.) 3.T ",
"] S ` ;.+.R q.9.>.X.n D 1.` >.B ] ;.3._ i L P W ,.~ ' %.T ~ ' H H -.1.,.) @.] 1.Q C _ S _ 1.A +.C ] H b 3.( -.%.( $.&...( D Q ( >.=.y q.H j %.1.3.( X.C ' ' ' >.M 1.] b ,.+.H Z R ) { ' _ ,.q.1.;.S F _ { q.) s ` $.` $.n ' ,.@.G ( H R ' F F F _ ( W <.#.>.7.1.I >.Q d 0.V D = h ! D b ( ] F X.S u 8 $.Z H { ' i @.;.>.V -.` ] ` ( D &.8.I -.>.>.1.F +.V <...S _ _ M v =.D S 3.,.;.3.1.~ h Q :.+.' +.9.b M $.y.q.t 8.i v S >.$.] $.8.' n ~ c <.F _ ] _ ..<.Q %.q.W C +.9.$.O.;.' H j &.y.+.;.v 5 v E W ] W 1.B _ ( F ' %.~ T 1.",
"H S D S L $.! q.w.4.;.Z m n V ' S T q.;.v _ >.B n <.U A A Q -.9.H %.,.-._ D @.] _ >.a v ] H ;.S [ ] H C ;.9.] :.V ..B B ` ` ] %.1.*.Z D :.g / ] R Z R D _ ` %._ F S _ T ~ -.#.( J _ Q u 8 $.8.-.` { b D *.6.>.A q.,.F S B A ` #.;.] _ A &.n %.( _ ] R M b ,.$._ ' ` ] T -.+.F V :.;.;.A _ <.A <.X.;.( X.i D s 0.9.#.%.Q >.3.3.9.( +.D ' %._ q.w.i.0.{ +.( ( X.) <.,.;.u D S H +.3.$.p.t.6.v 1.j ] i -.R -.D % 9.>.:.Q v _ ' ] #.` u $.@.C q.1.` 6.T S 8.} $.=.<.] I ,.&.7.C ,.1.#.S +.c 0 j D A :.M ' 1.F ) v ` ` ( 9.B 0 L ( ..",
"_ F :.v ( u W l q.~ 1.X.B D H v +.=.3.~ X.&.} 1.;.{ ) ( n A ,.=.-.*.| H %.A ( S R 6.` A -.=.$.( { A ;._ E ~ 9.F ] w.1.) E Z <.$.$.V q.+.2.$.q <.O.X...h v N ] { H S B P b 8 +.:.-.%.[ F W ^ $.] 8.( V ` M B v 6.9.] ) ) ;.F B ` _ ' ( -.` ' _ >.H ] ( H Q b :.1.] H u A p ;.Q B <.B t.` F T n / D v +.{ ] H +.8.B <.( w.A &.w.p.9.+.6.U ` 5.6.&.q.w.>.[ 3.q.>.E 9.w.>.A V D { d A 9.T 9.0.M - U ' T E T C ( B P U 0 C ;.M ' 6.7.2.T i j 3.:.2 A _ 7.E $.T $.*.<.v &.I ,.~ 9.,.H +.D +.D X.S H ` D i S _ ( F T @.-.1.$.-.%.g A Z ",
"( D ] >.i ( M ,  .R R ) R T ] ] 1.T m ] q.} ] L q.0.0.#.;.D ' ;.} ] -.T A @.` ~ _ 9.] B $.u E -.] _ +.] D T b $.9.' +.( %.:.=.+.*.T w.9.$.' m ~ %.j B T S E >.;.<.Q [ ' ( Q  .~ 1.,.[ T T ] B S ' ..{ -.` { v $.6.2.@.[ #.+.` ( { ( ) R } 1.w.H ' u 1.C m S j ( { ) a ` V T D 5 _ 1.+._ D #.` ` V T ' >.~ M m 9.w.*.M $.T *.*.w.` ( ( ` W s L =.6.~ 1.A > %.H S _ Q -.%.Q A ;.+.a ! R +.1.A ' F %.) f ] { 1.@.D A R i v ` E / &.2.>.+.n H _ P / 0 T 6.` _ $.<.=.S P C s $.1.9._ q.V D X.D 8 ` K -.B ' S ) ( $.m j $.' X.<.] { ..",
"1.H b - i v T T D v h ,.J b F ( w ~ %.8.2.] A M i 8.q.S 1.9.} $.<.;.R R ( >.1.S R 6.S { V Q ' E :.] R I A _ %.v B *.X.=.N P S %.j W  .1.3.' ~ R :.2.S Q ( ~ 9.1.0.>.2.' ` ~ _ ] n $.2.;.` 7.2.+.H +.F ( 2._ ' P $.q.e.q.S m q.:.) H j D 9.w.Q ,.C -.;.S b I b C ( @.;.$.y.b +.u ~ F ) F $.9.( D +.b r b ;.F ~ 6.e.~ X.i n / =.+.[ A B B T C k b E +.9._ B A M D b n ( [ ) H <.;.+.u Q X.#.x i R Q ,.{ ( 6.T Q A ` Z D ( Q _ f s ,.3.;.F +.1.>.C B ~ $._ _ } W 1.( j n n N <.y.9.=.) F B B 3 ] D ( T ( M T +...F B } [ q.3.3.+.1.",
"1.] $.1.` ( S +.:.A ( ` ( m V R ( Q R M w._ H ' %.-.W W 1.,.~ A b H [ { +.] >.=.T B 1.<.u R T N ' ` D v F $.n +.H Z Q ( W v ` R ~ u T R +.<.%.B $.9.+.@.A ,.Q ] X.1.@.%.%._ $.~ >._ 7.7.&.6.q.T _ E A Q ~ *.T i / 6.w.' $.-._ ` C T b -.*.e.-.1.1.S [ _ S m u M >.` @.m P E ( ( C { +.W d $.D Q D <.( ,.9 i L $.8.9.E 6.A B l a a 0.B 0 B Q 9 C @.[ { #.` +.n ( ' ` A H C A *.w.] D D _ +.N 9.$.D $.R <.6.S s ;.` X.B A b ] F c ! S ! >._ ) R ( b n l $.$.h A _ >.] E x P / w.y.` ( R c R S T b ~ w A F A v T v ! B <.1.t.j M s ",
"0.$.9.' H A ` [ H ( g F +.3.Z %.H ;._ <.) T ( $.' C E X.<.T 1.1.{ n T ] ] 9.,.] R >.T ;.{ R S ' w.;.$.>.] ( S ,.X.@.+.` ..' X.9.7.u t A 1.+.H i ~ $.8 ] W x C A ..F n X._ a ] ,.E S *.=.( <.X.>.] 1.~ A D M ' 7 a $.q.;.] ` ` { :.$.h ! 6.=.-.' i :.1.%.*.@.T ;.Q ~ q.X.u [ 3.x q.>.F <.b l v 9.T A h ] P i c W / ' P ,.T M _ C 9.3.X.q.<.0.A A n ' [ u %.+.] _ _ X.T m 8 j n =.q.w.0.@.c v / 8.;.;.D %.C %.2.= ] %.] A F ,.` S B v i *._ D { F >.E H ' b 0 y n y.3.>.v U $.8.i.t.` ` ,.x ] D V ' T V ( ) c ( V } *.} 9.0.q.0.9.",
"1.>.) :.-.] ` S H v 2.0.D 3.D >.A %.+.t _ E =.} V R &.i ( ~ 8.y.#.v C ( *.1.Q A E q.8.y.0.;.2.V *.@.H R M ~ S ` A i ' y.1.] ~ @.1.*.( F ` _ ) ` m ~ R v :.F <.s $.;.>.q.' ] ` B ,.S ( T 8.` :.8.9.-.Q ` 3.w.9.$.0 / 8.q.( ;.{ { ] _ D i z R 9.>.7.] %.` S 1.C _ B P b F w - 1.n Q V x n 9.<.n C <.! ;._ ` A J R ` T Q ' #.} j $.&.y.2.3.#.q.9.M S <.F T <.y.>.+.( V w.9.w c V b ' =.$.6.0.,./ 8.:.S 9.O.3.:.9.] A ( { 1.` #.` _ :.( ! b 0.H 1.1.0.>.3.D $.X.j D <.0.;._ N U *.8.p.O.( ) D D +.R _ +.D ( Z ' ' U _ v / &.%.8.' 1.",
"~ _ ' ` 1.-.M S ` b *.w.R C H v H 7 0._ D C ` S ` m n n M ' I w.{ R b C q.>.A } B ' / 8.%.m q.D ( ] Z T %.:.| f b $.' q.0.} A A -.$.H C A J ( D ( ' ~ 8 v ` 1.n v *.Q Z S %.S Z S M c ] ' _ >.@.;.X.' &.6.y.3.>.D / *.q.( ( H ` +.] ` >.b v / 9.9.q.%.;.;.y.;.B D T 6 ( B c i 8.H n ,.w.t.w.( V 8 u -.[ n <.,.,.%.B R $.<.y.0.$.] 9.R A L 1.' ,.s R N B T ( >.R ;.8.( w.3.b ~ j T T | ] 6.] P *.] C ~ I :.>.1.>.` _ -.n A F ] %.A O.} ] e.>.*.7.e.w.p.y.@.' ~ ' X.' ,.~ +.~ $.6.$.1.8.W I %.J ;.] ` _ ;.{ +.Z b ;.X.A B i R ] ' ",
";.T _ +._ H ;.M M D M @.#.V [ S H T } 3.V v :._ v b W i ] v *._ q.<.I A $.=.D v i W ~ ,.+.v @.D _ X.H J ! _ _ >.F F T <.0.' G ] @.$.@.D H ;.` ;.,.>.+.v >.U +.H h V ) R I ( C { ,.' v ] W ' 8.>.4.3.' R ~ y.0.;.E *.8.8.<.D D H ` _ ;.+.E N ~ =.=.] _ _ ' N 3.{ @.u.*.+.=.t D A D 3.P ~ 2.0.3.;.B _ 1.( ,.1.A <.A 1.b T ,.%.~ ~ -.q...; n ` 1.@ { S { ) _ n { <.D 6.+.A n E +.] _ <.n n $.O.T E X.,.-.` ` _ :.X.T +.A T i +.>.' D 3.;.&.=._ $.<.U W w.p.1.D $.' ] T u B ~ } <.6.` %.>.1.B n ` b T { G ) ( y G ` ( V ) c i n H F ",
"R $.S A Z ] >.+.<.8 n 0.2 i g X.S < T W ( T ;.1.Q ` W C *.F T { [ ( R Q ' ,.1.F V u B ..T @.H R { $.j :.) %.C ) +.H ' B 1.,.S N %.F <.q.>.` A v ' 1.-.( 0 ] } 1.` ` [ @.@.+.` _ 1.>.%.6.' E *.:.-.w.=.~ ' w.w.1.%.%.~ ,.+.` ` b D _ *.;.{ s d L 6.L $.*.$.' ' n ~ q.` 8.q.A i ~ a &.I R $...3.%.S _ 6.1.( D @./ C >.;.' 3.w A %.R 4.w.0 F q.b u _ ;.( ( +.B F i D 0 *.w.=.Z $.` 9.9.H ] ( *.S ( ~ 1.] ] ] M R S _ +.} } 0 =.0.] 3.q.y.R q.*.6.q.S ( u 8.9.1.$.%.e.3.$.b B a ,.R [ } <.*.) ` _ ;.] S n d A I R _ H ' ;.] Q ( _ ] ",
"N ] #.d x m <.0.<.B >.B ` m ' >.;.v E _ V %.8.b B D q.R 6.0.T ( O.} ) ( I v 0.9.U S F 0 F c D <.R ( B +.B %.{ >.#.] 1.A 1.1.1.$.R } q.' 2.0.` i T E ` q.' $.6.8.3.y.;.1.` ] 1.{ 3.$.' %.-.V E ..<.&.6.q.$.<.<.=.=.h P 8.#.0.1.;.H H b ` [ D C _ E 7.P A ' ` H v ' W t.y.%.0.8.~ - ! 9.,.` v D 9.<.] <.%._ D ] ) u X.:.l %._ ( T ..3.3.B V T _ B n ] 1.` ( #.+.q.3.=./ B J ` B i <.9.A :.6.J ( ! 9.+.] +._ q.1._ +.;.( F A A 1.>.=.$.*.6.B 7.$.w.` T &.7 ' ! v _ } %.] ~ M T 8.>.9.( @.>.+.>.;.$.] @._ H ] S _ S c <.9.+.W ;.X.W ",
"+._ ..( 3.$.) $.y.D i j d R T X.[ T 8 ] 8 ~ W *.;.*.i 8.<.7.] ] _ A ] [ ;.A [ *.1.W -.C ' s T X.b _ ] ( F A ) $.>.#.2.;.] 9.q.;.v Q $.<.W <.A E ;.+.%.:.] =.P $.=.8.@.,.;.+.*.q.Y =.,.#.q.D V n &.} &.} 9 *.E _ ] A B R R ] 1.8.1.] i ` 3.) ,.a *.) S ] 1._ ' ' ( T T ` 3.+.0.<.~ $ 0 ] >...+.X.' ,.1.1.W n u c ' ) X.3 _ C D D ' w.t.*.v >.] j w 1.D A >.+.` q.#.] ` 0.=.S H *.*.9.%.$.y.' d z ^ w.;.%._ 1.$.+.%.C ;.A M } *.&.$.=.9.w.F N q.<.q.:.3.` F c U <._ ..$.V ! V S J ;.H 1.T _ >.C %.S >.;.F ) ( { G A Z %.R <.x ' ' ",
"A D ` v V M W ' w.;.F j u H F 9.1.&.%.} f S 3.n i ` n N R S ] _ :.` ;.w.3.S ! ( { A ;.] H Z H H d ~ j ` _ ] ) E :.{ >.>.>.;.+.F ( 6.E V ' 3.+.9.#.1.9.>.` =.T r U $.=.1.>.<.T _ F D *.X.( ` F A E v m S v $.+.%.+.+.@._ $.( } ' @.` -.S S B E D ] -.W $.1.v E _ i M ) d T A E 8.` %.A N w.' D +.0 $.9.<.v ( S n $.O.+.$.U %.( n U E q.7.i ` $.#.E 1.3.{ B / 8.q.q.' A ` T ' Q C *.X.' ] <.T 1.S / $.1.y.;.1.w.t.9._ 0.{ b $.$.<.*.=.5.q.7.<.8.N u w.p.1.$.R C q.1.1...~ ! Z b b 6.w.M +.D ` h C _ ] ] -.) [ 1._ A j c $.~ i *.n ",
"..B ` 8.' T v <.w.( B %.%._ S S ] %.%.T B ;.-.F s <.' <.u ;.;._ _ n *...w.) ( ] { 0.E ;.>.$.n ] R R 2.` m ' ( v ] %.X.=.q.9.R d $.$.;.) n 1.( 7.<.<.$.6.9.%.H C x ~ %.*._ m Z T ( H R ~ Q 3.-.Q D >.%.v S _ ~ T j F v D R F ( *.9.] S n ` M ] -.] ^ ,.<.9.H ' ~ ( _ V 0 A h w.9.0.+._ d <.w.n B :.s A q <.M ' 3.D <.` ` T R ) *.] F T y.A W B R b q.] ] C W =.%.%.$.} } %.y P ( ~ P *.7.3.$.' 2 U } *.8.w.w.m h | %.D 6 R z U &.8.=.=.&.%.D q.] v $.q.q.0.{ B 1.` G <.` %.E ( A C R T +.` F _ ~ ' 1.[ { _ -.3.u.%.S ) F ] E S F ",
"( >.*.q.q.2.=.u 6._ b v i H S 1.P C ] _ N l *.{ ) h ( ,.C ~ q.;.( _ S m 9.-.7.1.%.1.C $.+.8.Z A ] ( ;.;.q.A ( M } A ` F <.F _ j 1.,.<.<.3.U W *.] S H B q.[ { ] R Z $.8.*.H b Z A ,.:.@.] ~ 6.H T [ :.Q B D B B ` [ R 1.X.T q.$.q._ %.B I S B , ' 6 - / ] _ 6 I R ;.2.X._ v %.A q.0.3.T q.1.T n %.w.8.2.w.9.8.9.' :.3.m ~ ] ( B W <.,.$.>.7 ~ ( A j Q T v T $.%.} n / b B -.} %.S M 9 <.D l F - ] T I ^ ! 8.{ M } ] A R $.j p $.~ $.3.*.-.<.<.9.B ! $.$.%.@.M V x M $.0.:.T U R 9.O.:.( R T _ _ n e.] ` _ i U w.w.H ( R v <.} ' ",
"' +.=.$.&.+.+.+.t.3.D S S H ;.2.$.* T B r _ ' ( { b 7._ C i S S A _ -.( } ] ,.<.,.+.#.` ) ;.H S ~ ] Q %.=.' 9.( ] H V -.` ` N a T %.B S a =.1.*.#.O.( ' 8.3.#.+.[ ) &.} ( -.' ' n B E =.-.k ] J F ,.7.1.W A M -.:.( ` } 9.v $.] $.%.D n %.' >.A ' R v %.' ,.<.] ` ) O.w.w.T _ T ` 7 8.*.$.<.+.R ' ' w.u.;.*.8.1.Z 9.T *...9 h F 0.l q.9.A v E D ( ` u %.T g $.R W ] -.C C 6.+ i ' T i W 1.8 _ 2 9 M 0 ' D Z D T ` :.>.X.,.X.s $.U =.%.....6.:.e.0.} ' ' n j ( 1.T _ ] ` +._ n B $.M ] A R n H u } <.) S S W ] 9.3.{ ( +.R T ;.<.",
"R m W U D B %.*.8.( @.H +.~ _ =.-.B T A 0 _ T _ ( S ~ { >.;.l ,._ n ) } 1.7.1.*.%.:.-.<.' _ ` R ] R R ' -...S B B F E +.6.u %.R _ ( D n E b j *.q.9.W *.&.*.<.%.} _ &.] ] [ 6.J <.( S ' { T A 3.~ =.W :._ A b F i M ~ T q.[ P M B ` 3.] A ] 7.R } M S S ( | D ] j 9.b *.$.$.{ ( 1.;.i ' 7.b { 1.R ' 8.9.y / q._ +.` W <.<.=.; ~ ..>.w.%.3.2 v ;.) ] ` +.T m T n +.<.;.T l ( M +.1.' { 9.+.` 2.M B v $.D 9.H ` D :.( 0 ` 7 Q ' P &.*.%.%.=.<.*.*.6.) F <.` W ( B ( H T [ +._ H $.A F T ` E i _ $.} q._ n B ] :.8.@.] @.] ] T R ] ",
"' V 6 ~ A t M l Y 9.` ` ( q.% u / B P / } @.T H <.B B _ { 1.' >.{ ] _ 6.&.=.) %.~ ;.@.,.' T ( :.E +.] +.' B R ,.' ' _ D ] :._ -.$.` S ] V A ~ %.6.Q ( <.) S i b p U _ ] 1.[ K H ,.H ] =.] I ,.,.-.] H H ] ( c 9.<.A $.D q.-.+.+.B D $.( ` ] i +.& u %.v 7.6.` U b b o ~ / m ;.3.E >.C W | 1.' ' | L } q.x W $.1.R A 0.*.( -.A v T / 6.w.+.N ' :.>.2.X.) ,.+.3.@.S u n -...( D ~ C O.E ] ( D B R S &.<.-.T 9.,.( 1.R F %.%.I i p $.*.1.D =.,.8.9.w.) ;.3.$.D C ] A { [ _ #._ A n A V Z ` %.;.2 5.B _ ' S +.=.$.} _ %.>.2.,...( ~ ",
"` A j ;.D F E Z =.1.H ,.( A u T ; I P ] ] B _ ' / l ` R A _ ) :.$.&.S A ( } _ v ] { <.%.-.6.<.1.C ] *.<.1.` R T ( :.>.>.F 9 N A $.:.Q *._ B i B $.O.{ %.9.X.A ` I _ ) 9.] @.1.{ %.V <._ ) A / ' ,.:.<._ H H D _ 1.,.` ~ ~ q.T %.X.F S H _ q.R 1.~ v 2 U ^ s 7 { ' -.-.T T V m W <.3.U 6.$.w.e.%.b S T 6.v / q.m 3.%.q.q.0.M m ` V j 8.E ( 2.H d W ` { Q *.( $.>.A A T 3._ m A H V ( =.S S b ~ ( H 8 <.1.0.>.2.+.[ R #.H ` @.D S u N R J <.<.' *.X.8.*.q.} ' _ =.y.v >.~ [ >.+.B j ( T { F %._ V C H { R T P S e.9.@.9.$.: ` ] ( ",
"X.( ) 8.+.H ' F W %.C C v b -.>.1.P i ' >.S B q.H n 1.R A E ( _ _ ( ( _ ] ' ;.[ %.+.:.S 6.A *.:.=.-.-.` ;.7.] A %.| { 1.B i 1.%.6.A F } ( F ~ i ~ %.,.} 9.[ } ( -.C R { 1.#.O.<.] 8.+.D H ( a ~ X.6.-.] [ ( D T 9.1.,.R +.' E ..X.1.S $.<.>.;.i ` D $.U l 6.r W ( u.y.( 1.V b B R i ,.' ,.' 6.,.1.M R Q 9.D ` ;.T B } _ 7.P M ] q ' $.m A X.w ] Z D X.~ ' B L ( %.` B 3.~ Q D ` =.D %.~ H n i { ( S $.~ e.q.<.>.>.@.#.O.1.S ` ` ( Q W T ] $.( 1.] A q.R _ ( ' *.*.<.T { ` o.` T ,.' ` A M A V ( _ A ( S A U { N <.$.<.1.B > ' $.",
"0 c B M +.` D ` 6.<.+.@.9.' ` -.@.F B S ] u E T U | T #.A _ ( R y b ' _ -.X.6.T ,.,.( :.} <.| E ~ ` S ` -.R ( ( ] ) ` :.R A Q i %.;.A B { B ] T s C ' ` -.,.' ` S S %.$.Q 6.7.@.] 8.;.] ..E A ( ` *.w.` @.( ( ] B <.] ~ 1._ ) <.+.1.C $.2.w.>.D 0.j $.] w * T 9 8.q.t.v &.t.n i ` F W 7 N ! q.P 2.,.i ..X.t.R A T S 1._ ' %.S C $.W m T $.1.' Q 8 X.7 X.M 9.m F _ H n 0.3.-.T T ,.' +.0.[ v +.,.` %.' ' w.y.F q.M >.T ` ` ' _ S %.A j -.] A ,.+.%.$.8.] _ _ ' $.6.-._ Q C D _ O.;.;.+.%.( %...+.] M _ _ %.( ..$.,.( -.1.+.<.5 R ",
"+.~ u ( ' ` R q *.] - q b 1.1.S n P _ A ` F S %.<.;.] +.] T +.) H M -.X.Q C *.Q 7.H :.$.] ( ( ( b C S ( @.M ] E R ( ` @._ ( s ] V T B ( ) >.6.,.' i S 1.q.8.( S _ Q B ` H $.] 6.>.q.:.%._ ` T C E A q.( ] ` ( 1.1.] ' T C { _ / 1.;.b ' $.T i ] ] C h { > T & W 9 ~ T F U w.4.X.t.@.D c P c ' %.8.>.v T q.U +.A %.q.:.1.1.' m | ( ( T >.1.~ ' $.T i $.` 9.c B J +.S D 3.t.3.9.8.q.2.+.3.t ;._ R ` q ~ &.8.q.1.q.t.@.,.8.-.1.( -.j <.<.b P ] F %.9.w.( V A T $.T } v 1.1.,.A T ' ;.V ] _ >.;.] n E ] T ,.q.b m ,.S D ] %.:.{ ( F ",
"T R 7 1.2.9.@.v l M v F ;.[ a _ R B i ' ,.S A W { -.R F R s -.Q b 9.] 7.0 S H 8 j R 6.{ S T M _ ] *.{ ( i q.1.H H F $.{ H F [ *.` ] $.~ C 3.;.%.R T C %.p.w.+.H ] H R _ ] W Q 1.w.%.S [ H ( T A M ` ] ( B *.8.q.' 1.` b ] 1.' _ 8 &.) } ~ 1.) T +.l B ;.b T _ w } z m ` m l h =.0.,.b ;.v ~ j ..n n B Y ~ <.@.C Q 1.q.>.:.i ' <.' n 5 >.T E i B j b ~ ' 3.3.:.i 0.` B $.8.B *.q.q.q.2.2.:.*.v X.v n N =.%.l q.=.<._ %.6.W <._ ,.n T ( _ ~ %.0.8.%.<.>.0.T d / ] 1.+.S ,.3._ n ~ D ` R b ,.%.{ ] j B R | 9.;.V -.8.%.i V #.{ ) J ",
"` c b 2  .$.q.+.>.{ R S T H F @.A ) ' T ] Z i ` ` F D { >.] b J -.q.' +.j ..$.T Q S ! _ i s 9.H 1._ ` _ -.A ] _ ` H ( ` S H ;.@.D { >.2.~ A +.1...' E T q.9.3.;.) } S ] -.$.~ <.<.q.;.F ( ) ' A ' 8.;.;.-.=.:.q._ ] ) %.;.9.w.H ' H ' } ` %.o.+.( ] ] ,.M T b E ; N 0 > %.A : 0 <.m a 8.@.D ;.W v ` H v i g n x 0 $.' 8.s b P e.:.1.w.*.' R >.9.X.A <., B ) N B A @.u / 2 ,.W } $.<.6.=.a.R H ! *.> k / 6.%.8.:.S ~ x A ` ' E M ( l +.S B ;.<.=.-.9.` %.I C F E =./ -.%.1.#._ ` ] F S H ( S E A R D ' j =.9.1.' ` ;._ @.9.A H S ",
"( S D R v 7 ' ' S S v S ( b ) >.D b $.+.' ;.O.) H w.@.0.;.H +.1.q.$.8.t.1.( +.1.R H *.( ' 8 u ( v S R } ] n ` ] ] ) 1.] ] T H ` ( 8.B ;.` <.( O.#.D A P _ X.<.9.{ _ :.<.A ' A ] %._ ;.$.=.( ( _ S C p m <.W *.q.] -.+.%.8.m ` R ..` j M ' N $.8.( q.[ ( ' M S ' M b y k W 2.*.- ~ S b _ ` W V { @.%.` ) ` w.-.`  .5.*.D D Q &.w.%.( A w.:.h +.` ` X.+.,.A ` M ~ ] ` ] R ~ A P Q $.1.$.1.y.F _ i v $.| 5 h $.7.H ( n D b b H ` H ( F 1.U } =.<.=.$.-.` E R ( Q ' I A M ' [ ' ,.:.-.C ( >.1.R A D H F D ~ ( R :.' w.1.( $.V ` ( ` ",
"3.( 8.1.>.>.` v ( ( :.F Q ( ;.B <.] B 8.0.N $.6.&.<.9.9.0.3.q.} ] <.F w.q.1.~ N R | ( { 9.1.~ { -.A S s _ >.] _ ) H { ;.( { A ( ` 1.4.H +.{ ;.F ;.@.@.` Q :.E 7.C Q ' $.m S M T _ 1.9.1.%.E D ] _ %.C ( &.} <.=.%.=.( 6.} T T A A ] B A M w q.1.;.T t.2.3.] i _ - S W v M ~ t.<.r 3.F F A ,.( %.T A ;.D ~ +.{ ,.*.F D t % ] C b 3.n ( t.2.R >.3.] Z B F 0 >.Y ' 1.1.{ 9.A ] A A %.! R =.8.` _ 1.P : y M ' > v ] 3.E t @.H ~ ;.;.j ..8.A } ] ] 1.R +.T W #.C B ( S F ' A ,.R H q.] _ H <.R >.F ` ] V ] F b ~ 6.n 6.1.>.X.S H ] <.",
";.U q.{ F -.` ` f c _ ;.~ ` 3.Q >.H l =.q.6.<.n ; 9 ' R 2 %.9.8.8.=.q.w.#.( T ( T A @.1.w.' ' { ] I ] A S ] @.O.H A F +.8.<._ X.J R ( q.1.T -.F A ' ,.~ R %.1.y.R A m ;.1.y.+.{ _ >.;.:.R T H ] ) H ..' &./ *.' ~ v Q k W ] ` #.X.+.X.%.b E l P >.X.1.A y.8.A V R q.W } >.u q.>.>.,.t.A +.<.H Q m P ;.E ~ m ,.' >.( ( u ] ( ,.3.,.) 9.' ] @.~ D ` >.1.' H _ ] i $.X.] 7.v ' <.V 8 ' I =.&.V q.T ,.] S v C V B %.=.H <.v _ ' F ( ;.=.1.@.P _ %.$.E ] F <.X.;.C :._ } X.` ` 1.F T ` ( S >.H +.` X.@.A ;.X.] ....H Y 9.:.( ] :.$.t.",
"O.D T ( $.>.1.Z ' S r T ,.] _ ] ] D , u 3.+.n n 2 M A R ,.' <.=.} <.^ w.0.<.` S ` S ' _ ] @.M { { I ' B S R $.] D +.1.] ( +.-.:.-.;.%.*.3.$.R F H +.` X.' ' 8.>.E T F *.,.;.9.` A ` 6.:.] M j } E ' $.] ] w U %.D c D ` v 1.3.X.' %.W E D ~ D j B Y 1.<.2.*.1.8.3.U ! R ' ' 8.0.9.6.h +.} $.H B <.L w.' D S D 6.R C 0.3.' v A ` B +.( ` %.9.+.2.X.H <.n ,.<.#.D $.1.:.6.' u b ' c s # a _ S q.t.q.>.( F A ;.I / 1.3.3.+.T +.+.6.<.>.9.Q i T +.q.7.{ S I _ %.3.+.3.Q v 7.X.) -.T ] ) S ] _ _ ( ` =.,.C ..( $.,.:.*.%.3.3._ m 8.6.",
"] 9.] >.$.<.y.>.K ( =.{ ;.<.A ] Q R v A / 3.H %.R %.F $.=.l l / &.$.q.q.:...( >._ _ j 6.T ( _ ] I W | v y A ( d { ` ` ' ] &.*._ X.;.T i ~ 2.' :.J =.T T ..( n ( ( 9.%.U <.6.;.Z S R H %.] H S H C n ) ] o.D ( F F J Z F H ` @.A F ..( a i n { ` ` F ~ N ,.>.( 8 =.0.,.n ( T <. .,.q.9.d %.D ` <.O.T 9.{ +.1.n ! >.9.0.3.w.B H +.+.6.R $.%.( ( q.` ' / r ! ,.%.~ { ,.' P ,.] n H 1.-.6 ` ' $.S [ @.X.H @.J F >._ ] M N 0.~ R B ` ! ,.9.q.,.%.<.q.9.@.;.S T E ` E 1.' V L $.R T F ` _ T _ ~ T S ~ 3.S -.Q P ` ] $.m A ' D ( Y 6.b ",
"B l $.$.6.=.9.( S ;.5.X.8.S M ' ` ` n w T %.N Z q ~ X.~ $.*.<.*.$./ &.<.W 2.( ( @._ S d S ] R _ _ m 3.6.( _ >.S ( F ( _ Z R ] +.) ;.1.D A 8.;.` I T j X.D ` @.' %.<.8.` +.H ( ( ~ E ] +.) ] H S b C B %.$.` E n v @.` ( 1.,.-.%.$.D ~ S H _ b J [ ( A +.M w.+.a =./ ~ ;.B V =.' <.Q ( D J ] T 8.*.' ( q.q.$.~ =.X.( +.X.q.t.q.~ =.*.<.X.A ! 9.) @.1.~ r :.` X.%.' :.C P @.C H ] %.F R i ~ D ' c } ) ( ] { v >.E W ....H S d D ! Z N 8.1.,.,.$.$.q.e.w.q.1.,.' ( R ( A b H R H C Q S ( :.1.F F <.8.( } n l $.@.] +.D n V T B 8.' ",
"x M n E ~ q.$.:.F v ~ l ' H b ( H ~ ' A < x W X.' B ! <.<.Y 6.%.j z ~ E A ' ` +.' 2.{ { 9.( 7.` } T 9.b F S _ T d T _ I ] T T ~ H ( 3.@.@.l 1.M i D @.[ H D 8.,.@.X.' A A Z q.,.<._ ;.H _ R ` _ _ v S C >.+.1...F B ~ +.:.( 1.X.n E ] ( R t.w.m D Z A R E W _ H = ~ ~ v b %.B 7 6.>.q.%.~ ;.v h -.( } 6.$.>.R P ..g ~ R 8. .y.B T T n ~ / &.D m H >.%.x Y F T ' $.` S 2.1.R F A { <.8 M @.C R ` n b _ D ( q [ -.` m ~ 9.9.1.$.A ,.H E =.9.8.h W P *.w.#.( %.` D ` *._ H H X.T _ %.] { ` ` $.8._ ] S T v n / U +.@.X.;.' F ' C S ",
"b V i Q <.5.I -.$.{ P T ` [ E _ ` ;.( A R ;.$.W _ @ $.U %.D *.1.+.} ;.3._ _ ( K f _ _ :.$.g _ B >.6.%._ ] R ] ' H R A n D H R Z D S 2.' A M ( ( _ S w.0.H ,.8.6.*.] / 7.+.,.,.q.;.] %.;.] $.+.@.] A Q u ~ ' ( 3.H R b <.6.:.' _ P E C B 7.;.6.' C _ ( [ ] ` J _ % 1.} M S D C 8 a A =.%.%.W y 0 = 8 ! $.Q 1.' ] <.B m U &.6.E ` :.H A , i S Q #.H S ( m L b > ~ $.,.i ~ A ;.1._ [ 3.( ' ( d M K ;.R V C ] T i -.$.1.<.6 -._ h u ,.<.*.,.q.~ H H S a 9.,.` >.b :.+.:.' >.+.` >.( _ C %.X.( ' $.%.-._ ] A > D ( T ` >.1.] ` <.6.T ",
"$.c b I R ) M H %.b #.T H F 1...1.A @.c ' y 9.<.1.' *.<.<.M ~ _ b F v ( +.` ] [ ` H F @.>.` 4.<.1.9 W A >.,.<.$.( >.R R C H ` B D H :.` ] @.] 3.( 8.] _ W &.} ~ :.a :.7.;.' V ' :.` ` ` ` 1.+.+.{ :.E b +._ S ..( ( ` | q._ R S -.{ D n *.~ q.t._ ) ( n ' C A V T *.1.u H X.b ;.U T 9.i 7 m ' C / T k 2 _ 9.<.1.E M ~ A ^ T _ R H V ..W ( D V ] [ ~ T *.P n N B _ _ u ;.[ @.9.#.] ) ) A -.R _ A 9.O.;._ v j E $.=.9.*.Q W :.3.E $.%.=.3.X.A X._ ' r %.` C @.%.] [ :.( _ ] +.H F ' _ -.` H R C ] 1.[ ] ` Q F F Z 9.#.#._ ' ~ 1.+.",
"] +.9.d F ' M S I T b U q.A ~ >.<.*.V n ;.' / q.~ 6.j 8.h 2.F _ ] ` ( b 6.F R %.` ( R L ,.;.0.;.) @.<.] ;.] ;.T ` %.9.1.@.( F X.Z ( +.` Q ( >.( 9.*.9.N 7 j V I _ C ] :.;.:.+.;.$.] w.@.#.@.@.{ 3.:...' j +.H +.1.` ' *.C S | 9.3.F >.,.' U p U H ( b c _ S R M ] + W 3._ v 2.~ T P C #.2.9...9.=.' Q T =.5.H ' =.;.X.;.R y X.U 3.3.n >.a M i +.<.:.} ( @.9.a B R -.P M q.9.$.1.9.3.3.d I S %.C _ ( A ` C b _ 6.Q S 0.} > ~ ,.1.~ ( ' D ;.>.( H E R O.{ 1.D R 3.H +.v N 8.u.+.S +.T $.( S A +.q.0.9.1.<.Q T @.D z 0 m =.( :.] +.",
"Z Q <.@.9.>.` <.M F Z T b / %.w.C j A ( Q S ~ ; 6.w.+.q.S %.+.<.#.o.] X.H ' C } _ G { I Q R D +.>.( ' F C >.] R c ( Z q.;.D 3.` @.( >.,.T $.V $.<.%.A %.$.9.b S ' Q P 2.;.:.%.>.1.H $.e.q.0.y.@.{ ) ) ( Z v ' E S A u W T b R ] 0.9.% ! L ' *.I ;.) O.F [ @.C { O.` % 9.] ` D n T 8 { ) v 0.9.;.%.S P ( E ` :.A =.H 3.9.q.<.@.*.t.R ;.>.,.%.%.,.1.7.i _ >.2.1.P M w R y ,.1.] 8.W U ;.1.} | 1.) D H S +.S ` M *.;.R ' $.V ' ,.1.X.%.$.H ~ S 1.3.,.%.$.9.>.F -.] R ( $.8 / q.q.+._ b 1.~ ( T ~ 1.1.t.;.1.` ) +.+.+.1.8 U _ M _ ] ",
"A i L ~ q.0.,.l H >.x P } 6.8.8.i $.' Q I C 6.S *.=.T 9.S c V %.q.] F ) C ] F _ 1.] ,.6.1.@.q.1.%.,.,.d ( R [ 3.Z V x Q q.` _ >.` ( A $.A S n U m ,.v 2._ ,.,.%.Q } R S R 7.! T b m $.6.N ~ W 2.` ] R ` ] v { _ ] Z _ T 9.( ' L 3.:...n W { ( u %.*.1.u.w.( ( H C 1.W $.3.u.B ' +.D H H { s q.;.R Q ( Q m $.' 8 R X.$.=.&.<.+.8.q.M :.2.u.' ` ' j { ( 1.R u 1.2.( V B w *.6.6.8.>.{ $.9.E H ,.[ H { J ] C T ~ } q.T t.w.~ $.T _ m ( %.E n W 6.T ' ~ / ' ] ` +.' S 1.+.j P =._ _ H R 6.( S v W &.$.( ] &.( X.b ( S C #.,.C T B ` ",
"%.T v / C 8.%.>.; | >.b L *.8.S ( Z $.A Z v ~ V T U M ' ~ C v E B S ' X.$.+.X.n 1._ ~ ' 1.$.( +.O.9.;.<.C m _ 1.%.8.U i P ` R U %.( ;.;.A H $.n ' Q W X.%.1.O.0.:.n | [ b &.] ;.] B ~ R _ T %.-.+.F @.C H R H ] ;.;.( I ;.C b d ' T w.( >.( $.v %.T 6.%.B O.+.:.} <.<.} $.w.0.:.R B A [ @.+.T ..] 1.A 8 F ~ / 9.D u 0 Y ! ! =.&.q.c ' ] m Q q.4.;.A [ +.H ` T 0 #.$.j m 4 ~ L 6.$.( %.O.V ( _ } b A ` +._ E } %.3.' 9.q.' B I l b +.0.-.B N ' F ( S C 5.( F <.O.%.>.;.( ] H ] T ` _ ] W W { R v C 9.+.( R q.3.F { ] ` 9.] S <.%.",
"C v u E D ! 9.1.7.T W A l *.w.7.] [ S S S ] T n 0 M Z 1.n E ) n T ` -.' y A ) g T b I Q ;.9.` <.2.1.( q.Q R :.;.8.,.B %.V T S S 3.1.1.{ ( n 1.) >.' *.:.R 1.1.q.:.i a s <.` I ;.,.>.<.E D ' A { >.#.H ` S S $.H S -.A ( C H _ b v T q.U ` 9.+.W 6 ! %.:.>.8.] N +.B U 6.{ w.( ` Q +.F v 6.C ` 1.{ i v ] d 1.$.] ; Q ~ c n B 8.$.6.c ~ K ~ $.X.q.] ' 8.=.q.0.C S ;.>.] b -.i b ' _ ( %.-.( R S ) ' n @.] H ~ M / %.( I $.' N A D H B q.3.( v F b D :.C <.~ %.] <.>.L $.' F Q ] @.+.<.` A 9.S S S ' Q ] ( C q 8.F 3.F @.` ( ` ( ,.",
"3.' H Q A ( m @.E P ;._ I $.$.~ ( F ` _ _ 1.@.@.F H A ) ' ' X.~ H ,.3.<.T V D ` C M w Q ,.q.A 3.i +.) -.%.` ;.+.R w.] 1.T V ( B ' 1.1.O.T A h %.v ~ b / y.3.9.%.9.Q ] :.+.^ U ~ v l ;.U =.( } <.+.F ` _ ` H H E 9._ ) R F R B +.d T 6.3.V w.2.T S R h W W ' ' Q ! $.<.&.=.2.( ' ;.A ;.v S w.` S ( { S P *.$.2.X.t.>.m ,.b l $.W Y Z H C *.$.u B R A ~ $._ ,.#.b t.1._ R +.1.S ` -._ H ) +._ S H _ ~ $._ R u B v $.D D $.C >.` _ X.J J 1.( _ D _ d j c L ,._ +.{ _ Q ' _ _ { _ ~ } | { _ ( S { 1.,.T +.;.H R M B ] 3.[ ( >.` :.%.",
"] %.) ,.V C X.( { E ,.$.l 9 $.~ _ H ~ M ` *.*.] >.>.` %.D 3.,.T x H ) O.` b n ;.1.%.F x ' <.;.m S ;.;.w.9.V $.3._ %.H ` <.F C $.;.L ~ ` 0 m V 3.W 0.<.U 8.y.q.,.F S 8.@.i >.` ) ( R ..i ;.$.m ] Z 7.O.J _ -.] @.H q.;.) V ;.W V Z a ( W Z T B ~ +.D H m R &.R E 7 w.n  .%.=.F ~ F A R P n ' -.;.( @.H A $.<.' <.>.' M T ( D Z c ) M *.%.T ~ D c A b D R Z ) @.V ' 2.+.Q q ..( <.;._ ] 1.G ] ;.] M T R #.$.Q b P R [ Z d ` ' @.F H D ,.9.D +.@.] m C R T A W 8.q.+.S n _ _ ' ` F R ` H +.H C R -._ Q %.%.` R ( Q D ,.+.[ ;.1.3.#.",
"9.3.( F -.' ~ B v :.S U ' ,.;.O.1.] V / 6.b +.-.{ ` [ ( <.2.@.m R +.` ' D m ' 1.:.>.i ` v v 9.| S T ' ` h S ,.:.$.H ' H } S i ] ] ] { [ ] ' ` 1.>.e.y.;.n &.y.<.F A R 0.+.8.@.) ....b ) %.D c C J J { ` J ^ _ T ' Q q.2.Z X.2.C Z H u ' ( F 1.S { n V u ~ ~ X.0.D <.p C 7 B 1.` S A 9.*.<.b 8 ' _ 7.;.S A T B *.) _ 9.V T ( C ~ 1.V ( X.n b H ] _ A u C +.D ;.1.1.) @.;.3.( E $.} A [ +.C _ F ) { ( ' 1.1._ ( ,.~ >.,.%.<.w.:.( 1.R ] -.2.G Z F T ] T C ] _ ` _ ` ] ` ( _ $.7.W X.` @.[ ( H $.-.{ -.] ] S { ;.( ( W 7.+.O._ 0.9.",
"3.@.+.@.] v R T A ,.+.E ' +.D ..N 1.~ B ^ +.H #.0.@.A A ,.0.+.] A ..D -.Z o.~ @.H c _ H @.A <.3.H _ 0 A g ..H <.i 7 3.O.@._ ' j 7 q H O.C j _ 9.q.e.w.y.C :.1._ 2.M =.8.=.%.:.{ _ X.x ` { +.C ] n F ` ~ A D b *.~ C ,.2._ v ' S { J _ A E F ~ R ` B M 8 / 6.9.} _ W ' <.*.b H H $.0 L =.L ] v ] F -.%.( <.( T *.T ] ..R j @.' 7 @.) A #.F ( #.b x ' $.b x 8 $.=.D A $.8.] A : a ~ T >.` :.{ ' 1.-._ 7.] #.] _ ] M m v u E $.+.2.A _ &.F 2.( V } S T ;.<.;.A ] _ { ,.,.( <.B i C G +.+.#.] ] 1.E ' >.@.) ) 6.9.S _ j M 3.+.( *.q.",
"=.3.w.` ` :.( ( ` ' <.B M T D -.;.H ( C <.i R $.z S ( T ..@.0.*.J E F A { B b q.:._ H R ~ A ` ;.+.X.j ] R :.+.+.] F i 1.~ ;.{ *.<.9.` ( A i  .5.>.6.6.6.{ ,.w.C <.' r m D B R q.+.` b b [ ) n S ` D =.H S F ( I ( H F 6.] V b S D C ,.W M 8 D r M B ` 8 > N *.q.[ ;.1.0.<.] ] _ } A &.u W ` +.%.A T | G D R s >.b m ] ` w.A ; R %.` <.$.R ;.H ] %.;.;.n +.c u A -.V ~ w.S 1.( ] -.` ( E ' ( } =.@.w._ ) E R -.>.*.( S V A R 9.-.=.' 3.@.-.$.,.] v ] B ` } E $.] ` _ %.9.+.%./ b R _ w.>.{ $.( F S 7.-._ &._ ;._ :.,.H A R R ~ L ",
"l *.~ +.<.,._ +.' } A T ' ` 1.D R ` ] ;.R [ H v ..] D g z <.*.>.H ;.( s v n R n n A C A _ ( ` @.) @.0.$.( q.;.V v ( A S { T 0.X.q.2.1.( %.T Y =.7.6.q.A ' :.7.m ` ' %.1.1.1.C 6.<.} ' C ` H S _ B } >.R ` [ ` b ( A H ' S 1.+.] R T d ) C V R A ` >.( l T 9.$.&.;.,.1.b B H ;.R P } ( ] m ;.l 9.@.` ' ( ] =./ ;.;.>.) -.:.%.9.m ` h ` H ( ,.[ +.S <.v T T i ' A i d &.M F 6.A v W 8.1.v E $.@.%.*.>.D +.;.] q.1.1.` H F D T n M n D D _ ;.y.m b 9.C R T Q +.*.%._ E $.q.2.H ;._ _ } 6.1.,._ R %.Q } %.$.( 1.1._ ( R Q _ X.*.R b ",
"E n ' q.q.` ` _ S >.+.R P *.~ { ` ( b *.6.w.2.>.F ` ;.{ R i B R A 2.( b P N j ' %.H ' b M B T 1.H F X.U A R ` E P R 3.q.' ( 2.n E 9.q.I T u u ^ *.9.:.:.6.%.7.>.@.A ( F u v } ( v S A E [ R ' R v ..-.F R ( F %.M A ` E A _ ( +.' $.' $.W s n j H R C ( P W <.,.1.i D H ] ;.+.] j Q } S / w.R q.D D R =.6.6.3.q.8.;.+.{ $.( W @.n S B % T 1.X.;.%.l ' #.9.T P ' v b 8.+.F } _ +._ G v v m / ~ M B / E R %.*.1.+.2.1.;.@.] ` +.t Q >.' X.` _ 2.~ u b V Z } B C ) { S S 8.3.q.@.] H ~ <.*._ ( S T f h T &.w.q.;.;.S S T S ~ C T R ",
"E S =.( :.( %.F $.I ,.A ' ' %.8.y.C _ *.P } y.2.[ ( ] ' D a h g H E +.<.W ;.8 %.m ~ t V S A J $.1.n 3.<.H <.) m B n ] %.' x ,.w.u y.v ;.:.] i u / *.<.*.U 6.-.` U ` F F j c v *._ ] $.1.[ <.` ( S %.q.*.V F ` >.+.{ { H ( A I 1.1.<.3.' *.I N ( v ( B ~ j ~ v *.a ` u H 8.v w.1.( S R B N ,.q.P } [ *.<.=.A j / ' 6.S -.>.1._ ` R +.$.g H <.) D +.S F ;.;.<.T T %.b u +.j v M a S T _ ( >.A ` @.1.i i S P ~ $.;.0.R 0.9.1.H +.q.] %.] -.1.` 1.1.9._ 1.` ' S H +.` +.F ( <.:.>.1._ _ 8.%.,.>.( ] %.H ,.R =.q.;.T ( ` _ S ' H ) S ",
"V E $.<.6.X.<.+.A b *.O.M ~ $.6.q.w.&.m ,.B l q.2._ v +.S 2.>.t ( >...<.B b R v >.B q.<._ G V n B j <.R ' A 2.) M ! S ( M b *.8.6.D ;.-.w 9.;.x k W H n y R ) ;.:.;.w.q.%.T b C N %.;.3.+.` ` A $.H $.+._ ( +.( ] +.` +.( ` X.6.1._ ;.q.-.$.,.j S :.' A i R _ $.~ u v ` ..+.+.[ ( _ Z <.Q 6.3.T V $.$.Q ' c T ! ' } $.$.E q.2.$.] <.%.u R ( { N ;.Z x #.+.1.{ ' } I ( T ;.` ` <.:.` +.` S b A T >.q.' M S d *.:.P ' Q q.3.T ! =.3.<.$.` +.@.>.>.` -.S <._ ;.;.( ' C ,.%.] =.<.%.1.*.6.] ,.%.O.' -.%.R } <.w.;._ 7._ I @.+.%.) B ",
") A W ~ %.%.<.0.%.' B &.%.$.! / w.=.~ B $.9.U *.>.3.` ' Z B g D ) F y.;.S Q $.Q :.3.>.D T ;.{ C  .$.m A Y z H -.3.u u o.D ( W $._ S ' ;.{ R ~ ( T W m b $.D ,.@.9.B 0.0.%.1.R Q F 9.:.q.2.;.F ' n ` { ' <.b F H H #.` S ( ( 9.1.D H @.;.*.,.-.] b A ] b ~ F _  .T *.+.( V b ] %._ ] T j v A W 0.S T T B v S T ~ ~ T $.-.%.$.<._ 9.' ~ i j =.,.V ( ..>.[ 9.i P _ v C ` T +.` +.D 8.2.w._ %.b +.( R @.;.,.v d B *.;.S v y w.] ] I _ $.( I I +.-.y.2.A M ' %.T F $.+.D ` ..( @.n T ] ( ' X.] A >.` S I Q | <.6.;.;.9.;.R $.` ;.E M ",
"2.( -.W $.%.' 8.%.<.%.1.m 8.D B / <.$.W C b j ~ 3.4.` ( ( W ` 9.v -.` ;._ q.1.R ] 1.` A T #.>.] W z Z +.<.( +.X.W ( n m ` 1.<.T ( 7.v S H 8 Q m -.+.<.F ,.%.` %.w.X.M 1.] ] ;.] &.{ { ] 7.;.9._ +.$.' Z >.] ` D ..{ { ( ~ 9.A %.w.' 9.<.( F F ' u V b A n =.( $.S %.v -.:._ T ~ 9.( V R Z 1.1.T S ] E F B u A P T :.B *.=.A <.%.] q.$.R b -.H D F ) %.;.) [ =.;.b ] A ` ` M V A $.D w.` B &.W *.@.V ( ` ] M L } 9.9._ v ~ 9.9.E 9.! { | 1.1.9.*.9.M B w i %.H H b ,.1.D <.D m ' ..' E ..] H ..( -.%.W ~ 7.` =.5.X.] R ~ +...[ ;.",
"W ( B ] } ' A ,.=.n *.B ( *.@.! *.T 1.] 1.~ X.i b %.>.X.#.:.X.D B P I 2.S 1.8 I l $.w.F T $.3.<.E H _ *.<.X.Y ` 9.Z ] 8 a &.~ W +.' F ) A T =.R [ :.$.-.-.' 9.8.w.t.1.H F 6.V ( S 6.;.A i *.;.1.-.( J ( ` H H ( C ] F F m 0...,.;.8.` 2.*.X.' } ~ Q b n ` W A B ` l >.A T F 1.] H -.` $.n <.T $.A 3.2.( 9.%.M T $.$.<.*.D %.T { w.9.9.R ' T D ' 3.A _ ) 2.o.9.$.i B D :.` 8.H l S B L ~ M *.C ( ` ' T ' ] <.T m ' w.S %.,.B T 7.-.1.;.' 7.<.:.1.1.9.%.h =.+.3.H F ( ' %.{ H ] J F H u ( ) ( B B T M S y Q %.S 6.( 1.$.B { ) 9.*.",
"' F A p N / ( =.3.S ( b ..N 0 A ] ;.` T %.` +.%.X.F : h M @.1.J C b ] S R ` S s I > <.T i -.{ I D R R ..F X.0 3.9 0.R U n ( 7 ' >.( | ,.7.9.3.0.S 2.;.+.( d $.%.$.Q q.3.) n 8.H 8.] ' b +.;.J %.H %._ H ] ` ( [ ` _ { ( l $.v Q $.h Q >.O.:.,.<.=.~ ` g  .0.( ( ) $.A <.] n +.] 1.+.#._ ( ~ U _ ] ' $.( 9.] ( H ` ] ' N ~ N S 1.>.y.F >.` ( 8.q.q.;.T ) R 3.q.1.$.T D ' D ( _ g _ n _ q.S , +.] $.;.' F _ t.1.~ d B 9.<.$.R B W B B A _ <.~ *.W ;.( ` u ~ m :.{ ;.A +.O.) { ` D ` H F %.+.] H E ] ' F C ~ -._ 1.:._ @._ / V Q E ",
"A ( X.T ..m 9.9.0.T B ] ' Q $.%.( _ 2.;.Q b n C g Z A _ Z C X.` E { b X.A ' :.R T v B S B ..+.-.( x X.v u T ( *.0.t.q <.` F - ;.; _ &.>.' ' B ~ X.] ] 1.` g U %.>.] q.r.B V ~ ' q.9.` G b i i I N ( ' +.{ +.+.` S ,.>.;.>.0 Q ' $.$.E [ H ] <.<.,.' -.] x ^ ' F l ~ ) ] _ A =.8.w.#.;.H *...Q F A $.> u n ) B 1 ^ <.D ,.9.,.N ..9.,.A *.[ T } Q E w.>._ $.D S ] A *.@.C %.T @.+.S 0 ! B M v ^ @.v ;.*.U 8.B R _ S T 7.-.X.' R ] %.9.*.' &.-.| 9._ 3.] E D T A +.$.( 8.O.@.>.;.1.:._ n %.` ` J ..[ ( ] S S ' S +.7.) ( ] %.C ( 1.",
"q.%.R _ j <.8.<.t.w.l  .q.9.B +.-.:.9.+.S ) F ..R D A ( B V i ;.;.{ #.-.:.>.( ` b @.` R ` H >.1.@.N #.+.F z ( W 8.*.3.0.Q A U w.y.W ~ ..P 0.' B >.q.9.] H j $.X.8.8._ $.w.3./ %.6.9.{ ( S _ -.| m ( W ( +.X.>.A ` H ' +.` *.<.,.( #.@.{ ( -.] A ' D $.-.a M T n B b v _ E ~ 8.=./ ~ 0.T u ` ' 2.] %.$.D B S ..' v . L $.y.t.9.3.+.%.$.8.<.T 6.3.6.e.9.#.@.q.` X.$.g H 3.~ ;.Q >.;.q.' ) ) n T q ~ O.9.j S %.S C b $.<.3.3.3.@.T M %.' E T I } -.] 0.' ` _ q.X.1.A A A E ` ,.Q X.#._ B _ X.@.` ` ` H F v ' v A { ( ,.,._ _ ' S %.",
"P X.%.-.m &.=.~ $.` T $.9.@.1.,.-.$.A ( ~ ) >.B R V x ` ( A E %.J %.2.X.v ` X.` $.;.] i $.) H ,.A S <.H 8 m R l { +.b -.~ i ,.' w.p.' A ..1.B $.} N ~ +.H r / ,.:.2.W %.~ W ,.5.+.` ` ` H ] J ;.` N R $.+.,.0.{ ~ V ` 1.>.D F S A { >.` #.-.q.<.A n F ` H u H R ' i <.Q B $.%.v $.,.M ,.$.m D 1.] :.2.' n 0.2.8.$.%.5 L *.=.q.$.w.0._ ] +.C Q 6.&.T ,.A ] m M 0.` %.i B g ) F F o.{ ( b +._ m ' T n ' :.Q A ( B i ' *.E ..>.n D Q 8.-.S S S ( ] ~ q.0.] $.<.A } ( ~ H ( A H V ( @.+.V R ;.@.( H H ` =.-.s I H ` C n ] ` ) R %.9.",
"+.-.=.*.F %.+.;.H ` ;.3.<.` ,.~ %.9.` w.>.*.0.@.` ~ H %.0 ~ 7 <.~ %.9.;.<.~ M *.` ] ` ' 7 %.8 ( u D n D ` D $.S +.( -.2.c v 1.$.9.3.,.3.w.,.q.q.v j ( { X.x m *.9.<.~ Q &.9.0.X.+.+._ @.[ H ;.>.>.H ' ' %.~ H 9.( ( ' +.( R R ( >.j ] R ' @.o.) ..>.) ` ` H ) ( ; M E 5 i / 6.' n A ( ] ] 1.j ' M $.t.3.{ v @.%.~ <.+.V z &.*.=. .] +.*.! 8.A W $.$.[ v 2._ V H v Q n A 3.:.E n D B J ..>.` 1.~ [ { A | ( T ' | l <.%.} x 6.9.=.$.,.+.S _ _ ;.9._ T ,._ R ` 1.R b F ' A R R F H :.` H ( T [ :.F [ S <.%.,.R ) <.] T { [ [ ] 6._ ",
"@.1.F _ %.C ' ` E B n ! %.:.] ' ` 9._ ] ' <.X.T 1.D B j Z m C ' ! #.:.3.q.*.$.v T -.@.' B ' ( ;.) $.R D a V > b X.( R :.c S & =.8.~ Y q.u.=.q.e.+.o.( ] D V V T 6.>.T =.T ~ q.) D H _ 3.;.F R ;.` R ( ;.` R :.w.E ] ' <.+.-.D ( D ` T ' ;.H A H H H C Q w.#.@.1.,.R T +.8 S A 1.` b v _ B ] } +.D ~ w.X.:.+.:.+.X.q <.` B M $.Q R 5.8.q.<.T _ _ H =.y.C <.;.R E F v ~ B v B Z b -.H $.V D Q O.( A ] $.=.' %.T %.] *.T T D Q Z N i $.S f %.3._ ' b T +.Q ] S 1.R V Q 1.` >.-.H ' { +.` +.+.] ) ' ) { 9.>...H 3.] _ <.' Q 9.%.F ` ",
"+.0.9.[ 1.T Q F P ' $.%.$.:._ *.%.7.q.3.D i u ` 0.T -.n i T N ;.@.( @.3.@.$.3.A ( 1._ X.c x $...H { >.3.$.[ Z V m F ] 2.( / b ~ R T M n 6 =./ 8.w.{ ,.;.D F D %.' X.F T +.T 3.` :.( ( B @.{ :.{ _ ( ,.X.D ' ' _ C ' F ( ( ( H A E %.2.:.C ~ S R _ { Z Q ;.T X.+.S ` A F ' H v ( 8.] ( ~ B v *.F ' U 0 9.,.Y m W ( 9 ..A S b a ,.W 6.} $.` { ' 1.` ^ q.] Q +._ E n Z ( ) D Q Z F i >.1.` Z i ' $.>.<.q.<.A Q v } S l R [ n ' ( _ i v 1.R U ;.,.7.U v Q S 1.w.y.) b ' ' ) ` >.` @.J ` K ) ,.+.+.) S ( w.>.q.H B ~ $.-.,.,.1.8.>.+.",
"( ] ] <.@.( ` i W m ~ M _ 9.:.Q $.$.%.0.@.,.H Z X.+.4.T R ' { j b +.R A Z $.x ) ( %.X...<._ ! %.:.F ,.2.0.B ( v q ` j Q , ( a M 1.Z C ` &.5.N q.w.p.>.:.n ~ ] <.w.>.+.%.%.C 3.+.` J { ) -.H 1.>.) Z $.] D v ' D M E ~ R S E +.C F Q $.X.) ,.S F Z F E ( y.%.;.] b R [ R ,.-.+.( n _ B +.' V F B T b Z / Z F u R ` 3 W &.H D i / u =.3.1.{ _ -.9.9.} +.>.~ ` ( ( A F +.B @.' ' E i <.( ` #.` F ' C ] X.0.V R v } $.c 9.J J b ( M _ b m i ( +.$.:.T b T W } =.<.@.( $.n D +.( =.>.J ( -._ -.:.( F ( i 8.=.3.` b Z | _ S ' ,.9.1.q.",
"T T ' <._ S ` +.u i _ M ~ $.6.w._ %.:.,.#.X.9.( H :.D ..R u ' X.F q.2.( 1.#.R X.:.+.( R +.+.b D F K ` 4.@.R Z y i m w.A %.F ~ M i M ' =.u =.<.! $.q.+.2.( i <.Q 1.y.3.$.0.:.E 3.;.;.( ;.9.1.$.:.( H ' ;.+.R _ ,.$.E ..;.$._ 0.$.%.T @.+.q.,.` _ D S $.} 8.y.b ( _ T F X.' ( W u v A Q ( +.>.@.9.E @.! ;.%.R W R H ! m -.) d H r } F 6.=.=.] T Q W n <.;.` V ] +.( F _ b D v F _ D B :.F O.` >.<.F ) ` 1.9.I ' Q F A Z S [ ;.{ X.} } $.a v i 0.%.-.1.b v B B D ` ..' X.F A ` *.` A $.*.1.+.` J F C w W A ] Q v ' E S Q | _ $.%._ ",
"' ` ` ;.` _ C T ] n ] S W P <.w.w.<.$.9.` ] >.F H F +.] ( b i ( :._ 3.] { ( _ ( 9.O._ >.A R S ' Z ` q N ] 3.T T h 3.' <.;.C F w ( V 2 ~ U $.i ; ~ q.%.:.R P A m 6.8.C 5.7.6.w.9.3.;.( T q.,.R ` +.H ' S F O.>.H #.%.<.=.V <.O.q.1.` ' } $.9.H ( F n S *.6.#.:.#.H ( V ,.S <.3.8.P _ 1.S F %.-.1.$.' U 8._ 3.%.v <.} $ <.-.T d *.u P $./ ] ) H ' T } 6.} { R H #.R %.` _ -.` -.D 8 b ( D w.' } ,.-.| 1.;.S T %.n :.J M ( <.e.3.] ;.1.%.;.q.` j ;.] >.;.E E X.Q D ` F U ] ' ` q.@.~ U ' =.H ( B C H A _ X.` H l v Q :.] ,.| } %.B ",
":.+.` ( ` ;.{ <.I } T 0 ( } } <.M P $.q.H D q.3.#.b >.F D c v m R ] H n R R M U H 3.<.>.` R V %.=.` X.@.E ..@.v u 8 v ` ;.;.D R i ( c *._ S 0.b 0 8.n ` R U T ~ &.1.;.] *.3.' D 7.q.` B *.%._ H ) %.T { ) 9.<...>.>.,.>.' A 6.1.:.%.` _ ( *.O.) ( T  .=.%.$.` 1.S J _ ' ' j %.1.' B P R ( F ,.j @.E ' 7 ,.,.$.~ B @.A ..q.T C Q ( _ b 1.] ( 5.m R &.( #.] F A A 2.R ` 1.) V F H 2.} ' ~ ' t.` 3.;.:.y.( _ ' q.+.$.' n m 8.w.B R ` 1._ q.q.3.H b ( B D =.-.X.2.] +.F n R ' Q  .#.` ( A ( Z Z 6.1.+.D *.{ >.H B B m / ' E n ` &.T ",
"8.>.3.( ( R ;.>.0._ _ V B Q $.A $.v S h X.N ~ T R ` D #.D ( x j ;.{ >.;.` { 8 B ' ] %.+.a ' 6.8.U b u v %.@.~ ( @.' F e w A ,.<.~ m u u P *.8.{ ( w.9.( o.6 M 0 j ( ! $.<.$.;.] B q.6.) V _ ` ;.<.%.R ' ~ 1.<.,.1.9.<.+.T A I 6.<.-.+.~ T ` 3.@.' M / =.' ~ +.` 1.T ,.9 T E ,.;.>.) ] $.3.+.T T +.%.=.' 1.v 3.,.) ' n b ` ` ] ] -.1.) B b u ` [ W T ( 1.] C n R ( W 3.F ] x V D x 2.u _ ' ..( W $.T T 1.t.' b E ( @.T D 3.,.M M i T ^ N <.>.T R C ;.M +.@.D x 0 n F H C F F F _ ' ) _ ;.3.3.,.;.9.<.] ] ;.%.q.,.T ; ] %.C ~ B [ ",
"<.q.' 0.X.+.:.-.{ >.O.i i / <.-.%.1.` ] T ( ( C ( ` D ( R ` w m N +.;.;.+.9.2.w.' d H F W ] j @.` ( X.' T 3.%.( 3.;.>.q.~ V +.8.;.q.n i R ' 8.8.8.X.+.-.Q ' D / B d =.8.3.q.<.T j Q %.=.;.2.;.A :._ ;.1.9.q.8.q.=.9.9.0.;.S ] ] _ ,.%.} _ _ w.1.>.Z ~ M S S %.H C ' 1.1.S c b -.T i ' ` @.) _ _ ] <.:.` $.$.B >.F 3.8.%.f A :.] ~ _ H ;.( &.9.m ;.d A { :.E v N $.y.X.>.3.%.' D i y a S W X.0.i M ` S %.1.j } m _ 9.,.( &.D ' ' [ ;.( S c >.q.u <.A @.H 9.D 3.` +.` B ( ( 0.` ( H H T ` ` 3.y.1.@.I ] { 1.2.t.:._ R E S P S &.%.",
"N $.3.9.H ' D ] _ 1.>.=.P T *.l %.H q.X.J ( R F :.@.) H ` X.( D =.( g i n 9.w.9.t.;.D >.+.T D :.H ` %.>.H 3.( D >.R 1.v A q B +.8 2.9.H T T w.W $.] :.[ F 8 1.' +.C ~ q.q.w.>.] r g t %.q.] 1.@.A Q d R %.*.*.q.;.R Q P q.` ` X.<.( Q ;.B A ' ~ ] _ $.>.H +.H ( ) H ] q.,.%.1.+.<.T N ( E ] _ >.+.[ ;.;.<.Q m g ) <.#.q.,.V S ] -.<.>.@.J / W +.+.+.{ H +.+.b A  .$.<.t.:.3.%.' V F :.~ L ' ;.' ` %.] ( %.c +.$.R C ( i T 3.9.] v 9.0.;.;.] ;.1.$.) ) ] _ %.( @.9.D R :.8.H / 9.@.;.] { F ( q.` ;.v *.b <.<.q.q...D D b T %.i S ",
"F L *.=.S A A +.1.-.' D ` ( Z ( 1.B B :.;.g ..( d J A ) F %.>.+. .` H v < U q U 6.=.A -.' M 8 %.S V ( D ;.+.{ ( ` R #.b H ' } B ( W >.D j / =.q.) M v H D q.3.@.D H m 6.1.8.0.+.+.E M ' ' ,.:.o.D %.D %.=.' A =.7.,.S _ b ~ ' E ( ( ,.%.9.%.v ] ( D $.1.-.[ ` D H C ,.] ' <.8.3.0.X.M r ] X.*.1.B ' b _ <.3.$.v Z 8.q.3.` %.X.R q.%.H 9.3.t / q.#.@.+.F H ` +.c D g g v H ) O.;.H ..@.m n %.q.n R M ,.~ -.B $.M m T ' <.} T B R %.n 6.9.6.8.q.#.h *.R D C *.' :.@.( ] %.%.! : w.0.9.{ ` ) 3.9.q.( ..W ( ' T ;.y.9.:.3.T F A d A ",
"<.*.8.X.S V b ~ n H t.B ( { ) j <.*.>.V b o.X.w X.] A ] n ( ` B d n o.' C ~ D ` %.D T m D ` T ( b v >.D ' ] ( y.:.` { H o.+.=.X.%.B ( E A $.<.q.;.>.R b ( ~ 0 +.$.b $.$.I *.q.0.X.X.T =.n ` >.%.0.+.v M M ..$.A ( A H ( %.( C ~ _ ] ] $.( -.H ' ( ' *.S F R +.X.A A 1.$.' v D ] w.9...n b b c X.A %.6.;.0.1.( ` v 1 : 8.X.` %.%.a ~ %.w.:...E k w.$.3.+.n v ` M J Z R R H D #.#.:.` ( z U R ' x %.D ' S j ;.1.,._ B q R ] ] T R 8.W F V E 9 q.q.H ` D V 9.( ( F 2.b D ~ ;...w =.q.1.` ` ' ! $.9.) 1.H b V ' ] U ,.%.q.9.( ( B j ",
"$.8.@.+.) F ( ' j ] 0.( B -.] H <.u ;.q.-.%.X.l R 1.F _ b ` R H 1.v m ;.8 ..F 8.} +.+.Q ' q.X.<.3.' ( M ( B 5.w.y.[ H H F @.+., T H H n N w.R 8 0.3.j c M $.D 0 Y } M T 6.] y.9.>.+.F R R W ] ,.( ..q.( C P 6.<.H Q ` H _ _ ( H F -.S H -.,.-.A V %.F H ..X.( H R Q _ ( | A ' D $.3.1.X.' X._ E <.1.1._ X.' ( [ R 9.N j X.R m N v A ' N *.;.%.R q.3.>.>.( C R @.H @.` ..S Q 1.6 D F F R D ..=.1.n 3.;.R A ( ( ;.] _ C F ) { C T Z -.F D D a V ] D _ E a ' ` <.7.Y $.B ,.%.b >.' 6 } _ @.>.>.' w.;.q.2.#.D n +.>.` ( :.3.:.1.1.n ",
"$.%.$.' 9.%.u A u S 0.` %.V Z q.q.;...3.' *._ n <.u :.Z { ' F i +.i ( a s 1.b X.%.8.H H ] S 1.` <.>.>.' A y $.=.~ D A ` H ` D <.m D 1.A v %.t.8 w.3.[ _ ( ` Q ' ~ 3.m v u <.,.] o.3.1.Q -.+.H ` &.%.n x _ X.8.2.' 1.R ` ` ` H ` ) H _ ( -.:.` ] ] T ( D M X.H 3.+.:.` 1.+.$.' ] A ,.%.( [ >.] :.T ` ` _ ] R D ( q.>.3.b D ( %.( N B Y T 1.T U $.( +.*.0.:.) c D F :.+.S ( R ~ ) ( :.` F n h $.~ :.0 L T Q H 9.q.{ ] -._ -.1.-._ b %.G +.( ( q 3.' ' >.m q.t.] +.H <.q.B %.%.H +.+.( %.6.*.=.H =.$.B t.#.{ C c i $.,.' <.;.2.c <.",
"( ` R P 7 y.+.R ' v ~ $.] D / 8.<.t.+.-.j =.1.g $.,.] _ m S N ] b ' n T _ =.V : ' ' ( ` ~ B P ..' O.q.] ` M p $.( _ H ( ( X...H ,.h :.D T 9.3.q.e.#._ T A S b &.*.' D i 8 / 9.{ B <.R j -.( S ( ] o.,.$.] $.,.H 1.;.;.;.#.H +._ _ +.( -.%.` +.;.%.9.%.,.n ( ) F ` :.H ` ` >._ ` E ..+.] ' T O.( ( J J 9.{ A ` ' Z q.C #.D ' E +.w N ' ( $.A R 3.u D ..' ` ` H F ( +.D S C A R H w.H [ *.;.N B A j ;.T ;.{ *.$.7 _ F Q ` d 7.S ' n ( J X.` ] R ~ @.b H <.T _ B +.D +.:._ 9 Y ~ { j B l ` P i N E B 5 :.3.H _ W W a ' b ~ X.F T  .",
"Y ` X.3.( ..3.M n S m H H V U 9.j q.9.X.D B T >.u =.8 H X.%.$.( ` u <.+.B <.<.Q R H ` C ( H F B ~ w.' $._ +.` ] ;.H X._ ` _ 3.R v A =.%.~ =.' Y $.D S F ' n i $.:.>.,.F t %.$.+.` V _ ,.E V M ` ] ' >.Q %.6.' b =.M F _ 1.{ H R ..+.>.@.` _ +.] <.;.;.>.-...D <.' W n A J ] _ F ' @.{ { ` ( ` ] A H ( } 0.n <.n D H 9.:.+.q ' x ' A m $.~ S b / R B :.` F X.+.3.` 6.9.F ( +.' &.M ..R j v C c j n ( ( 3.<.R %.@.` ' _ T ( B A X.E +.F %.:._ A ' X.+.X.b ( R 0 %.F ` D n H D ~ %.( ` C D ' H i W d B 9.' 1.8.v %.T A +.T &.B Q F ",
"X.*.q.0.%.q u.t.W T D ;.H b $.q.@.` #.w.T ;.) <.+.i H H +.9.D V ( A ;.' v ;.w.%.v V ` F A F V v ; w.F ( W 8.,.t.w.9.>.( _ X.n D -.` %.R $.<.Q ( X._ :.+.M R S A _ t.q.S Q B u a m ` b v H H V A q.` >.g U $.1.D ~ m E ' ~ _ ;.` +.,.6.D ' =.q.] ..,.w.0.-.-.V ,.` [ %.9.J ( _ O.( T F 3.` _ ] ] ' _ [ ' %.) ( C ..3.E i T q S R ] M 8 ( T ~ D D v ~ <.R H F %.=.` 1.b ] C -.9.( D <.*.m M v u ,.{ ' i i T | I M 1.S 1.S E f S C ( 0 b +.D R c E 1.D 0..._ 8 v 7.V R J b U h v ( n ( ( ) ` A T H ( ( %.t.` 4.9.%.' H %.T E _ b D ",
"<.' =.W ] T W %.~ $.u R S v =.8.0.8.<.] ` U 1.q.3.I -.%.` ) 3.H c ] { $.u u ( t.A 1.` x t D F ) U =.w.m R n ` A j 9.] ` H D _ ;.>.W $.W <.b ` i i ` >.+.b c ' v Q 1.,.>.#.] 8 } n R F P F ] N F %.;.D %.b C ;.F ( ~ ~ A A A ] ] H 9.;.( V b ( %.| %.1.%.@.+.+.n ] A _ S H D [ ( D V v q.` ( :.' v u S } C F Z Z U R F C A -.Q ] -.M F ' =.8.<.-.$.1.T +._ n &.-.-._ +.S 9.b ! %.9.#.' <.~ ( M i ] 7.@.0.q.' _ 9.2.S *.` M ( ' Z q.*.*.+.] ( R $.%.1.D i S B M 7.~ C ` J W S #.` R %.[ ' ( N y.{ ` E =.T S C 0.>.` ~ *.+.) 3._ ,.",
";.9.~ >.-.1.` >.F $.%.A C <.*.~ / Q S <.,.,.<.1.X.>.1.| ] ` d [ +.>.F { ;.u ~ ..+._ : F 3.D i H v ~ $.( ~ m ) n b q.] ( X.$.1.D M a ^ _ w.1.{ R ( B R ] ` S +.( ' q._ _ n ~ <.*.Z F n ] F ' T ' $.9.:.-.l *.-.A X.+.A +.' R ;.../ 9.` R A n ,.T { _ | 8.9.#.,.,.H ' { [ ` ] ) ` ) D D  .q.H @.:.I A S [ 1.R J H F @.` Z ` H 3.F { I ~ q b ' E ' ( _ S S ) ` 6 6.;.;.F B 9.+.( R ` Q ;.;.-.E 2.B M a $.-.,.H S ' ,.X.1._ 2.] ( _ ;.>.M ' +.F c D $.` -.3.[ _ R @.<._ o.,.T S D V [ ] a ` ` A ( X.:.B q.@.g ,.q.3.X.( -.` U >.` *.",
"<.| [ >.6.y.3.R X.@.,.u i ! ! ' ~ ] ` ..W M $.D _ -.l $.] >.2.Q u S B >.Q A v / +.A $.>.;.` o.D ( 0 D X.m ..b n T p u a S ' <.V u u 8 *.6.( _ { N p E w.>.( b T <.6.` ] _ %.1.' b @.-.F +.C C T X.:.:.>.~ A m %.%.C >.#.' C 9.D D ( ) 1.*.T $.W 9.( %.:.<.9.@.;.{ T ] ] ] _ ( ` ` ' ' D H ` ) >.<.] H 8.+.%.S { ` ) ;.D H G ' ) $.] D v N u %._ ` ( C S 0 ( ' S 9 ] C 9 <.%.-.M Q B *.*.F F ( ,.P _ } _ y.>.A +.:.3.<.:.%.+._ ( ) R <.F J ..d D c ( 1.t.>.$.B 3.+.n H 2.+.n ` _ F y.E u v 9.C ~ v A y $.F i ! q.~ 2.X.) n N &.W ",
"v ' <.<.&.*.] ' %...<.%.' ~ V Z ` S 1.%.c %.$.<.@.,.0.v <.6.+.%._ U M j r %.H $...` Z X.3.` ( O.b ` 9.q.u ~ X.D D n S V *.*.( V ) <.A a B ( _ 1.] ~ :.,.-.C C T ~ <.;.] b v S ;.R s ( _ 6.2.;.D ` [ ` +.+.D F D R H R ( -.~ 1.] S D ( J @.~ %.A $.H F ~ 6.1.t.+._ B ' v ( -.{ ] ) <.c H H F $.>.` P T 6.` 9.` ( ,.-.q.H C $.:.D Q { C M v 2 E F v -.9.S _ v S u Z C n u q.E ' -.X.` i Z ~ A q.3._ >.Q $.$.Z 8._ ' ;.3.` 3.B F ` ( 9.` ' @.( x b ;.T A 1.y.+.:.1.3.<.V <.Q A ` b ( q.0.+.x 1.,.-.:.B V F 0.S i <.q.<.b S ( x U } ",
"' v v 1.v b :.v %.$.$.T E W m _ 8.$.1.' B T ;.T *.v P 1.;.( H 7 $.T _ 9.:.T v q.` ] ....=.2.-.+.C D 9.2.d C g ~ D v M 6 b S S 8 9.:.w F S T S R D 6 u b W _ ' ,.' } +.+.[ D S 8 | U ' _ =.w.6.=.2.+._ +.;.E n ` :.A X.] ] ' +.;._ -.( F A F *.H ,.B Q D ] ' %.>._ 7.R | _ { H H @.<.( F F R ] A B C b ' B 8.v ' ~ } <.] J ' +.R R S R O.F i H ( @.$.D C 1.H A 1.n V D ( 0.+.y.<.] F D : $.%.a D D 9.<.N >.A ,.B %.>.;.,.~ +.` ` ( 9.<.` @.R X.H Q ] ' ( q.+.+.q.9.:.%.H T v Z T E =.] ) I q.c >.+.>.D Z } 0.] P %.H ` c J b M 8 ",
"v 2 E N 9.' A 1.` $.] m ~ ] 1.u ( 9.W y b _ d i a ` v 6.q.q.+.R %.v q.{ D %.X.%.S %.( x n ( D ` ` R g / ( $.B ~ ( } 8 n R A ` T <.l %.V ) _ ] S S C ~ a _ ] ' t.Q 2 2.>.v S { q.s ' S $.<.8.%.' ( i r ( ) $.] q.<.C D 9.u T 1.F +.@.>.,.M $.M ` q.H v <.,.( Q 3.) ) 1.l ] ` [ X.;.1.3.u ..E A ` ' c T i ~ %.,.%.E n ' 1.` ) :.) +.F ;.] _ b R ] >.n ~ E +.] S S ~ ] S A B ' 9.R ' j 1.B B ' H ) = h y.D l M A F %.$.<.] =.F %.A ] ..0.{ X.` B H ` S A A 6.*.M S b ..S 0.A / #.$.q.;.2.i ] h %.' :.R c A 6.y.y.S T H D F F C ] B ",
"H S G ,.%.A _ =.1.F 1.0.y.T %.;.%.<.F ..>.~ M A u ,.H 8 a 8.R ;...` b 3.{ >.` -.C ' F ..>.F #.;.X.` ` +.3.w.9.F 9.%.m C ` O.` ~ $._ 1.%.] T T +.{ ` Q 8 *._ { 6.$.0.8.} 1.{ $.%.;.1.7 Q $.T V o.w.%.=.%.( E M  .8.P T H S ' _ 3.X.` +.;.;.v ' ` +.w.+.$.! %.Z ,.1._ ` ;.C I <.V Z 1.@.R ] ] ' H H ' ' T $.( ' $.q.0.' 8.( ] 9.F E v } ;.+.n ~ A A { N A S ` ] #.3.H ( H _ b E 2.%.2.x M ( H ( n R ..$.' ` b ` i ,.<.:.D W A ( @.` ` ] +.` >.U D T ` T E _ :.A L ~ ] %.;.$.;.N Q $.t.1.H i e.U n F :.B A h ~ q.>.+.+.( C _ _ ( ..",
"` H _ M A A I <.+.X.6.9.0.<.( P <.Q *.( ' -.9.<.~ V H H c T %.S v l B E ' [ ' F J T ..:.` w.{ ` J S j v %.U 3.p.w.q.=.i 1.9.' m P Z R q.~ B >.S N m { S T ~ >._ ] ( A ] } ,.i %.S W 1.7 ( +.~ 7 q.0.3.' 2.=.A ( q.,.' ] R ( A 1.` @.` +.@.1.T / 6.q.0.` F c -.B %.$.3.9.%.B <.9.A $.) J 1.%._ 1.%.%.E F W +.~ ..] A / / ..( ( %.( +._ i ( Q _ -.( M F S H C D [ +.` A V ' ' C ' v @./ _ H R ( Z ~ $.$.( @.q.` _ B q $.y.,.8 _ ] F ( ( ] >._ A H X.i H %.` <.f f M M 8 V M > E *./ ! q.#.C b ~ ] o.H j ` R y E ;.{ ;.;.] ;.E H +.",
"1.%.S -.%.e v S 8.W v b q ) :.R j j B m %._ >.H 1.T c A ] :.T E ' M E j q.H t X.#.b I P _ ] E -.S ( | m N 7.w.<.9.n D d U ,.1._ ( ,.*.w.V ] ( C V v V H D :.' ~ B N n j i :.1.~ S G +.:.9.( %.E u q.%.` y.( ` @.+.S X.+.` A _ 1._ { ;.+.>.` ( E _ ( q.;.' Z @...E 1.2.8.>.` -.<.s ] ` ] ' <.b F ` %.S } ' A D ' _ Q ..` ] ( I ] P -.H X.( q._ _ j ) ] :.' H ` S ) V S ` +.Z F <.M -.] q.S ` 9.M a E { +.` U :.i B X.F D ,.N R H ) ` F %.( >.` v @.9.v a _ ] I ( ` u +.n +.D ; ,.A D C ( ( ~ n @.@.` ' ( T e.>.` ` V 1.( ) ;.$.u ",
"] %.H [ ` _ m [ F X.( $.#.c ~ +.D ..u n D ( F 3.1.#.T ;.1.S B v D T v M q.C _ :.#.T ] y 5 R ` S c %.W [ _ W 9.w.9.;.T ' A F $.S C S ( l w.1.X.>.X._ A L P N B ( R V 3.1.j :.1.1.a m T =.q.) :.B A ] P S B n S +.Q B >.Q >.%.} ( ` ;._ 9.<.1.1.3.q.+.q.1.) S :.D ] 1.` >.` T $.' +.%.C B D <.E Q 9.-.I T M >.E $.$.] E T ` ^ %.+.-.S V ( >.i 3.X.J ( { [ C +.] { -.{ D X.S F C <.R R ( q.J T j u =.:.D ' ( B H >.~ g j @.<.A ( ..] _ d B S { { @.` 9.A { _ Q ] _ ( D +.C A 3.m b 7 m 1.Q q.` W ] R X...X.s 6.y.1.( +._ W ) X._ F ",
"` ;.( ( { ( _ 8.v B F ( N n X.>.$.B ( O.) > ~ ' V ] ( A ( @.R +.R E ] R %.) n B ' a @.H ' n M H C 5 A _ } } <.,.3.) X.~ F ' v ' ) C $.,.8.C 2.M X.] >.D +.B ) D ( P $.u Q ' F $.@.>.A E 8.S 1.v L ` $.' <.:.T } ( ] D m ( ( Z S } 6.9.6.9.,.<.w.q.] Q ,.:.H %.` j / w.9.>.+.;.0.;.S 0.:.>.;.$.B _ ] Q -.:.0.8.X.' ' A x i $.%.9.B { ( @.j +.;._ S S ( S +.) { H ;.D H ( ` V D 6.>.I ] d H ) y i B u A j S 1 h +.%.$.3.1.' D V *.%.;.} *.A H { m ' >.' i P S T _ :.( T 3.>.X.j 1.q.> %.j 9.0.;.F v %.0.X.' U <.-.V d } L #.9.-.) ",
"B @.[ ;.-.( T 8.] ( n ( R %.( 0.v ] 4.D :.T = B B A :.9.v n ,.( ..:.3.' +.V C ( P 2.:.:.1.v ` ` n a $.1.F ~ 6.;.9.o.F @.>.=.' ' J ~ D _ M D B ( ) V %.) v <.@.$.%.S 9.T +.%.( _ %.1._ A X.{ v 6.B 6.S T Q ` ,.v Q :.0.' H S _ E Q } ,.%.) ' *.q.%.K A X.9.( _ ` ` D ,.y.+.+.<.R ' B ` <.3.1.' j W ~ >.n $.( %.} T R %._ =.i q.[ T _ ;.] ' ) e.1.( -.-.) v j ~ X.H ( G K J ` ;.q.+.,.$.1 ;.) c 8 _ l *.v v i 5 Q $.U D u ( B C b +.i ] 1.R ] ~ f n :.C C Q H ;.{ ] $.S s u R o.%.d 9.n T 8.3.( ( i W <.B S B 6.] +.T _ C u 7.>.F ",
"P D $.+.;.S B M Q y.:.V ` +.) C y.b %.0.9.3._ 1.( d 8.@.B j ;.F W ( >.T 1.' b B T w.+.V >.H T { T I $ P a ' & t.( @.@.` :.@.) D ` b ,.D ( v T H ] ` H { R n 3.3.~ v 5.6.( $.<.A _ <.+.8.1.9.T 6.$.<.>.! ;.~ S E L q.9.2.) H S D ] ' U } ' $.' 1.>.) F %.' ;.] ` _  .<.8.8.,.X.@.%.v 1.>.) [ +.S ' ' ] D ( b ' ( _ ' 1.:.q.b $.%.B T b V 9.$.y.` ` [ M ] S ~ c D ] F C S S O.$.0.] w.b q.' R -.9 ;.:.:.a S X.{ ;.q.S { +...m ` ` $.,.+.( T n ( O.R [ _ { A n _ ' F $.;.( n u ,.;.V w.u v &._ X.' m j N +.( ] +.2.1.3.A _ W ' $.Q ",
"F T -.,.] S F E m ~ ;.#.$.=.' =.$.w.-.W #.>.;._ ,.' -.X.A *.` M $.9.%.H 0.%._ w *.1.8.$.;.0.O.d ] A R C S = y : ' R D ` ,.] ( ( v L T _ %.*.7 T 9.q.( ` S b 1.q.-.Z 8.m ' R q.+.n q.Q $.q.1.;._ $.E +.3.E >.;.E P ' 8.t.+.Z H H _ _ C } S S W %.Q X.` ( _ 3._ D ] ] W ] %.X.4.@.( ( $.<.S -.` X.~ } W <.H [ 3.] $.$.6.7.:.' ` $.9.F Q v ,.;.( ) ` +.S v F C S H ) D =.V ~ ~ } q.` 9 ! ` ;.A m <.] 2.:.y ;.H { 0.w.A +.` X.X.Q _ +.( R H <.} { H v V [ { C ' ( S b q.@.` j ( B ] T ' 9.j a @.@.] A ( i =.q.2.3.<.0.w.;.1.W @.q.>.",
"[ c N ( _ +.H ' = $.9.6.9.9.W ! N 8.A _ +.3.R b x B $.>.S B i 3.I j j R ) F F 8 =.] ..! ~ D ` q > _ ] B @.) #.T ' ( n T ( ` H D s s N -.%.( n ~ :.:.1.` ` E 2.6.] ( q.A b H T ~ S %.#.( $.9.2.;.0.+.( 9.9.T %.I ; =.q.y.#.D H { ` G ( :.] [ [ $.{ E Z E <.' >.<.6.+.' ,.' 1.q.9.1.:.:.] X.>.3.:.%.} I T -.z ~ ;.{ Q =.y.w.9.T ;.] #.] j ' @.9.` 1.' ` ) ( _ 1.w.1.7.S ..j ( v R _ O.-.B C O.j =.' ` c / v 3.9.....( ;.@.E B A j %.>._ _ v >.$.d ( ) 1.>.{ ( Z Q [ 8 ,.3.' Q T A <.( ' } ' :._ F +.Z u $.W %.&.3.*.B ' O.,./ 9.+.",
"0.1.+.;.>.{ -._ ( i <.U _ +.3.] >.) } D +.,.#.( %.] S >.( x 0 B E %.v P ;.>.R i 5 j u ;.` _ 3.8.B { ' S ] [ 9.{ O.F S n P D q.,.B v A >.$.M S C _ ~ n E H ] -.<.7 &.q.+.( $.E :.H ' $.U W 0.1.] *.%.X.{ ' ' *.A ~ P q.0.2.#.` q.M <.( >.@.9.<.-.D ] ( X.( ] R -.X.] $.S ( $.%.( 8._ *.%.#.>.:.( 1.3.Q A E _ 9.t.%.$.<.%.,._ | ` $.{ >.m u v q.>.1.E _ n c ( u / q._ T ' +.D d ] I ' @ ' :.A R M B D y 1.;.' $.3.n R { ( | H ` s ] :.{ F T { A M S S ` ] a A S S F [ 0.>.-.$.` D <.+.T F ) n b ( ;.:.n W %.S v Q y.%.B 9.q.b $.>.",
"8.q.3.t.0.( ] Q ~ L =.;.u ( W 0.=.9.H A v ] @.+.n <.$.>.A A > z N S { x p >.X.H Z F Z N E ' q.0.R M b ~ A _ A ' E @.n :.n n b 2.] ' <.%.0.A Z E ] >.' b -.F ( ( ~ 6.1.;.A ` _ Q p R m ( %...' =.1.E M ;.` -.%.~ ] 8.Q 0.R 3.R ,.1._ 1.W ~ ' Q { _ F D ' n E ( Q $.<._ ( R ` ..R N R +.<.h ..H *.R Q D A B ( *.%.;.<.$._ F R F ' %.F { ] S Q ' _ F 0.9.` P V T ] / v D ( @.>.T ` j A b ,.+.Z ' X.>.{ ' B 1._ _ R R T ' 0.:.K ( r E >.{ +.d @.H [ #.( S #._ ' _ -.( $.S ] A D ( E w.9.( 1.@.i F ` i F } F ;.n ,.%.%.+.R  .9.] T <.",
"~ 8.6.3.#.8.*.( ( ' :.F :.%.B W W W -.Q T y n 9.v ~ %.R n ~ v B T T ( ;.<.%.` D n B H M d l N -.H $._ A _ ;.F ;.1.@.i ;.7 <.R +.` <.] ;.@.Q C V D ] K R R b t R 5.%.q.9.Q %.] E A =.1.` ! S 8.' V } T B ,.0.$.0 $.*._ 6...<.,.>.T b ] 8.-.S } } ` H H ,.%.l ! ~ _ 1.] ) _ ` 9.>.C F ( X.+.n %.+.,.X.F H b 2.R j m ^ E A ,.D 8.<.` ( n ` -.%.F %.,.Z R +.@.] _ n { F ( 0.3.>.] ;.1.-.5 S w T ' W ' S T E 0 _ S w $.x F ] D ` >.' ' ,.{ 2.A Z %.>.( T C ( { ` R C B m D n ( :.<.$.8.%.+.u F ] ] x | A i %.8.w.<.q.1.q.<.8.<.2.Z N ",
"~ T V &.0.;.>.#.8.A X.<.q.D 6.<.,.' _ @.>.>.q.3.*.A C H v %.` F F F D w.1.:.` :.>.:.` %.u %.>.;.A i h -.l y.( T ~ A $.%.m 7 b b $._ H V F ' n Z F Z H F D ,.' ~ 7 U ) ] ( ~ 9.2...b U $.R -...D / <.Q n v ( %.v h $.$.,.v ,.{ :.:.| n } T ] 1.v $.;.:.-.-.' T D C M +.( ) ~ y.t.>.,.~ ..v >.2.R :.@.` ( X.B E R R A H _ c ~ %._ T ` $.F Z B T C c v l X.A ] i T D ] D ' <.$.9.%.w.>.X.] ,.y c R F C B u ' ` _ [ +.0.H :.m z n v i ' J 1.A R V ) ` ] b V ,.] G @.B +.S v C ( ' L m q.T 2.:.u.0.3.` V v ~ 8.<.5.6.<.8.8.H $.%.+.B ",
"H _ R <.) ..T g 7 b m ( $.0.v <.` F x S D ' +.1.F A %.v A 1.( +.S T $.A ~ @.H ( 0.>.1.2.3.` %._ B v b w.0 ,.{ T / ,.+.@.$.q.R ~ ;.H ( ( X.;.,._ A _ E ( ) ;.{ v b ( ..,.M n A <.' ( _ u =.<.3.0.1.1.;.$...[ D _ d ~ _ A ) ~ +.$.~ 8.m f ' m T T B Q %.! R ` 3.1.( T 1.B ` q ~ q.u.0.0.F X.n ( E ` ` ) $.( ` @.:.S ( C ` 1.X.S +.( H H 9.S R n ) H E ( 3.J ) ' ' _ ] ' $.Q V 8.%.Q %.>.;.,.$.D l D v P F H ] R [ >.V ' ( n F >.#.F H ` +.;.X.1.+.H [ ] C ] T d i $.c ;.x ( ( $.3.;.#.] -.q.9.q.*.#.3._ 8.B ~ Y W 5.Y ^ =._ ( F R ",
"D #.R W 1.+.( X.@.c i N } 6.) ( 1.Q v S ( A *.1.X.1.q.' ' 3.+.J ] ' B R v A ( $.+.' _ ~ e.7.<.,.F A 1.=.0 L q.1./ B M [ H X.q.;.( -.` 1.2.H C ` 3.,.3.>.~ 7...) S A ( >.+.D T H ;.( ' ! A 1.b y.t.p.w.>.( +.( D ' M ( H q.-.-.F P 1.-.` ] *.H S D ( b W ( ;.v w.;.` o.+.D R T %.<.0.y.0.-.S D _ Z 3.1.( W :.9.q.+.D ) E R %.X.Z H ;.@.+.' V X.3.+.:.%.<.0.$.' ( T m } T u z >...F A H F l 3.%.*.A > ' +.] F u 8.w.F +...R %.0.) S b ~ ..( -.[ ( M -.A d _ _ s +.j ] >.+.A ` m $.6.:.m w k 6.1.+.8.6.L ~ <.*.A i a A / F 8.0.F X.",
"M @.;.] D Z ) ` ' ` ` D R Q ` ] 2.3.%.+.+.} ..Z =.>.1.F =.9.( ) <.>.;.( S ] %.: % %.$.$.a m +.$.A h T +.A _ T 6.T A S ( @.` 8 -.] H $.:.-.1.' R 0.@.D 3.i ` +.3.w.,.r A 9.[ { H 3.j ( n B 8.V <.1.p.` :.X.H ] ( ( A c M <...:.9.;.1.] v $.1.+.R $.l _ <.' 3.%.b <.2.2.X.q.x W ~ ' *.-.q.] E v $.A B ' @.A  .U 3.R -.@.] 3.+.R H _ [ 3.;.+.T q.D F B ' 9.~ ] X.%.R a U D Q b u F ] ' C ~ D ' @.$.E y B H A C A ~ ] 1.@.9.2.h $.` :.R 8 E ( ( ` [ C x ] v D ;.;.( S _ <.@.] ] B =.s -.w.=.S q *.-.] ] _ R j D R F ) _ h ! $.3.2.3.",
"3 ,.q.<.X.#.3.w.<.F d ` i E ( S ) Z A ' :.( Q -.A w.#.+.b c l <.+.B +._ -.9.8.:.! T T $.m :.$.<.F B S ( C F b d $.A F ' 1.m $.E ~ M b *._ ( ( R <.:.;.<.X.~ +.6.;.>.1.i %.,.q.0.R +.H D R <.;.T &.w.9.F >.+.@.>.2.` D D ~ ' Q q.w.w.-.:.7.9.>.6.9.F 1.<.>.A A A ,.X.X.1.3.-.n n u Q -.( @.R *.1.F ` A +.@.n c V A +.( t.+.B _ 1.1.{ v =.<.Z ) %.=.W ' R _ [ c M _ n +.} T C ] ..T :.0.,.8 ' D >.N _ [ ] S ( S $.` ;.Q n Z v } q.M $._ ] { H c >.O.-._ ( R c { >.E S 1.E 9.V S U 5 <.9.>.S _ 7 / 9.` -.-.,.q.3.D _ D g j T ~ 8.X.",
"2.L V R ` T / ~ t.v >.M A F H A S C M $.S +.%.S ' &.O.+.X.x v v ( >.#.>.:.n H H } ' ' 1.;.9.q.[ P ( @.@.] H H d R ' b r ] w.v ) O.<.;.B q.Q R A ! ( ( H ( U ( *.1.0.0.B A B =.<.F ,.3.%.D 0.w.R L m Y V ( 9.8.m y.H ( U q.,.Z  .=.^ ` *._ 1.p.2.T ' @.+.;.1._ H ..D D D :.2.>.K ,.u ~ / ] <.1.X.1.D ( ~ R ` R b A _ A 3.@.v ~ &.=.h %...1...T Q u ~ A b B _ ;._ ` b +.' 1.] :.H >.-.X.v :.>.w._ ` #.>.2.` [ J Q D ( E ..D A i R >.+.1.>.2.#.) n ;.2.T B b _ 1.1.:.] +.T %.1.%.X.+.' ] _ [ S ] W M E ` %.%.*.t.` R ( S ' ~ H b $.",
"] ` M S H S >.' ~ V ( ) F S Z D +.X.$.*.9.S ( T D B ;.3._ _ b d ' ,.$.P 8.>.Z H T 1.v ` q.{ [ %.> Q B } S ( ) Q _ 1.Q P 0 3.0.) S X.@.H 0.0.9.T 2.V R D c V $.W ..;.9.;.2.+.b =.C ` ) v 8.q.' y.` D D - A Z q.Z U =.` ( ' { ..~ F $.%.[ ;.3.:.0.3.T X.' ' ' } $.:.-.0.1.6.1.$.q.O.Q T S D ' ~ ' 0.` R R -.J E A A u $...{ Q e *.' ] v +.0 ' o.$.S V F 3.H H F H O.H @.T ,._ } $.,.' ] <.P ] 9.A ] v 6.N b ` n W %.;.9.b V _ E J i : ~ *.q.%.Z n @.0.;.8 F b u -.<.W s A M D ~ F T +.( A i ) q.H b M ~ $.$.@.+.+.` J $.1.,.w.X.' ",
"Z j D _ H S T F 1.m V ) F R =.A +.O.$.N :.M i P H x %.1.9.9.] n ! $.$.' ` ;.0.( P *.7.-.3._ q.+.} m T @ S _ ] v I +.,.~ R 3.2.>.J n Q R <.:.` M } D E m ' D d $.A X.8.A ~ F ( T 0.] T ' 5.*.,.~ 9.;.T s -.M B B [ >.] F C $...D 1.E ' a / q.9.q.{ ;.O.' ` ] X.' N Q Y b W <.+.%.` >.1.) n X.y ..>.>.>.` *.( X.n ` v ( ( 9.` b ..R A ,.H ` +.w.-.` ( F P +.( _ C A ) ;.A ,.X.%.1._ *.%.$.;.} %.@.v ( / F Z B >.i 5.L +.A y . ;.u m F q Z i ;.D V :.%.-.i ' u $._ V b _ A F H T ) $.:.( S 9.9.1.q.S R ~ 6.X.+.%.` 1.] T 1.` <.,.b ",
"( s =.;.` +.` 1.0.7.:.2.F 0.F F ` ` ,.B ;.( l B t X.` U +.] { ( $.] _ =.<.U e.;.q.' S Q S ) 6.#.7.q.9.V H ] :.X.1.-.;.E n _ T ~ :.` +.u n n F M B b 3.<.$.b %.R n W T 8.:.+.Q ( / F X.<.=.3.N ,.y.t.B Y D ` 1.N 6.( H T R R ( $.>.( ~ R *.] 1.1.q.%.9.H +._ S 1.D $.$.M b <.' B _ ' F ;.( >.( $.%.=.3.{ +.,.( S Z D $.D 0.w.H $.` ) B <.] ' E H Z S Q D >.%.>.:.) ` ( ' R &.q.' T $.<.-.T ' ~ ;.:.X.=.` C $.0.H B T q.9.T _ X A B +.R H @.{ H U ' %.F s ~ ..( _ A +.%.F C ( m ! _ A F m 8.=.w.9.q.;.H T F q.y.;.E F b ' $./ ..D ",
">.@.1 A S _ n ( +.+.' F >.@.( ` H #.' q.] u C n w ~ ] ` [ >.1._ T ~ ' j +.T ] 9.P 6.1.A ] j ] t.-.n _ ( M ] P <.j -.] T M T %.W F ) #...:.1.T ] +.<.<.` @.D H ' R E 1.E S D H 7 =.{ 6./ $.~ ) Q B p.` 1.T q.1._ 3.{ ` x M ( D %.Q $.1.%.' ~ ' O.T X.<...-.%.-.,.A A 1._ D } ( ' ] ` T m ,.+.j b { ] ] ) +.-.<.( A Z ,.b m q.<.' w.8.( -.B _ _ ` C M S V 8.=.' ~ r.#.H ' :.~ %.v h &.' ( ' ' P F ] j 9.F D P <.1.] >.X.$.e.> +.X.H ( ( F ..o.B x s ' ) s i n  .A 0._ J d D l F <.C ( 1./ W <.' 8.-.4.>.$.=.q.w...' b ( 5.<.' ' ] ",
"<.3.a &.>.+.A V H ] %.1.H w.q.` ] ` T ] +.X...$.E n a A ( D 1.`  .1.( @.d &.R 9.1.1 9.N %.$.H w W ,.1.( T M T I ( m _ 1.` v L ` 2.' R H ( ] T M A <.' n ~ W ` D ,.] ,.R b V ,.A 2 6.T ' 1.Q ` *.:.q.X.v =.l ( $.+.;.;.*.A ( Z ~ R 6.' C m <.=.=.A 9.1.H 6.+.1.( ` S T ) H ;.X.;.` F _ T B 3.$.>.S S C c >.3.4.#.` D ' :.R ~ ~ ` $.1.` [ M b R -.V H F _ $.$.] / 8.1.Z b E ~ Z ` s 7 Q 1.' M 8.e.,.%.t n d c N 3.o.3.( B ~ P ` T v = ;.$.( v ` J i ( D F A D ( $.F >.R >.F u L ' 8.F ~ ) v } L / ~ <.<.<.Q *.8.1.( T N T 8.` F ' ",
"E A T +.R ] @.V b T ] ,.<.>.A X.H T B 3.,.H H ) F _ B v V T ` v W W +.>.Z R I T } *.W N h S ) Q b c _ q _ { ` ( K ] ' 1.F %.v :.{ v ' n ] V 9.( 1.( +.] 1.V :.H n l x ' P C B 1.n 1 / / W $.<.^ q.j q.$.j ~ ] *.j 0.3.9.~ U n q b &.6.,.Z =.' j 9.O.{ ` ' ;.1._ H ` #.` [ ( ] ( ( D { S H 9.E b +.H E Q U w.9.>.+.{ n  .B D x v A A n $.H #.c R R ;.H p j j x i D ) A F i -.$.q.>.P ~ R <.A 5.7.u.$.w.0.@.8 8 l 9.#.W >.3.C A 5 Q ;.j @.A H ( 1.C C @.{ F A ` D ] +._ _ i X.R 8 s y S { ` ` ] C v  .B R ' Y =.q.9.3.=.$.$.) S | ",
";.H ,._ ' { ..( F H T ~ ~ $.( >.3.i i F >.` F { ( F ,.D _ ] _ S B ` b A 1.Q Q B j W v b V #.` +.6.S ) ;.;.] ] [ ( #.+.S 0.0.R W 3.9.1.9.l ] D W a @.H +.P n 0 B ;.R %.$.v 7 v ~ ( n > u n 8 W S u >.T <.{ q.;.$.+.q.;.{ D V ' n N v g T b E R R i q.<.D R %.1.1.A $.Q E -.+.+.` ) ( ] H R 7.1.H H +.H S ' 8.=.+.( F D ..R ` W A T V ] B S ] P = E ;.` _ j %.i ~ Z H i 3.@.D S ' _ | _ _ / U m 7.w.0.o.#.t.1.U * B l 3.-.B 9.R H A _ 1.A A 1.m / A ' ' X.: 9.T +.` +.D T ~ 1.R @.F S M P S q.[ ' v D +.A m ~ $.8.=.$.$.B b J ] B ",
";.` v F ~ m V ` Z F H Z A ( q m %.n } j R ) ( ] t.t.3.H B H ( Q $.<.,.,.a r i a + u <.} v >.v @.9.) P ] y ) [ ( T } I W $.,.D W ,._ Z ;.` _ ) R @.` ( o...' _ U H ( @.+.s l ` D 0.+.( F $.$.] c A %.j y.-.7.+.~ Q ] t.2.>...` ;.R $._ T A ' @.H J q.9.] C T ,.-.B m ( T n ` S >.V +.( %.$.( _ { C T D ( %.T D H %.3.n n ` X.*.~ C ) ;.` ( $.( =.' +.E ' i j ;.H Z n D M A ;.R V A ] C ] >.%.B =.B <.q.8.i E F : T R *.3.3.>.R I 0.-.q.>.$.3.( 0 B W 5.w.H ..( D %.;.c >.7 A 3.X.-.c 8 3.E =.#.H v ( X.C V ! W ~ / *.t.{ 9.T ] ,.",
"e.( c M i ( -.( ` R } %.F ~ *.9.*.` ` u Q E -.y } $.{ _ A S ( B v ( _ 3.0.9.=.' 9.w.w.-.b $ ] ( B A _ ) B ;._ A ' Q m B ( ,.' N c ( F :.{ 1.#.~ M ` B E -.b M _ 1.( H +.V +.+._ 8.1.3.+.' b D D ~ %.E q.2.8.:.>.y 1.1.;.~ Q %.;.J D ( ] U -.,.9.&.6.;.q.S 9.) %.( +.v R ] :.] -.@.] { T S v 1.` +.n ~ <._ H F =.X.%.` 9.1.I 0._ ( D ;.3.+.y.$.X.~ S ( B A b _ ] { C V H x h A :.> :.%.q.:.B ' $.! N s R D q.4.,.u 8 b & N ! B >.8.e.u.p.] y R ] y $._ ;.B +.` J C 1.2.>.-.: v { F ( D B v ] m c _ _ R [ H i b i ~ ~ 8.9.%.H $.6.",
"E w.<.( A H C *.*.T #.q.<.,.~ @.| _ S 9.T ' S E s F R ` S ,.` H ( <.W q.@.>.( ) C 3.` D ( ) V H m -.V A D b =.:...) H 0 %.A <.*.i M 0 <.,.M $.l b j ;.] 9.%.1.O.:.#.` ` D %.$.M R A / ~ H i m b =.D =.R 1.q.~ _ u B 0 ( ` ( F ..B ) ` _ m -.( X.P 6.] ` | _ +.#.v ` +.F ' <.~ C 8.R 1.( ( _ 3.q.%.R v j ] :.] S _ H ( +.,.S ] ,.~ q.*.W 8.w.0.>.V A { ' M $.H | ` J A F D ( O.+.+.q   j ^ T 8 8 S U } a x F w 0.8 +.A V V ( q q S B 8.8.2.9.X.W ' c $.' D R +.+.H D +._ B <...-.b ! m ` +.+.v .._ _ S C H <.T E T P T q.>.] } ~ ",
"B %.*.6.3.,.A $.H S <.;.$.' ;.+.B ;.E { _ ` 9.' a ( 9.[ _ _ %.T ' ( ( H ) ;.B ) 6.R U [ B { 2.b i B _ ( S J E F n n V H @.#.3.1.} 8 M ` #.F [ ,.' :.<.,.q.w.q.9.8.<.A ( +.c i Z ( M S { O.1.$.b ( ' <.q./ T >.q.b 8.+.S ] S d B X.*.>.) D m R E ' k -.( Q _ <.' E ] 1.<.$.-._ ( Q B q.;.E S %.B 1.;.( ( ` A 8.@.>.+.q.] E C C %.6.' N B q / T +.v V W ( v S S v _ F V i ( c 7 ..D <.X.:.1.] R ] ( =.( 7 M b V %.V =.9.j +.A g F T S l A i ) i ( D C i v M A C e M <.;.0.A c b E ] u ;.A @.<.v S ] +.{ E H :.` ( ( D Q &.%.` ] E ",
"' M ] P ;.E B M V T T 1.9.%.*...1._ ` 6.9.) A 9.%.N T 3._ X.m ( =.-._ J ) -.S b _ T ' 1.V S 9.:.w { _ 9.( H _ D g c X.+.>.@.0.>.9.1.v %.} T ;.;.<.V %.X.*.9.8.%...:.X.` S $.1.b A T 0.I 1.1.| } R ;.' 8.3./ =.8.0._ ` J +.] ` ` ( ( q.] [ ' H $.7.b v <.~ ' T { T _ { D R A B n _ $.<.H ;.~ A 9._ +.{ -. .A T &.=.w.' >.<.n 8 m ( b v c V V ` ;.F M V A A k ( ( Z H %.' b - ( ( ~ ' { 3.1._ _ V T 3.$.} T ' >.A @.~ y.9.' %.@.V T A S C Z ) A ] [ x y Q 7 D y ` R 0 ..q.;.n F ` ;.E +.` H { _ F T { _ ) S R H -.>.A A 6.V R T ` ",
"X.' T F %.3.' ( B H ] ' $.$.>.] >.&.q.T B S R 6.1.q W ' X.$.;.W ..$.+.{ T [ _ b A _ T W d } W M B _ ' O.T u _ _ u E V E | ' _ 1.;.x E ] ' w.@.9.' F T =.%.$.1.$.@.;.$.M 1.F ~ ' 0.9.<.O.E q.T { 7 ;.A 6.$.;.} ~ w.1.>.@.Q A +.B b :.' E ] / T ! _ ` ` _ F F ) ( S ;.$.#.` b -.| n 6.' ' _ ( _ _ D =.8.' %.A u U =.$.U ~ S { V _ S ~ B c H b ~ 6.q.H 8.c V ` E H +.2.y.R ;.D v i ) ;.p $.v Z #.M i 9.q.V u ~ ,.1.3.%.M F A ) R @.u - V _ ( ] 9.A ) 1.' @.+.H V e :.w l 1.` v Q <.-.( H ( n w.n ( J -.+.+.~ ( M ' 1.] ' R D ) T ] ",
"1.+.( l E 9.R @.' ~ F ' $.L A h 6.w.1._ u A S R Q ] r V b 9.:.' C ] D R ;.-.~ H -.$.d P v s H R T P ' 1.{ { %.I u F i D ] ` _ _ { _ 9 h N u T 1.>.~ ~ A ~ T $.;.3.>.,.B V D E ' _ D H S D ~ m Z T $.$.Q 8.q.9.m <.9.q.9.*.1.B T ] } q..._ %.;.] %.( ) ` _ c H ] F T 7.,.{ ;.S $.( S ;.` _ _ { @.' u ,.( V ;.( ' D Z A ;.1.>.>.H ` ..%._ H M _ *.9.>.F :.-.;._ 7.9.-.e.3.@.X.( B ( v H D a B y.;.J ( 3.9.T t A ~ H b ` +.c F ( i 1.,.T ' B D ' ' W %.#.{ o.:.D X.V i V D +.J > %.+.;.A c } t.A ] H >.1.` _ ` A 3.%.<.S R ] ` H a ",
"1._ Q } ] u ~ 2.A { w.' R D Q 9.U =.6.T S S I :.2.A T b c B w.Q F ` 3.R ~ $.P [ T ] { R _ S ( -.1.;.s j [ ] _ 9.F D ( b ;.@.b H ` >.:.B b q.3.1.9.~ ( ~ ' 8.=.8.8.1.2.*.c F N ~ ~ D c C d $.>.+.A 9.R S <.u.` F =.q.9.>.T A S _ _ ] D ;.n _ ~ } F H _ 1.M ~ +.n Z M %.( R 3.@.] R ' T >.;.%.%.;.0.%.v J D b $.+.( H F ) { +.( { ] ( E V A 7.A 9 7 T +.H ] S _ -.1.:.( 9.P b V w.B F b $.B *.y.=.3.0.H B 0 F c B ;...( o.;.>._ M b 0.<.F 9._ <.S ' >.0.Q O.+.w.F %.T C 8.( [ V H _ q.{ g v 0.R S Q ( +.] ( D U } $.9.;.$.H { ] ( ",
"C 2.<.( ;.] S $.Q C 9.e.9.0.%.8.b 5 ( E _ T } -.>.2.#._ W =.,.' _ T 1.] ) q n B -._ -.O.] i R ] U _ T 0.V ;.M >.>.Z D D ..9.1.` Z ..$.o.%.<.q.w.0.;.P } ,.T ( ] ' R #.,.v r V c x F ..~ i F ] 2.) u E ~ =.8.q.^ 8./ q.9.-.R ] >.:.v +.A ( +.D ( 1._ } ` ' v +.H n v E G ) ] _ S ] A v %._ { R <.>.R R ] ` @.F N ;.;._ ` n ,.( +.@.9.} B ~ ,.2.>.F >.H Z _ 1.+.%.%.:.#.[ +.F A 3.>.D _ B j $.8.>.X.q.R 9.H ;.H ( B ] ) [ @.@.>.` ] ;.X.-.<.w.' 1.>.[ <.` F h T t.S +.S <.` H V 7 ' ~ @.q ' D ) R ( ) ;.[ q.) _ E ' ] A O.C 8.8.W ",
"9.+.<.1.] } ' R S v m B R ' s 6.' X._ T s s u Q +.<.w.+.T B Q ' ` R ~ 9.J X.( v D ( ' @.H ~ T B @.*.;.] ' V ' s 9.X.u <.*.y.9.[ i 8 F 0.` <.$.8.8.y.:.6.9.W i M 9.3.O.8.,.} ' 0.q.w.$.*.c u A ,.;.i T Q L } *._ / 8.e.8.$.` ( ` _ ;.I H ( =.-...%.Q +.` 1.` ` T ] P H _ ;.%.~ ` ' C R V H F S A w.+.( F -.>.;.` ~ ,.9.@.2.X.;.1.@.' 9.S ~ ' ~ +._ 1.1 O.F ` +.H _ ' 2 q.#.H H n C C ] ~ f / W q.Y _ ,.T Z ] D ` A i H ` ' ~ :.>.@.} I ( 8.*.:.%.<.9.2.R ~ 9.` u $.X.9.c @.J M C m 1.] ( b ( C n >.B ,.$.( _ 8 R $.%.C <.%.<.m A ",
"E ~ ` T %.S R V -.I S C ) b H a >._ T ( ' ) _ c U _ ] u -.$.S *.' w.N ~ ` X.7 +.+.H E n ~ / ~ ] ' >.D ` =.' %.] T ) _ F 7.7.2.%.u <.M =.' / 6.U ,...9.| q.;.A W $.$.I ( ] F D +.1.;.9.9.$.v b i 1.) *._ T U &.U &.<.<.*.;.b Q $.$.>.B S X.{ Q -.' ( ;.X.+.B H _ M R H ,.^ { 0.>.i _ ) >._ ] V ] X.] X._ _ ( Q ] F i i j q.J >.>.X.H D H S P ( Z 7 0.] W / V %.T Z +.h $.>.S F ` _ S v 7 $.&.&.<.@.t.' ` S %.S D $.r C v a ] A A ! w U ;._ *.-.:.,.W q.t.:.<.H n q.>.$.` S ] 1.r w m 1.>.c F $.] ] ) M C A F 1.C =.X.$.9.,.` ) ] ",
"=.=.q.>.I E { ] 0 A ] ] Z A ' ( >.T R ` $.S ` D v 8 Q %.P ` l m A 8.[ _ ` ( ( l j X.C ' T n T T B 0.` >.( F P } K D ,.u 8.>.$.{ R Q <.C B W <.=.6.P =.8.,._ 0 i m A 6.^ w.1._ n +.;.u.,.( b i ( *.C =.w.>.w M / <.: %.>._ ` E _ ( ] B t $.` ( $.%.H W :.>.V @.+.S ) ' S +.w.w.;.P q %.<.i X.~ ` S D D @.C _ T >.9.-.A s N $.R @.>.( ) F ( M A U &.$.T _ Q $.<.q.B <.*.= i =.q.( n Z H c l l =._ M ` b D A H H +.] ( W %.9.*.+.( v F 7.6.$.$.P B T H k <.` n i C ' 9.! R b C ( T N _ S s Q C A ~ ] R ` @.F ` v _ B j <.<.] R ` D ",
"j A } E v } ( H / E f Q n M S ( v _ +.T ] ' y.9.>.} 8 B C B S ) n W ( [ H ' 1.t.D B b b 7 ) ` ` ' T l S >.x 6.H V +.T / P | | P n B } Q <. .8.w.$.0.E R ,.%.] W _ $.$.' P T M A >._ +.#.9.3.-._ ,.;.,.-.~ 3.R 5 M *.h 9.1.>.C _ @.' >.+.] F H ' 1.) R >.>.S A F K $._ ' Q 6.>.0.<.5 W C $.N v T M ` S J i >.H :.C J [ q.v w ( ,.C J <.( F ;.H F s y 1.+.~ ~ A w.:.1.>.] Q ; 1.;.` O.` H C m *.1.$.O.( F H ` %...( ] B Q ,.1.m 1.( 6.S ~ n S 1.:.M b M +...0.( ` ~ U _ ( ) +.;.` M X.-.b 1.) M _ [ H ;._ +.$.d >.` ' ' *.{ ( B Q ",
"n d n 1.c s } %.Q R A &.Q } _ H ` D n u Q ` E ~ %.7.=.N | >.T B ( 6 1.;.] D 6.q.4.3.+.D n C R ' E _ C S o.D ..` ] B n &.8.1.>.1.' M ] Q $.E $.:.' ~ S 1.q.1.~ %.{ 6.1.V ` <.{ ~ 6.9.1.B n $.U _ <.' 1.,.) } J +.v U S 6.>.;.( *.1.' 2.1.$.%.B T F X.Z ..+.>.H ` ) ( I j ] 6.,.q.H W ] { +.X.v +.( ~ Q F S v F V D [ >.D ] b 9.' u q.` ` +.] V +.[ B J R ` T $.U 1.1.9.9.>._ P R >.H ] ] b k v L v @.@.x H D d S n >.<.X.=.=.+.1.b ! a T [ i A Q ' F n ( *.8.] R Z +.>.H ( A T f ) _ [ H 5 n H u S V +.( _ ] <.q.` u m ` ] R ] n ",
"s v Z $.{ $.q.w.9.R ;.7.<._ I 7.3.;.;.=.S n ' 9.] :.S S 7.] ] H I } u <.;.%.5./ %.w.1.( ( n > 8 D 8 D S { +.q.+.B A _ D =.<.e.w.T ! ' } *.} ' $.<.' 8.t.<.3.t.<.@._ A 0 ' Z ( 7 T ~ F $.1.9.] $.] } T 9.Q _ ( ,.b v w } V 9.T Y -.] ` ` ( ( D { ` ( b <.+.R [ A ` { _ I } 6.,.n ` -.[ v B _ %.T ' R @.9.M ( _ ;.( n ) ' _ R ;.>.A / :.0.H >.g 9._ ,.%.W ] +.S F u 9...B ( B I N q.+.O.$.1 i S ( F 9.) S D V ,.( %.,.Q > %.` *.q.d ' T A A b _ ] x n u i Y B D ' H F F V A ' V :.] -.1.s M T [ ( ( A ( B *.;.s T <.( &.3.;.( R } ",
"} W S ( ( $.S -.) ` _ 9.S ' ` Q n @.q.%.{ C R 2.i ! A s =._ _ ;.( J ' i j u  .9.-.3.M ) c D Z S X.T m n H ' ( A ( ' *.~ 5.U =.~ h ] Q Q $.C E %.M $.6.q.H P { ( ` >._ C n ( D c B =.W W >.7.<.@.S i $.w.) S 0.s F ` ( C _ ) B v V V -.Q h b X.R n -.D ` ` 8.F H ` +.` A 8 $.>.X.v _ m F $.@.1.~ *.#.T _ +.c ..( b H #.>.c Q <.3.( w.>.z P ;.D Q U ' _ 1.> { ) ` -.D D m L 9.C ~ D ;.1.` 8 y b ( B c j Z ' i 7 ` R >.1.-.i ] l X.R f { R S I ( ;.n D +.' > R m i ,.D n F ) 6 T 8 ] d A -._ +.I +.>.>.S +.B H / T %.) D -.] ( Q <.",
"%.] M ( ] :.R ) H { 7.' b | S H b q.X.>.( F S { 9.1.7.S ~ ' $.X.w 1.9.H X.v 7 ' 8.B _ +.H 7 >.+.Z ] L s F ..S n 0 8 b &.P C u p b b R } ( ,.S X.' P =.` %.] ] ` d $.S ) 1.( ] u ~ &.>.<.N *.+.7.;.%.Q ] C &.7.>.B 9._ ` R T v m 1.( n 1.{ ` ` +.H ` ( R D H >.H Z C D q.v -.1.;._ ( M *.b ) ( R 1.i c 5 ,.+.` ] H <.j C -.+.Q N <.<.t.w.0.T T 3.Q ' A -.%.,.C $.:.> M D $.a s a 3.~ ` q Q _ _ W u >.( a T R F Z ' <.6.B h ,.u *.9.3.;._ ] S ' ' { n A ' { _ 7 ` %.` Z b ' _ R ` ( R ` n F @.I m +.] 1.h %.E %.=.3.#.( 1.} 1.3.9.",
"$.1.D T 8.v A ( Z { @.] A T ) ( :.1.@.` X.;.@.' Q _ ( R ;.] ] B Q 1.=.1.V P P W 6.M i ] v ' R 0.>.A ;.,.+.C 9.A n $.D a :.M ;.E ( ! q.3.A n H <.E ~ $.7.;.v | R ` D ` 9.' B ( c B $.i ' Z M q.%.' E } 2.y P 9 ;.<.;.1.A s | C >.n V A 1._ 1.>.n Z ( ) ` D ( X.) V V T =.D B -.} 0.>.>.{ ( ..H A ' ` 9.=.C Z ) H $.m ` @.' h W V $.y ~  .p.3.>.>.` D _ ' _ j E ~ 1.m ' ( >.v 0 v =.e.w.i = B ( V F $.x j D _ i $.b &.S | Q +.) 0 I T T i v d E S ,.A v i 1.-.3.,.<.] _ E C R ` T ;.[ [ +.#.R S w j B ' s u N d ~ $.+.1.y.>.` R >.",
"$.n ( Z _ m m ' :.%.m ' u ` J R 0.@.@.b B s R 9.-.A >.9.X.D ,.n <.1.m S %.7 ,.:.h V V ..D b ~ l y j l $.( T J +.+.A D _ :.A T 1.T =.w.>.` 1.A T 9.( q.A 1.@.1.S b ~ ~ B ' b ] v P A 8.8._ +.%.%.>.-.q.;.;.( i ' Q ' 9.-.1.1.{ ] X.n _ 1.F F ,.F R ` ( ( @.` J ` ] %.{ A b 1.m ( Q 1.=.,.C W 1.) x R 3.E F E H F c ` $.P c 3 B ;.3 _ ] A N l w.H ( $.q.$.-.' H s q.:.A B T ( $.& $.7.( _ V ( v L A E ` ) F ` 6 W a ! S v $.~ ) M S ~ w 1.C A } +.` T ` F ' ` q.9.9.-.;.0.t.1.9.@.F $.] 1.B >.-.S S ` ] A 7 D S I $.@.7 ' R ] +.@.",
"1.' -.M ` u x ` ] $.9.6._ ~ ` $.T Y ( ) S 1.q.R H ' q.` ` R ' ,.U S B 1.9.b M ( n B [ S M 9.H ..V B ! ;.D T T R 9.( X.E q.y ' B &. .w.y.` <.F r $.<.7 &.b B 9.v b A n 1.S v _ v v P 6.Q S 8.<.%.$.' q._ [ H F D y I Q _ m A $.1.' B T $.' ` ) S A F ( ' F -.+.#.A _ _ H _ ` S j y D B >.] ) ( ,.%.i ( T ) C ] T ' S +.m ( Q ; d O ;.*.( ( W d ,.c W ~ 6.} S o.t 8.,.y.t.u ' ` V E 7.H ' 3.i _ ( ( F w.` $.) w.1.} E -.:.~ / i v i i c 1.` ` F ( b ` ;.B ' ` z y.1.' 0.=.U 2 % ,.t.j q z ;.-.C G ] %.) ;._ _ +.v ' H W %.+.i 9.B ",
">.,.B b _ a ] Q 1.9.[ _ S _ *.S F +.1.<.X.8.A R Z 8.,.J ;.( H B X.1.,.>.A :.] Z { i %.) S 2.' +.S M m $.M ( ] F X.Q A x ` 1.( < N ! $.e.q.y.1.H B ( $.+.H +.:.,.C H b L >.+.q.u A n T +.S ~ _ L 1.$.m Z S ` ( ( ;.S ( ' <.A 8 ' H v H n R ] ;.T i j l R ..b w.9.>.C E R ` i ` D i B ` D ` B V F V { +.*.A H : <.%.{ b -.~ ( m o j ,.<.+.1.@.] S <.~ R x c :.{ v ..3.1.6.+.D R ] +.} ;.P <.9.` 7.n N u B s $.B R { Q | <.T ; A $.H _ +.u y Q +.;.* T { A 8 j : $.9.0.s 8.e.X._ w.,._ ) X._ _ C _ T { H ( { ( C b ' X.T _ ` B A ~ ",
"@.` 9.M F O.+.E ` J H V B =.1.Q ) 7 7.:.%.P B A v } ' ` ;.` ] H : ;.v ' ` T 3.A 7.C f I T 8.,.#.8 M %.( n A #.T u +.T G ' 1.@.$.T W q.W 9.8.7.( A 1.6.,.H <._ 1.D { ,.:.,.+ p ' w d R J _ ) Q ' W I ;.~ +.b n n _ 1._ %.R A _ _ +.A x R _ ' ,.] b ) l F Q =.<.q.' <.) ( Q { ;.;.] ' T A 9.1.] ( D v +.F M ) +.V N v m 3.$._ :.B = q W ' B v v Q i T ~ ,.C i M S T ' 9.3.:.X.>.q.*.1.B b } >.*.i 1.Z A D H n S E ) A H W +.( R V S F T w w c M ` m { M S S ( i E = $.1.u U 9.%.$.q.3.<.U ( >.+.A S ` [ _ H Z w b q.9.S ) ] H Z ` ",
"B q.>.1.` ` N ( >.F A _ C S ( ( D ( 8 ] w.C ( R A ] ` H C ;.` 0.@.>.$.H ` m A X.R P b ( Z c N A n ( >.D ` n P @.o..._ C U w.( X.,.~ ! ,.<.9.<.1.1.e.3.` ( A ,.%.-.W Q 8.+.$.V Z l Z ' { R H T C X.T +.1.1.V B D R | %.S -.@.n { v G F D ( H { H +.A D F m =.$.m ~ C o.+.' +.2.>.2.] c V T ;.] A ;.] ;.E A E ` ;.%.;.t.9.,.%.` W T =.n A <.) R Q b O.Q :.>.%.Z F g v <.i q.9.F E ' +.N Q E O.%.3.` %.i +.1.t.T >._ A C 8.m B T x n -.T S %.B i b ~ W E R [ ] g $.} L v b r > l T z *.( ;.| ) ;._ ` u H [ C $.:.E 6.' A X.R M H b ",
"A D +.X.' ;.) H D D { D S ] n S H A T v ;.3.>.,.E ] ;.W P &.<.&.$.P +.z ~ 9 A T ' { ` l 1.S C S ' ` C P R X.>.v 8.` V @.T 6.x U $.m R ! 5.q.` q.6.q.e.` ( C E u %.B =.S +.~ +.$.! j q.>.| $.*.1.S E U W ' 7 v b d 6.:.( ~ %.I [ H F F ( W +.1.+.K D T ' Z ~ =.X.1.+.-.-.{ ` %.-.( ;.*.B W ] R ( b @.#.+.I $.] ;.R >.2.t.1.6.' 1.T &.R B X.( 9.X.Q C J ' R ] +.+.H C U 6.8.<.F %.0 i A m ] H A %.' 0.A ,.q.t.1.o.( i b <.0.2.;.` { { S M %.:.( i r A r h >.>.T x m ( H i ] F i u ; c ' _ S i P 0.8 +.J _ B i ~ } ~ _ M ( ` H +.R ",
"( 1.` +.W A ) { ` J { R 9._ _ ) >.3._ E A B ;.S H B ~ W ;.Q ] >.C ,.; 3.n b V H _ ) d ] <._ ;.H ' 3.` P S 9.q.R E H R W C ..E D ,.=.! L 5.} <.7.*.! q.+._ S f { ( ( A :.] <.& *.v T m ' T c C $./ ,.C ( 1.7.,.A V ,.I f R v A ] ` D M ,.~ %.R ` ~ ( %.Z D D W w.T B ] ,.<._ ;.+.` ;.1.v f H c H { ) R *.9.' P <.2.T j 3.9.q.<.=.Y a R B B @.` ` X.X.) >.+.` D +.1.F $.` >.D n ,.R <.+.= T $.;.b :.;.E 8.w.y.t.;.y.3.<.U ] ] *.D C D $.R S A C ' D E u 0 R ;.C S b d F i F ( ' -.M S >.9.$.A i <.1.v b n B ' ] M R M ' Q _ b ] b ",
"+.v %.V R b ] F H H ` R 8.w.@...b W $.u D R 8.X.:.$.i 0 p 0.] :.>.q.j t ` 3.n H ` ) b N I ` A n <.%.;.:.*.^ 7.w.v U D 9.] m ' =.~ N <.i ~ ! j $.;.U %._ S S V Q { F ( F X.9.1.*.d $.~ b H $._ U $.' ) T <.H v c B E +.;.v ' F H H ` O.F b B F F _ ' ' _ q.` &.~ t.q.*.T R Z $.R [ H H >.S S 8.C ; N q.~ =.0 i n B F c R a.u.t.' ' 9.2 A T *.' w.X.0.X.( ] ` 9.J ] ] W W $.C [ +.y %.{ Q W $.M :.V R j =.=.y.B w.q.0.9.' ..B B P ;.( ;.2.F ( _ +.>.( w ` h b & >.;.] X.F V ' <.{ T >.>.2.>..._ +.( %.( 8 T <.+...] A ' D S R ( D ",
"B b +.+.q.;.{ S ` ,.D ( m U D D V b B ( ' B A D b B 8 n >._ ; a =.9.>.D C X.Z H ;.` F C H { >.M 0 1.[ k a v Q %.3.( ] _ n R %.F %.H *.W b , T $.6.h H ` ( ] -.9.v Q %.,.+.;.#.+.V A D Z v ' _ ( E D i A <.:.{ D } E S w.#.b ' F H ( ` #.3.>.:.( V T D T i W ' 8.$.O.b $.' ..V t c x g @.T s S O.~ 2 m X.+.+.$.9.B $.X.D ' - w.0.} ( ' a b m ,.C 3.1.( o.`  .T M _ 7.i ~ T A T A 9.n ] } m *.w W =.9.$.W $.=.*.q.q.:.m 0 S 1.>._ ` A ] $.( ] { 1.` @._ u ( T i =.t.;.@.A R ` ' ) ( M e.,.y.+.+.D -.Q ` M T <.H q.,.v $.+.D ( H ` ",
">.-.F 0.0.$.` A &.D ' v u _ %.N D c -.;.F @.3.` D H C E =.1.E -.=.W y.V _ H H 1.u.t.b @.' v ] v B $.>.b ( L } u e.3.b C *.=.q.g l V [ F ( H ( j v T +.T 1.;.%.{ =.=.1.1.` O.+.2.%.v X.] F ) ] X.{ ' b ] { V ( ] n b v =.:.~ m X.H C ' :.8.3.%.3.F S S 3.U T %./ 9.X.H ( ` 1.8.;.[ 0.4.] T u 8 l 2 ( R ;._ w o.H ' 7 ( c 6.<.3.~ ' ` m @ 2 7 P ,.0 , :.n g x n m ] ] H N h P ] m q.>.] Q d ;.' a 2 / ^ =.5.=. .$.q.1.] w 3.A +.1.X.w.Q F Z D H H F #.+.{ i S d % : 9 +._ ` R 1.$.j q.( } q.<.4.<.1.q.$.` C ' P / ' ] R A &.;.F ;.",
"! @.( H >.*.` D B <.R [ ` +.X.' S H _ ~ ( >.o.X.Z ..v R ' 1.1.:.~ v ` ,.A i $.v 8.3.3.T C 7 >.E 1.M [ ( S M d B i y.1.] *.~ Y W +.H F J ( >.>.+.H ( u B 9.[ H ` n ;.%._ ) P E T ] B @.A S ' X.+.9.E ) 0 c b n _ F i B E X.+.( ` H A D B 8.t.>.F _ ( S *.-.V m N *.' ( +.v R @.x m y.t.y.~ 8 l } $.M j >.1.8 8.A o.=.i R ' ..q.i [ ' D ' 0 T _ v D R v D n R +.>.v B A _ *.c B ] B 9.A ] 8.~ M c D h / / / z &.*.} 0.O.;.0 q >.X...>.3.R B o.;.` R H ` _ ..` ;.%.+.[ ] ..Q 1.D A > 1 ] ~ *.w.@.3.B +.;.+.D ~ b W F 9.R _ v i R ( ",
"n +...%.q.H 1.;.U F Z b ) 2.2.] a D v ] ( +.+.3.S @.D T $.] $.+.( D j ] { H 8.0 =.>.@.+.$.i _ +.n ,.v ) ( ' ] a E q.6.$.' >.D Z F J n H <.~ @.( 9.] ' R ' ' ;.n ' +.` m x A n ..E ' ;._ T V D ( ] ;.[ ` C ` 0.1.( F T D C b ] -.R V V A Q -._ D D H Z T >.` Z V A *.` ` 3.@.~ $.( 6.Q @.=.B 0 *.( E $.H %.v m ) R 3...m 8 v q.h 1.p.1.[ ] F ] ( R q ! *.q.3.C Z Q X.M ) b R m T S N ` 7.w.;.( 8 A h ! T @.A a %.C ..w.>.[ ..P Q ( B Q i 1.q._ ) S ( ' M 9.-.i  .' +.T ~ D S 2 +...i ] ( { 2.-.X.( ] ' ,...+.v C A q.' ' B +.J c ",
"c ..D Q +.S ' +.F Z ..S ~ ' >.H ` 8 _ 6.( ( ..w.>._ A ^ } &.T T &.;.( Z ,.5.$.S A B #.2.3.] -.1.-.%.1.( ) ` 0.S W T _ $.' ( :.:.9.:.` Q *.:.R m 0.<.B  .n F <.' 9.1.>.M ) H n ~ } $.,.1.( T 6.2._ :.1.+.! 9.3.H n E ~ _ { H O.) +.>.F D A _ ` _ d R n c ,.n H a >.D ;.' <.1.` ( a q.2.9.( *.B L ,.D / { q.A ] F F w.<.Q B ..m <.R 6.' $ =.P c ;.<.D r B &.$.R -.1.] +.l B _ T *.=.X.e.q.1.>.( G x ` ~ ) ' o.A 6.w.R 9.;.( <.S M n 3.` ( R T @.D { ] R 6.*.>.%.%.B W ..R ] E ` i [ ( E [ >.0.9.n D X.q.u.;.@.3.u H >.1.E ] ] ' g ",
"A ~ $.` >.' 1.( ' H ( Q =.q.9.u.@.W m B Z Y 8.q.) v C l +.S C =.H A b A a i B q.A u ;.u >.( ] *.n 6.q.' z <.*.~ X.' B R S ' ' v u >.,.N F N 3.q 9.>.%.N =.A T ' _ +.~ X.) x ;.N 1.D Q ) ( q b w.{ :.<.Q 8 %.%.1.v F _ >.) V F ( T { S n V S { H ' i _ _ 3.0 A B D ] R ~ M V V w.M <.y.;.1...A ' ` i 8 +.:.> 9.` ( ` 2.V j v M :.J s { X.6 v n y Z ~ B m V +.j i 3.] A a H F *.A $.q.q.6.q.#.) S ' ~ X.=.%.` 6.$.8.` _ +.>.>.7.i =.h *.+.C 2 *.;.A Q y ~ R n T $.$.B H :.w.3.M S v H >.` ~ ' ,.' ` *.<.q.w.2.1.` +.2.>.R ,.w...=.",
"B E n Q ~ B ~ X.{ ( Z B %.%.A 9._ :.%.D i 8 =.@._ J A W M ` Q V ` +.;.H Z J +.n R E 0 ] ( I 1.] m s _ E ' $.s B $.H :.T { S _ C u ..J F F -.1.D l B ` u 1.( T n -._ T M Z ` ( %._ A ] @.T 5 s z *.8.] O.R ( Q H >.i b 9.O.H i { H ` ` +.Z H H @.A R m S +.3.R v ] S b A F H u 8.q.h b t.$.:.i ; E ( ,.i 9.) { +.` Z Z ~ u F H =.$.s ` t.{ ` ( S 2.*.B g h l @.` S 1.9.b S ` j ( / ,.$.S E :.[ S H A F R ,.W ~ $.<.D >.;.( ` +.n A R D q.;.F / S B i 2 } ] Z R N L 2.3.w.+.n ( ] i q.1...;.R b q.! ' h 6.&.q.q.A ` F :.>.X.@.1.A ",
"' C T ~ ` B ` ' { H S w ! 7.H q.B B 8.;.] V 6.[ ) ' ( S 6.R { v $.c i c B #.D -.D C R T -.:.:.H S i e b <.,.F i C ` ,.] 8.T Z { x v x 1.%.A G R q.v _ T ;.%.( N d Q S 9.{ ` ' ( I _ | | H v C _ %.Q 8.+.B ,.+.0 B M T ` S M T H H H F c ( H _ { ` R ( ` A ' n M F W S H ` *.<.P <.X.H 2.~ ;.R ] 1.v j v *.' A ) [ M ~ B u @.>.,.+.b <.' >.T ] 3.D >.<.Z H H P [ ( { d ] A +.V T W l _ A P M +.( @.A ( $.~ B / &.~ / $.' 1.>.1.R V D ` ' +.A %.-.%.n n 7 D u v i ;.= &.1.j q.n g n T w...1.2.8 / <.T q R P $.<.0.b T F >.>.( ] ] ",
"v B B ( ` ) m t.F b i M & c *.<.A $.T W $.9.8.H ` R ' V q.;.+.D V B $.A b 1.i E ` S B C X.~ J H n R n t k 1.{ C M D -.#.H %.+.{ D ` ;.` { ) d | ( b 3.$.7.<.B *.} ' ` 1.n T ] 1.] E } -.A M b } ,.@.1.( +.A <.J >.C 5 ' H B H J { +.;.S ) ` ` A S ` M C ) = ` D B +.( 1.b =.8.L ,.*.2 ` D 1./ ~ ~ _ b T n D +.{ R n b -.; q $.R A ' ~ o.9.3.{ = O.m 0 _ U M %.-.S 9.~ S T B $.P ( ` ` m S { B *.b H u H 3.! u D _ _ ` <.,.$.M ] D _ 9.-.>.` @.] +.%.j 7 { D b $.y.' v ' ` $.9.:.3.( %.:.$.' / ] P ( E F _ B A +.q.t.F ` _ S H T ",
"H S Q ( J H w 9.-.+.X.( 1.0 R B S P T = : D 8.#.] H T ( ~ 2.>.0._ A $.+.E 9 u D H c i m ..( >.R ] ,.S S f S ( T J i &._ +.=.:.l R R ' ( ] ` S -.A j q.( j S B ,.j =.] ` <.S S I #.H ] _ <.} T ~ %.3.2.H E r h _ ` O.;._ { H V +.Q _ Z _ w S H J Z S b %.#.,.+.c C H _ S -.N *.,.' _ { C 9 ( { q ;.0.q.i ( ( i H ` E ' ) r 8 ] X.` <.` r 6.v :.B ] R A ;.) D 1.R _ ) T v R %.{ <.$.' %.} ~ ' d +.] U $.T %.V ' -./ T ~ 1.n _ _ -.n T ] %.q.1.( B :.+._ m Z A w *.8.>.i B <.R %.%.} 8.:.c >.V _ n ( B ] b s A ( _ R 1.b [ +.' ` B ",
"( C Z ( H R ] } +.-.&.$.B [ B J ` S T 1.( S <.2.>.} v 8.1.y.4.+.-.<.` ] S b :.1.( H D A >.( D 0.I A 1.8 C { ) ) | :.{ [ ,.) 9.-...( E _ n ` <.:.%.$.%.( A H 9.} S ~ 9.7.S R %.;.' m 8 S G ' S c W *.y.o.` J ] { X.S S c H #.` ` b 6.r 8 $.` S ` H Q M 3.+.<.q.+.S +.7.] %.F x c b 7 A '  .j ~ C v m m T ] 6 *.3.+.<.w.;.] _ 7 S W ( H j ' 1.F q.v 1.+.@.] 2 S { ;.q.H W M ` ' E ;.' 9.9.A ' Z _ +.B ' ..:.=.T ! *.-.T ( @.;.W u b d ! 6.8.:.( ( 1.+.2.D D >.` D ..D W H Z u n F ' ~ ( X.C T *.) H A R ` %._ ` I i <.0.] %.B B A ",
"T H >.Q C F } T O.>.} _ A =.H ` ` H ' ] ` C 9.1.3.w.n N <.8.p.3.1.$.@.{ H Q %.X.+.1.n B T ..R 0.q.S { W _ _ ) ' 7.) _ 7.S ] B 0.0.A n i ( R ] A %.q.R ( @.+.] ' _ T *.3._ %.u 9.;.D b :.C H S C M ` ..+.>.X._ V ` +.:.S T { O.H j +.-.A b ( { ] S J ( ' ` q.w.2.G ' $.X.A X.v M ~ B i v s M x ' 0 i V { n m 2 m B E =.0.S V j %.V c b T P #.( %.b =.b >.F s j _ ;.;._ Q ' $.A ' ` T T ;.N E #.V c ] q 6.~ 6.' ~ u ,.>.i B ' +.%.n i m B Q ` ` T ( %.E R R <.,.%.Q D D ~ =.D 0 U @.3.;.6.e.&.R [ +._ 2._ Q 9.{ ( ' A $ $.+._ 3.E ",
"~ M q.X.` @.K $.{ 1.,.( R S F @.;.+.R ` D 8.%.] <.%.9.v p W 9.;.<.` #.>.#.~ r _ ] <.X.D T R / q.@.b 1.$.v ,.] ' %.+.| $.q.B 9.Q W Q ( S C b d b q T 1.V X.+.` _ <.' T :.( R A ' :.` V 1.` Z B i U / 1.' 1.c ( I a ' T ( A S M ( ` R O.` S S C S ) ) R S ' -.i ' @.^ %.q.#.C >.0.' I i _ S B *.9.B v S i u ' 9.%.A 8.h ~ ' -.~ R ' F b m =.q R -.:.u q.} +.O.R > D >.2.] ~ M 1.<.+.1.A ] T S >.<._ R ( w U ' ;._ +.>.$.-.%.( ( Q 3.X.J B n F C { u B ( M U U %.( J +.2.T R @.m ; &.! *.*. .1.X.b v T R ( P ;.] V D ] ( ` %.F ..F ",
"( ( ' $.0.+._ ( S >.:.` F ( S 9.8.;.+.c ) =.] D ! ! ,.9.T i E ` S v <.$.0.>.V ~ i A S >.R D C =.:._ _ ` b Q ( C ] ' <.=.1.~ <._ ` ( B H +.D [ b ( M { m V ` _ ( } M E <.X.C ' H B 3.T A ( A A U s u D i A B ) T [ ( _ H ' n W S F b ( H ` R 9.A C T S V =.V $.b 9.+.9.1.;.R B m *.%...A $.} } c H v %.u B T D n L $ A A 6 L h $.>.) { D 8.+.Q H X.R $.p.;.;.>.<.B +.( %.) +.%.6.@.i ] M S b ] %.A 1._ >.%.M v { >.>.1.;.i $.R _ :.n Z ` H ] F { ` ( ' X.D v X.>.@.%.:.F ` %.( u ] n 7 ' D Q +.0 ( A S T A ' 9.3.X.1.,.q.( B +.=.",
",.T ,.Q ( w.q.9.` { >.` ( ( ] ( B =.~ ~ &...=.` ,.y ' O.( F X.H V 8 W 6._ E @.+.;.F r h X.D <.,.+.R 1.S i u ( C } $.<.=.e.q.S %.-.o.@.] %._ n #.( n .._ H ' Q *.T H W &.+.( %.] ] _ ;.-.` ( 7.Q R X.v D b X.1.I / %.R @._ ( L { ] R _ b ` w 1.] T y H C a 6.D ( v E ) H %.;.<.,.<.,.1.` :.6.=.' E %.>.~ ,.( ' H 8 E :.A 3.X.S v n 9.=.<.8.) H n b ,.} A B v F i R S n E A L ( S e.-.@.T ) V >.$.S > <.+.] +.%.> %.1.S _ 2.( D ' :.~ j 0.>.R ` M ..H ..( ;.n $.8.B i *.X.B R R %.;.R v q.w.A X.+.-.C | C Q ^ 2.8 ~ &.9.3.>.` $.@.",
"..C A H %.*.M } ] [ F ( _ _ { [ C D w B j M ' F c ' ( ( ;.n >.Z -.V N :.+.>.n ] F @.,.] x $.! 3.O.( 1.` n ` +.( P W W *.8.E 7.` M ] %.( [ %.[ ;.+.%.F D X.~ $.=.J ] ' *.[ ] 1.( :.>._ } I >.@.( S H <.s m T $._ V ' T ] ] C T _ @.R H ] >.D 1.` 3.` $.R %.3.) T ' +.~ %.-.` %.1.Q v i 1.q.1.2.9.$.,.$.%.B $.` ` h ;.=.u 1._ Q S R B ] ~ ] ;.>.M <.y 0 U ` T A _ R B :.d ~ Q D b ~ q.1.) F S 1.;.%.B ] b ` 9.1.P ' 1.1.F H R F ,.9./ :.%.:.] _ T V _ _ ( w.X.0 v 3.A ~ E ( S ( $.( J j v +.+.{ R ( R P j ' ,.2.-.8 Q S ~ *./ >._ ",
"-.( m u ] T n ` %.M 9._ ! S ' %.` l { ) R T 1.:...T H $.q.@.` A ` A a q.H ] 1.2 v X.( _ D v D R b $.3.-.<.%.' U 6.A / T 8.8.;.` $._ q.&.V 9.3._ 3.0.R ] A X.$.5.S ] ( | 8.q.;._ *.{ S B ] | A ] +.o.] $.c u v +...E S ' +.` ` Z D 2.' ~ >.;.+.' ,.F D ' ~ N _ ( ;.F T ' *.E 1.{ 3.@.O.:.0.q.2.@.1.( ` W %.' D B ' v j ' -.] H S Z T ~ h ) ( ,.S $.U ,.B _ ,.-.{ %.{ i A v ~ ..D I T D D V S $.( R T ;.1.M %.>.{ ( ,.' 8.n X.n ,.' ] %.@.( ' ] _ ] S ~ ( %.X.v l 9.+.M +.' F  .n M 3.T %.y.T 4.3.,.8 _ 1.] E T ( 1.] ; P B -.S 9.",
"@.T c F ( Z H b B ) S _ ' _ v / n ' Q ] %.m <.>.@.D V T F ` F Z _ $.v l _ _ v ` M i ' X.( D U R b B ~ ,.*.W $.Q B Q T R _ A ,.` ) H 6._ ] [ ` { >.+.H ( H V - *._ <._ T R *.' +.<.) _ ] $.R n t ' -.>.2.$.' %.m P 1.E T X.F b n 1.-.R b h ] g +.+.;.' T <.,.( ( 8 ' =.( 9.C +.F F 1.F 9.M >.D >.;.x a W M ,.W ( <.8.-.B %._ { _ ) D 6.Q <.) >.v ] D ) ( ] B ] T ) *._ V H D ' T b I u _ ] :.' ` A _ R m r v d ;.#.>.t.3.*._ d B v n m R N -.y.:.X.A W T T Q M i D q.` ' =.B m -.! $.` E ! X.T &.1.T ] / [ +.A W 0 9.` i 1.' H Q ",
"S _ j x S ` { H Z 6.E ( ;.w.1.P ( B c ,.F H 8.2.2.+.F A V V ;.H A ;.` V _ ' <.~ +.F 1.>.,.9.( X.A j B 6.$.T &.B %.W I 9.Q +.E } &.<.~ 7.T ,.-.:.R ` F b ( %.n u ' +.%.{ ~ ' 1.( _ Q S R V { b $.( +.;.3.{ 1.' a h _ ,.S S 1.{ A ,.1.b ../ n H +.>.X.#.C W E H m ` 0.#.Q ,.( +.` 7 ' H c 1.@.F R b Q z o.' T B $.0 ' ' A R R 8.@.' _ P T +.R ( u 2.:.) F %.s D C v T n ' ~ S R M E v _ T ,.' v ~ _ ] A _ ' <.A %.2.;.] 3.' $.1.S u ..@.,.;...9.( R n @.+.` D D Y n 6.<.~ R 1.' m %.b 1.r Q >.R =.A } +.| ~ S A ( ` X.>.q ,.7 v ' ",
"T >.%.B b ( ] ` S 9._ S T T ' <.%.` ~ n ) Y ' $.@.~ D ) ` H ~ ( ' _ _ ] ' 9.` +.] ] w *.6.:.F <.A c j $.' ~ D Q $.S W l 8.>.R C A ! 8.$.} :.{ ;.#._ M ;.` D v ! } S ] ~ ( T +.) H +.' _ D ( R &._ H D ` ~ @.' R b ' $.c n H ] M ~ @.D D ) v ,.:.' ;.V 8.8.+._ ( A ( { ( ( ` ( ( D ` ,.u $.@.g ,.n F S <.F H w ( ~ T +.X.i M 8.B E R - c $.;.2.Q $.( -.3.' B ` ` ' i ' n X.%.:.;.S _ %.:.<.%.Q ;.Q +.C T #.%.A ' u q ( 1.1.1.] m A D ` $.` @.;.9.` ' 9.M W +.' V M ( ( U ] 1.>.*.-.U 1.F m =.q.T B l / S ( T ' S +.} ` D M F j Z ",
"-.;.` H S b H Z Q $.[ O.P ( <.S B ` ' F N *.*.( F B w.0.w.E ' v d %.+.~ %.6.y.;.{ S i ' =.3.9.1.J +.Q L r %.%.( S H S e $.;.' A :.~ } B R ,.` w.R @.} S R ( ' v 8.{ n B ( >.` ] A B :.D Z F A b ,.-.` ] F ` @.<._ [ @.M H ( 1.{ ( n ;.( @.<.b ~ b h <.q.<.;.F y.A 2.1.;.-.:.+.t b Z _ x x 1.( ' M H +.*.t.w.R n %.6.q.3.;.s P _ M 8 T w C T Q b w.S ( ( _ i i +.$.' T A ( ~ H ` _ 6.<.<.+.%.-.( M @.~ B N >.Q u %.:._ ] >...V N <._ +.A ` ' ~ %.{ >.` b ~ 9.' ( b S v *.T 3.v q.<.u ,.r ~ 5.m ` T v :._ _ Q 9.-.` j i.o.` ( R R ",
"{ T w.3.( H ( ] ' ~ S _ T b -.} E B ` B b ; 9.>.;.R $.:.H ] @.W ( ! $.X.g q.1.A ;.( ' ] T ,.9.) ` >._ c S $.9.K Z { _ R _ i W F V _ C I ( _ _ ,.[ 0.] >.F ' D U q.9.3._ 3.v R b >.>.9.0.+.` i n U ' X.H H H ' ' T _ { T ( _ 9.;.>.@.s U B 9.D D V t u q B 1.~ q.{ R 3.S R U <.$.' ( [ <.n B A q.1.B ( *.q.~ =.w.m =.Q / S B ,.) ] i H S ` E Q b 9.( $.1.:.9.3.<.9.9.( +.E ' n ( +.] 9.<.1.=.<.( S 9.%.v v B 9.R 0.d d C B ( ] ;.' ] %.%.0 ~ 1.6.D v m ;.9.n >.2.[ _ b >.W <.~ / *.Q $.B ~ $.;.7.:.*.1.( S : =._ I M &.w.{ ] ' ;.",
"i ( T ] +.7.( _ <.+.' 8 ' ] ' ) @.3...R $.x L X.D ' ;.3.<.X.3.<.H *.2.;.~ $.#.{ h R ] } m R 1.g 6.;.A S b M 1.[ ` S ;.[ 4.-.~ u ] A ( -.&.;.[ ) <.A @.9.0.q.A U =.w.` <.7.` ` _ %.( <.9.X.D <.~ F i F D i ' ] D ` ] _ n S $.;.` n +.Z A ' E x +.3.F u >.Q 5./ ~ ( C M t.%.9.+.:.( M ;.#.+.t.( L ~ >.T N B <.D ( t 9 ( V _ s D +.] W H ` F ;.,.~ 3.q.1.C A ( 3.:.] ] R %.V +.v :.[ 1.2.:.{ ;.3.] A _ ~ $.A >.6.+.%.P ] E Q O.+.z :.*.R <.R W 7 $.] $.O.v ~ A n ' :.4.Q ( = 7 U D n 8 b B ~ >.j ~ L P ( A ] S / @.{ B <.y.{ 1.( <.",
"R M w.t.d n ' B H { ` H y R H @.( T $.4.F H y 6.1.) ( R ( ` 8.@.v 3.6.L | =.w.1.{ ] $.X.$.j T +.i m ( d 2 1.[ ;.J A ( 8.<.E ( 9.M ` ( ' j T ] q.<.` D ..O.E ` x T / ' 6.] %.@.*.X._ ( T %.>.w.1._ :.] =.S E D F b ~ A v +.v A +.5 <.;.v Q -.n F ^ ( [ 7.>.h S T C E $.+.( ` $.F v U D B i $.j N $.D ~ <.r W <.( D +.S $.F C ..;.;.*.8 S D ( E B ' 1.+.*.;.F 1.i C P S ( T ( @.` F D +.+.0.X.;.( F ;.q.b d ~ P q.} q.7 +.X.C P >.] 8 q =.T T T *.*.[ ' A 9.:.` $.H T ' %.>.A M v ..] ( j $.+.v s F S ( >.%.{ 9.1.( *.$.S ;.{ ` 8.",
"b $.%.$.>.d H &.H 9.2.( B H Q T F ) ( +.X.D l ~ ~ ] ( 1.A -.>.{ Q 6.} 9.T i =.8.] ` %.;.9.Q B ] ,.@.| A I i 8.y.@.H F <.H 0.*...3.i ^ A A m m 3.y.' :.+.q.:.*.,.T ] R 8.] @.( ` +.b T ' n B %.>.{ >.@._ <.*.~ b B m A U ~ A B Z D F A l W >.H 8.9.O.S _ ' #.] _ ~ B ,.1.+.] C x ~ @.H n ,.P _ F H A T 6.m 9.( 0.3.] ` ( b v ] 1.@.%.B S R ;.H a A b D ] +.v >.R v i <.' _ E ' Q ( ( _ { v _ ` ,.T ` ` $.S d T e.w.C 0.<.1.' q.q.-.A ] ( ( X.] P $.A H <.*.+.H T V ' ' M H 0.1.q.,.D ] ,.A D ( E S A h 8.N *.q.) -.e.H ) :.3.+.] ",
"Q =.R F _ E ~ =.w.%.;.I ;._ B ` B ( +.>.Z n H ;.R ` n b v L *.F 1.<.8.w.1.} $.,.R ,.9.:.1.T q $.[ [ @.| ~ %.^ e.0.:.` q.( S i ^ R ( A H H ] A ! =.q.%.8.$.{ n D <.` ' 8.+.` 1.' ( n ] <.X.( @.! @.>.0.9.` [ ' %.v U %.~ & ~ :.( +.] ] _ b Y =.=.=.6.<.T _ ] _ V i T R { ) +.i ' V 8.D C q v ,.` 1.S I 8.V S ) F %.>.( ~ R R T j ' ` ' i R _ ` ' _ { +.@.w.@.@.>.:.O.D ;.] ( { ) ;.) _ ;.%.+.@.q.@.[ 1._ %.* h ! q.y.D ,.%.%.%.] o.n $.%...] T S A S  .' 1.M ' ) T D ` S ( -.3.>.' m ~ ( ( D ` X.;.C v v n W ~ 8.<.<.3.D ] ,.1.N ",
"Q u ` v M b n N ,.n ,.` ;.] ..9.;.{ n 8.3.q.<.` ] i ' n ,.1.%.~ $.$.<.6.;.<./ _ _ 9.1.( #.( -.c %.@.[ [ R A } =.=.1.<.,.` B ` ..;.( A D +.Q 1.M U z $.$.%.>.<.$.V D $.%.$.$.L 1._ $.S ' _ H J F 1.@.Q ( B ( t.9.1.$.$.n D v b ( { ' q.R ~ 0 *.<.8.m W T C I E M R ] n X.<.j ;.D U R F Z { v <.` w.i - 6.] B { R Q q.' ` ( ' $.j #.<.1.h ' A #.t.H F S _ w.$.] +.M +.,.` S +.F F +.` ` _ $.+.~ ;.,.:.A ,.] Q i $.B D 0 q.<.0 6 $.D D y } T k H :._ E B Q B _ ) ` _ _ S n R B q.p.` D D ( -.B A 6.X.@.H F T n ] -.P N ( ' } ' 9.B ",
"[ ( ;._ ` ( ) d N n S X.' T =.$.H ] n *.%._ ` @.T 1.3.E / T ( D E $.~ <.<.] +.A *.~ _ -.$.1.>.M _ >.@.q.1.@.6.! ~ H ;.[ A _ M Q S Q ` S ( D 8.F U v b A ( *.$.X.;.@.q.D Z S m $.' H ( g ' ` u g O.#.q.$.S ` @.{ <.W ,.` ( n ( $.i B $.{ >.j W $.} n B R Z T <.v 7 0 >.` %.( ; ( i ' F ( i ` u 8.q.9.A N ] $.~ $.@.] ( ' ( B ,.` ;.:.1.$._ ( w.T 1.>.T R 6.6.e.3.;.$.$.0.H ( _ D _ >.{ ] q.( m A E 1.+.%.E D 2.i m R A ; ] X.<.Q H $.y D $.j ) ] ) S _ _ ` ' ` 8.A ] ;.H T $.8.1.+.` n @.R R A F ` J F t ( M / =.,.F v :.( A *.1.",
"_ @.E #.#.C d b 8.c [ ) @.( B J H V n U -.1.( +.<.+.-.9.} V +.] A Q B U Q ` %.3.' %.` $.H Q X.H T } $.` 6.9.+.S %.P S <.{ ` ;.{ @.[ { X.8.3.) 1.H D i s ] 1.2.@.%.*.F [ ' <.A $.1.+.8.E j F -.%.%.>.3.+.@.D [ %.8.,.! n J ` b n T 8 $.+.( ( =.$.;.H ;.R 3.i _ <.~ u m 7 j $.w.A A R 2 % $.@.( W ] 8 _ _ F k $.1.( D ` O.F h 3.#.;.3.>.;.~ <.R A ] Q ] _ ~ W 9.8.;.d ~ 0 >.>.` ) ;._ >.$.Q ' H A A A _ ;.;.] 3.;.( ( 8 l A @.0.;.H ,.;.0.1.u ,.@.;.C ' @.D F A >.( E D U T &.,.] ..b +.V D ( ] X.1.:.H -.w ] U $.8.H ( ' E B b >.",
">.v R J ` M ] _ R b %.[ $.B S H ( ' S b h q.( ` _ <.R ` D 1.] ] _ Q ] ( { $.$.=.;.T +.S ] ] X.D ( C ..$.,.q.<.` ~ @.` F ) ( R T ;.+.3.=.~ 6.1.+.B n ] S 7.<.<.$.q.+.O.O.q.` +.{ A ,.>.3.~ T i i J ( ' F >.n >.0.w.q.9.B F H { E ' M m R E u / w.{ C ..1.u 3.' _ ' 8.Q %.u A g t.1.;.[ F l ' T +.R Q | ] E $.:.6.%.%.` H v %.<.~ >.~ y.-.+.' ` B > _ ] +.U $./ $.$.y.;.2...1.:.H ] A H ~ F H ( o.i +.' R ( E ' ( n D i c N q.%.>.M *.2.#.w.' B 8.7.$.9.1.D l D ( @.D ` -.B ,.:.+.@.X.( ] >.B R X.j @.:.F ] ;.;.+.3.C v H H ` _ v ",
"e.A >.{ D S M 9.@.A 6.q.9.` +.[ 3.] F b b ' ' S _ ` ( ] C &.B 0.' ] %.+.H A ~ ~ q.` D ' 1.X.+.Z H V W $.q.8.;.V ~ B A _ S R ] ' =.<.] H D M ] ` ;.B $.$.*.*.$.$.<.9.+.9.1.1.@.S %.V ' @.) 3.x F X.X.` ] i +.` @.2.4.#.+.F %.%.@.,.E v c B 8  .<.0.) +.` ' > ] %.@.@.+.] R q D >._ B +.D C ' 3._ A %.{ ' I i I ~ X.( D V u %.~ %.T ] ~ =.:._ <.+.V $.S ] 8 6.*.A _ q.' ` E @.{ X.[ >.9.8 >.@.F D <.M %.) 1.S -.4.F +.*.~ v $.h -.' i l v $.9.3.[ :.M ( 9.0.F m ] ( 1.9.$.~ l B +.@.;.R ;.V H m b Z A 0.( ] q.3.=.1.( S H T G 1.] ",
"q.+.D 1._ b T 6.( ` T ] ` H T >.O.) { S A f ] C T d ( B T ~ $.0.R ,.:.q.1.) T 6.1._ H n ] >._ D H B v ~ $.) 1.+.] 1.3.@.D W :.3.Q T Q | ) S { ;.` v T Q T 6.) ,.T 8.T | 7._ ] ,.S ' ;.C d T 9.8 C E S ] H H R ` ' ' <.;.+._ 9.` 3.( S C +.' = *.{ ;.[ ;.1.u 9.] j ` -.;.] n R $.;.M T T C g ' <.F E R ] m I F A R ;.S c T X.V Q -.+.v M >.,.D <.,.E T _ F F ) ' B 5.U ~ W >.3.` ,.+.+.,.$.3.( R P c b R 6.;.A a E 9.&.~ V C ~ T +.( X.D b u 7 U 9.1.S w.w.t.a W A 8.q.>.v i A s ( L -.>.` ( 0 F { 2.0.=.q.8.$.q.%.o.F c ,.' T ] ",
"1.T 3.9.>.R i 1.+.F E ] _ H U } F B A _ a ) ' <.q.R M F _ v ^ 6.C $.&.$.-._ :.( <.9.( D E W ' ] S B v } q.H =.@.<.q.t.;.@.~ 8.8.H S H H ( S _ 1.@.F F S M *.<.6.$.%.<.>.+.R ' >.1.R n T @.B ;.| _ S A T H R X.A F %._ :.;.-.3.>.H D ] H A ( ] M #.A T 3.X.B V ( ;.( ;.( Z U M X.] ) C %.1.>.T *.1.C +.~ q.] <.9.H ( ] +.( a U ( E u M 1.] v u 7.%.R ( R C A ~ ' ' q.<.~ 1.w.q.>.{ ( T ;.Q %.D D ] ] _ $.T e._ ;.A 9.<.%.A Z T 7 ;.t.r._ F R ] n q.1.*.*.8.T N u Q %.>.] ' _ _ _ B S ( ;.[ R >.H u $.3. .=.W T q.9.[ Z ( R S E X.",
"3.1.w.3.1.:._ $._ T 1.,.9.{ D ) ) T ] E ` C ,.n ` 9.<.S m u %.q.{ v T } ' ;.' I ' _ B _ { 7._ ;.+.-.( =.] 8.;.U ,.%.8.q.2...<.<.H G ) ] S R S { H E 7.[ S &.=.] ,.*.' ' _ T A %.T F _ | A _ S ] B M v Q +.{ ..F ( ( _ ` <.H D 9.` 2.4.) C H A _ ] d H w._ ' g S 9.,.b ' ` $.u a :.( H _ 9.Q ~ +.M A $.( ' Q <.>.w.+.M ] ( _ <.$.;.W B ~ ' j ' v q ` ` A ( ( F B ( P } $.q.8.q.a ,.@.+.@.0._ ;.x :.} @.6.T 9.w.+.( >.w.q.t.$.-.w U J =.4.D %.v ' =.w.w.m ' R t v ' +.;._ 2.#.] b n C T %.m Q q.@.A v / n =.c w 0 q.3.@.B b a $.,.",
"] ( ] :._ ` ) A ' ' | $.;.>.` ` H H V ` 8.] E B _ +.1._ A M $.*.9.` ' r W =.;.( ` ` ' 9.] +.] e.' ] / %.q.<.=._ A ( =.%.<.>.X.J ) ( ( ( _ H H ` _ A =.' } <.1.F <.;.] $.` ] ` ;.H ( E ( _ v Q -.2.$.i S U P D R :.( ..( T R _ *.( $.>.+.( C ' Q 7.+.v } 2.~ X.D H ] ( +.w.&.B b ~ S n ..8.+.q.M 1.D ; 8.` R _ m X.F _ :.b $.S <.+._ -.) ] D F %.H b _ { R F E ( M b T / ~ +.q.` b S S R n _ ' ~ ' } R 6.&./ %.` b } :.W C 9.E T &.R ,.q.1.F D d z *.e.e.9.1.9.M B ;._ E @.D ;.( B 6 E ~ ( ' ,.-.n u W R 9.%.F 0 =.$.3.;.{ A U ,.",
"8.1.S C $.' V R ( $.Q <.' ) ` +.@.*.>.8.B ,.<.] ] S { R b d i W ' _ %.9.7.H S S a -.-.] ;.| ' N ~ _ F ~ %.&.} 1.6.7...%.<.1.+.` -.;.1.;.S F _ ` ;.d d $.) <.9.1.$.1.<.] ] _ ( _ { _ R X.T I ( ( { q.<.N u j B M R _ _ ( _ ` _ H T ~ R ` [ D S T _ m T v V q.+._ -.C P +.;.b ' u n ( b 0 A N ' ( >.:.>.-.b ;.-.] H A Z R D %.,.B Q i B A ] $.v ' r ` ` B ) b ( X.( A i W d / &.S >.1.` _ X.( ~ b ' b ' m T w i S 7 s ; ,._ P $.T : q , 3.` E ] V u U =.q.2.R R >.D C ` b N { ;.3.O.' N $.1.<.=.] ] b A l H :.+.j <.+.<.t.( R ( $.",
"] F D Z D H F R } T A F ` A ,.{ :.+.:.' %.A _ A _ 9.t.7.} B i v } #.{ R Q 9.6.1.A I _ P W m ' ;.F 8.T C &.9.;.=.] ] <.$.%.1.+.] ( R G ' ( ) ( _ Q R b V T } *.1.' 7.q.+.] S 9._ _ ' ` _ :.R u { X.>.J v @.' E +.F ` %.( ] ;.@.1.+.( H H H ` ;.' { ' ( <.( +.( j ' =.~ Z A A B ` A Z C D ( x %.' -.D T q.#.' _ C -.X.` ..A ..+.;.9.H A :.+.] ` i V ] ,.0.+.{ X.` ] ..~ C E 0 d S >.m B M n v X.] E C I I ~ I 6.s ~ ~ %.' v 9.0.y.1.~ L *.) S ,.v b E +.v ( D F ( _ ( { -.C u b 6.7.>.W S  .*.<.t.9.D S R ( O.B T $.1.%.J X.A ' n ",
"T ( ..D :.+.{ X.] ) C R S #.,.O.] A R @.+.<.] ` ` ( >.2.9.,.D B I _ 1.[ ' ( 9.I :._ ' *.*.I / 9.9._ F D  .a S &.,.<.7.<.-.$.{ >.@._ ( } ( +.1.;.,.S C S B n N %.] ~ 1.+._ 1.;.X.( ` ) *.S C %.m M N ;.q.q.-.>.E ] T S B a $.%.} q.2.( F R H $.D _ _ M ,.9.*.:.t.' q.1.$.+.3.q.] ( H H %.W B v $ d _ ' <.q.$.$.+.T $.D Q T ' -.;.{ $.[ ' ' T ] h ~ +._ ( ( S X.` 1.( >.( } ] P E M <.U C :.+.,.*.$.*.q *.E E 9.:.*.1.y.%.%.1.9.d.w.~ E j q.;.' ` F W ~ D j ( v F ( ( ,.;.] F v > a ' D i ! P $.3.>.>.@.D C w.0.U ,. .v D ` ) Q w.",
">...D A %.` R ` C ] ) ) -.R %.;.( o.D +.q.q.1.R :.B ' >.#.<.' R f ] *.=.( } _ 1._ { v R S d T *.$.0.S H A S _ A W } ' :.-.<.] { -.` ` %.( 9.+.9.1.E R E +.] _ ` ] ' 9.{ ] B 1.$.` E H +.| I S R A v $.;.<.$.<.$.1._ ` %.M W T B $.X.( ` ' <.q.w.;.T _ n %.( ;.+.3.w.' ~ *.+.;.+.@.;.H 2.A +.~ m T v j ] ,.A R _ 2 %.S #.B ' A <.%.P _ b ) H F T X.D n x +.3.0.A 3.` 3.+.] 1.' V f 1.2.1.1.n n D F } ] { T ( ;.1.0.U 7 y.7 $.v p.9.:.M X.j 3.3.Z b r V :.V D v ( T n B F { _ ' S F v F D S T T *.' ( A U ' ` 6.A =.D ( n n $.' %.",
"` ;.( b ' A s B ../ <.q.9.X.( E Q ` -.v :.) @.S ) ( ) H _ -.E ] _ Q Q *.] %.<.1.1.1.1.] { -.S } ;.y.0.3.+.F q.] H Q =.Q q.+.( ` ( C | G ] ;.1.1.S ;.H 9.+.@.Q $.] *.S q.;.T ;.~ _ H >.>.[ ] R ' ' ~ j $.<._ b m } F ( _ ( R _ C D ] >.( $.~ q.&.3.@.` Q ' <.1.>.] ] T B ] i H ( ;.;.` ( ;.b V X.u d $.T %.;.,.9.3.R C @.` { :.T > b $.( ( V j _ ( H A H b ' M >.S >.X.3.0.>.B ( q w Q B <.] D F M $.<.] ) _ +.V %.+ 6.h l + =.9.1.;.*.%.R ! y.[ ..' ( [ [ +.` M j $._ H ` ) S X.%.R ,.T { { c ) ` ;.1.:.W 1.:.Z ( >.{ S H Z n B ",
"+.{ _ ] i T Q v S 7.B / ' =.9.( >._ -.S } { ' ;.3.{ #.>.<...` ` _ R E *.~ ..<.9.>.1.+.S 1._ :.8.' E 8.0.V 9.1.7.} b ^ 6.1.y.+.( ] R H ( :.] _ ] T 9.{ v 6.w.;.` %.{ ( <.` ,.) ' R ..1.;.` ] R [ 8.$.d ~ 8.-.S S +._ ) ` _ ` D { C +._ 6.$.<.$.T ( X.>.H %.( m b _ 2._ u i D 1.@ q.H +.` :.1.( ` R d Q 8 C +.Q -.] { +.( ,.,.%._ C M { >.+._ ` m ( D n +.i q W ;.D ( u q.=.' ] 0.B ( C ( X.+.R F b A Z 3.3 E B } $.9.q.T D ~ u 3.( u / %.i =...2.2.H ' D +.q.F _ ( F 9._ ( q.( >.] ' B ( +.{ @.F ] 1.p.$.9.&.;.] +.9.X.;.` Q ` 1.",
"8.[ ) ` _ } ~ R 1.>.T E Z t D q.$.;.E F C ) H -.1.S +.;.q.] +.1.;.( Q <.q.w.*.1.<.w.+.%.8.9.q.=.8.{ ~ q.D $.q.1.B ' s I _ ,.` ;.-.S S -.;.;.{ ( n *.) i &.q.,.Q $.:.( %.] _ _ 1.R A w.2.[ R ( ( -.-.` } >.` H :.>.) +.[ ` ` ) ] _ u &.=.6.*.6.F ~ ..Q ` V / ..X.$.-.-.7.M B / ' ~ :.8 ` +.@.+.6.H M C E s i U 1.2.8.q.S H b ] :.9.+.B ] %._ ] S ` A ' Q T ( H +.>.` ' H ] @.o.<.1.A ;.V S ] H ( H ` Z +.` >.W j h 8.0.' w.} W $.l %.& 7 x h <.>.R ) ` ] ,.S 3._ F ` { >.1.' -.C ( A _ <.w.F E 1.$.*.8.q.( 1.%.,.w.,.A $.=.' %.D ",
"-.` Q _ *.R $.' *.8.+.` F d D <.C _ *.F %.B 6 s k $.3.3.0.2.;.9.+.] F 6.q./ %.$.%.$.) 5.*.$.W &.9.] 6.q.( B 6.` _ H i ' T ] 9.` @.1.S ' <.:.:.-._ f ) M U =.` n F ` ] ;.{ <.( +.E ' R 1.7.| v A ( _ <.$.<.1.;.] ) ( [ +.{ %.>._ ` M I h / U v S D i ] M c D 9.;.B ( C M A c _ Z W D s T D _ ( ` [ ~ S +.H ` n } / 9.` ` l 1.~ M / I T b H ] $.v :.B 9.T +.A ] ( >.+.' ` i ' #._ 8 L 0 D +.R F E { +.H C V 6.$.' O.L e.0.R q L i >.j n v ' u D v m F ` +.$.s 0 3.` _ %.H i _ i ` ` ] F =.s <.:.$.B m *.6.q.] $.<.^ 1.( D n ( <.E ",
"{ B ;.( -.A ] ( ~ 6.W A b ` 1.>.` :.R I ] 9.} S F S ,.T q.1.<.1.8.:.8.6.6.<.8.$.~ ( G n ~ i $.b c &.T 8.-.S ] >.9.$.>.( ' _ [ 1.1.@.' ! _ <.{ R :.7.{ T C Z 9.%.C 9.2.3.>.0.1.) ( U ~ -.{ %.=.n P | ' u s b E ] ( T <.H ] S } ;.E ( S A V ' ' n ` -.*.( u $.$.[ ) :.@.S S j ] ( Q @.A V i F ) +.S 1.A ;.[ ( F / -./ U / ( <.y.} v ~ ' ) b -.[ @.>.B ( _ ` n _ ,.;.+.T +.F ' n D q.F O.0 ;.t.>.] ( +.b A m *.7 / 6.>.<.h ' _ R r ' } ,.;.;.X.>.+.2.b V +.S R S ` D F ( V i i 1.R Q _ =.<.%.Q ] _ _ ` j W $.8.8.%._ ( +.%.m R W F ",
"T ` R $.,.X.R B Q ' 2.( %.B :.;.Q +.R _ ] ;.:.;.Q T q.R <.9.:.7.E =. .*.q.q.%.N ~ 1.` ~ W ~ a A D U ] =.q.( 8.;.;._ 7.-.N _ ' ) m _ R _ R ` ] C =.-.;._ b M &.` A $.<.;.X.%.<.,.S Q R { { 7.] I Q I %.] +.t _ ' J b ' ` ' _ Q 1.` ] R @.X.X.3.F X.` ` ( H Y W +.b ] ] ( H H Q K ( 2.] B S S S @.+.H E 5.Q ) ;.S ` ] +.} w <.,.{ @.q.N H ( E S 7.3.;.H X.Z C T 2.F A S S ` J H ~ ] %.:.@.>.R D o.{ J ` S ' <.! $.9 *.j P 3.=.} Q T _ x 8 ..j ;.' ;.M _ ` ;.> $.b n t.-.1.i -.;.,.6.<.X.q.] T 9.@.:.M } 9.` } <.-.) ` +.` Q C N v ",
",.%._ <._ ' +.( n ] 3.( ~ n B ;.9.q.$.( ' ( 1.;.+./ *.~ d | 6.<.f } $.*.6.q.,._ S ] 1._ :.I %.' ( _ T &.%.Q $.#.>.c _ *.' F ` A R C H R { _ { S %.1.>.{ 7.Q S S A T $.( ( ~ $.` _ ) H ) ] _ %.v S T _ H T +.s H ` X.` Z S <.H 1.H ` +.F +.+.1.1.H H X.` H ( D H ;.( #.8.T ] ,.' q.A { >.( F A P B 9.I U _ [ _ ) S ;._ S M 6 6.+.1.+.*.P = M T W s q.a F Q > A ( +.-.M ` ) ) %.s Z ( +.( w.] ] ] %.-.x u T s s B %.W ~ E >.9.<.$.0 ..3.q.( R 8 n ;.%.,.+.A u M T m <.t.+.A ( %.>.*.U ,.q.+.} <.( { *.$.8.9.*.M -.y.;.` ' +.H B Z ",
"A $.] ;.+.1.#.) _ -.0.D ) _ ( ] <.| ] ] ( ' a | 1.G ' C Q *.q.9.b T / $.*.6.1.;.D ( ' ] { ;.;.W 7 } ,.} V B v %.%.P ] H T T A @.S <.G S ( _ <.;.B ;.] 1.>.{ 1.] ..~ D C ) 2.%.] _ R _ ;.{ ,.$.R C ,.1.+.9.` >.' R ( ) T H _ ( ] ) ( ` X.,.<.q.0.D o.{ D v ( D c $.@.` [ i P U ~ _ C H ` ] _ C ' _ 1._ ] %.H ( H ,.+.@.2.( +.= n >.) { _ n %.| >._ A *.B &.' U t >.;.C H ) M w M R ' ` J B { _ A %.H E A C q.k -.C <.,.8.%.s 3.9.0 n g c Z F S ` <.D 8 C ' i +.B T C ` 3.7.b T y _ F q.T $.E 8.q.~ B *.' 6.9.#.l 1.1.;.[ +._ ;.R ",
";.W :.9.2.*.-.] ] ;.$.>.@.@.H ` :.] ' #.9.' D ( $.;.+.( <.$.=.' A I M $.*.+.%._ _ 7.{ ;.{ <.` ` B B ' n _ O.Q M n o.H D H H ) S >.8.1.) C B I 1.7.:.] ' :.+.;.<._ D ' ` ;.>.` ` ` _ ` ) 1.6.} B H <.{ ;.;.C 1.E ] +.) ( 1.=.1.>.;.] ' ] ' $.' 8.;.X.;.' ' +.J ( %._ E T ' ,._ A _ B ' $.$.q.V m R ( n X.:.b H S $.;.>.@.{ -.S S ,.+.` 9.( ] h R =.,.q.<.,.9.9.b ] y.9.( U X.y n D z @.<.X.o.{ C A ~ $.H b ( ;.&.' ) W j 9.R u B l i M V _ ( A D { q._ _ <.v H A 5 S ` +.+.) 3.( 6.$.=.q.H x W 8.] v =.&.~ 8 9 *.y.w.] _ >.:.S $.",
"T H ( =./ >.+.] ~ %.H ;.8.;.C Z ' ( X.<.9.] t $...$.,.+.m <.u D I C v T ' ` ] _ S 9.=.1.>.v S ] A t >.S n <.,.:.A T F ,.;.3.,.B <.t.>.>.` V ~ I 8.%.1._ 5.+.>.1.>.-._ M ' $.( ` ] >.:.;.@.9.*.C i b ~ ,.>.@.S M <.$.A $.$.X.} ' D S I ' / -.H ..>.1.D _ ~ ] -.,.[ { A S 8.] ` ] V ..D ) ) 1.=.D ..Z H ' 3.M H A ~ %.3.;.] ) _ F ~ %.T 1.Z R u t D m t.q.=.X.' ~ 1.*.t.` V x A Y V =.9.:.] F R H ] <.( +.D +.$.L i c ' q.2.9.' <.W +.S y $.) ` _ 9.8.S E ` R F ,.1.r B T 2.P W =.=.$.<.T <.D ~  .e.Q w.>.*.n W B / 6._ B _ -.H 5.",
"D ' ' =.$.R $.,.E ( D ( H D F D X.` D ] ,.3.i 9.( C &.<.F H ;.$.B A H B S ( ] ;.&.7.:.9.-.) S ( _ A $.;.( A <.$.] R c A t.o.9.) l $.+.R n ] S S ~ <.8.+.' %.H A 1.@.` ( o.%.` F ' ] ] ;.1.e.<.R b n F ] 1.{ R Q R >.+.E ' B F ` +.S S ;.X.u W =.,.-.:.T v B =.W j R I $...{ ` +.3.$.{ F D 9.' ' $.J F S ` ;.,.Z n M *.R ( H T ) X.D 3.( ` B ( ' S +.1.t.] E >.%.! 8.u.4.[ *.` J T U %.R ( F _ @.$.,.R ` b V ] A B t X.T Q q.9.<.:.H C ( ~ v =.1.A M Q >.] b +.1.T v i n 7.( j ! ;.' =.X.w.+.D T w.8.6.i.;._ 8.M $.;.( ' ] _ C A ",
"$.' ,.] H B *.~ 1.( d H %.] D ] ,.A 2.;.9.I _ :.%.-.m / F ;.;.+._ R Z S S _ ] 9.` q.,.] +.] #...Z Z d $.3.+.2.8.R _ E t $.>.+.$.F ` T ..V A C 1.A _ } ` S -.' ( ] H +.] _ 1...b _ <.` -.+.3.w._ M Q C $.,.:.-.-.%.%.3.` F J H E H @.i 8.:.C ~ ' D ) R b R _ ~ F ` <.a =.9.3.>.$.Q ` H n Z $.B X.) ) { v R [ ` ;.` { S ( _ 1.-.( ' 1.' &.R 1.,.( g 3.[ ' 0.$.W *.] =.! E r.0.>.X.+ h Q 2.9.S -.R ] B b F A +.' <.` i c F R ;.] _ >.M ;.;.` ' C =.;.R T 1.>.' j ,.i T C v %.7.m $.%.%.R =.m %.-.$.*.<.6.:.t.:.V T y.+.{ U 6.) ) ( ",
"T ~ ' / $.B B %.Q _ -.R F X.A I ' $.~ q.q.1._ ( 9.+.( n ( +.>.J ' W C S F E %.:.1.e.] 3.:.;.9.+._ ( ] A { %.r.1.( ] ) C T m ] V ;.+.] w.%.Z V n R T ' X._ <.` S _ ,.<.1.R @.+.H R ) ' _ ] >.@.9.*.M m $.:.q.S R A $.:.@.S -.` _ H C ( F [ -.$.H _ D V v +.v ,._ u ( s 8 8.] M / %.q.y.X.Z R C ( ( ] F T %.,.9 ! ,.] +.1.] $.T S $.A V ..+.` ) ~ b ,.,. .%.T ' ' A <.v 8.w.q.t.t.R V ~ ~ 0.>.+.` -.T H T +.,.M $.+.D M H b m T T a j u 1.` [ -.<.d.0.R C v _ @.] ;.7.F n ' R j B &.$.,.%.' ] *.%./ } 9.6.7.N A P q.u.] [ ;.A S T ",
"$.R X.( F ) F ' ' } ] u D ( E $.b <.$.1.1.*.1._ X.3.>._ 1.3.0.q.7.,.R G V ' v / B 5.7.w.0.0.{ 3.<.>.+._ 9.q.p.t.X.X._ D H +.R I O.#.m ` @.8.A S M S O.q.] E ] F ( ' ( ;.>.;.) ` ] ;.` ( S :.O.<.1._ v c d ] >.` H R 1.) _ { +._ ' ] _ Z H ] F H ( ( 1.P v B j F ( m W T R T M $.' ,.>.] m >.Q m C E ` j W D H F ] A l %.( :.:.I <.) ] M C ~ W Z i *.y.b q C *.7./ =.8.N -.3.w.w.` H ' -.9.! >.@.;.` H ) j 8.6.1.#.D ( X.( q.>.A T ] ( + T :.8.<.w.( -.b D ;.,.2.P ` -.1.( D & m 8 :.R *.] B Q %.R W W 1.( q.' T 6.1.{ 6.1.-.( N ",
"+.,.<.$.E ` Z R ' B _ } ] S n _ C s :.' %.*.+.b ' :._ ' :.0.p.1.;.3._ ` S ( ` Q / &.9.6...w.w.9.1.8.-.} / q.q.p.q.@.' ( +.R T B *.D { 2.+.o.+.D +.9.1.q.` ;.E _ X.` B 1.0.2.0.+.) X.$.b F ` +.3.' T A B S _ i T A %.9.;.-.-.@.1.` ` _ R S ] J S 1.>.] ' / n j S M ( _ P :.F +.] ! ( n ( ' ~ H ( ) F A D ( A ` S T 1._ 8 =.$.S S ' ,.D -.' q.u 0 j &.<.w.1.q ! ' / a U R 7 V U =.@.-.X.%.{ E _ =.H s ;.m ) >.T q.y.q.V ( ( 0.) <._ H ` _ M A W *.~ i D _ A q.( +.H v _ ,.<.N *.0 ~ %.<.8.V T ( U _ R [ $.e.<._ k i a w.R %.) _ ` ",
"%.%...q.B H A F j c E $.C Q V T H Z T E T _ T f %.q.] _ $.=.y.3.>.;.:.{ A 6.` *.n 0 Q *.' 8.6.q.b 6.' T Y ~ <.p.r.t.` ` 1.} S B W H H 3.O.O.q.*.:.{ w.1.O.H ( ` 1.;...<.<.&.%.1.t.t.` D { $.( 3.+.>.$.T A V R Z v U +.` v ~ :.~ S R ) ) F _ ` ] ) +.@.3.%.$.u T C _ S 2 $.@.>.{ X.B n D 6.<.u F ( X.) +.` F o.H T @.` B $.%.I T ,.{ J O.*.q.E Q ~ L I 9.1.~ p i ,.R ( R ( B i T $.,.$.,.-.8.Q ,.( -.C b C H 6.e.( M F ` $.-.~ #.#.{ V V R 1.j a v >.v A b v @.F b ;.b ,.g $.u ~ i B D ..v ..%.n v 2 &.~ C q.2.9.%.-.q.@.' ( ` X.",
",.$.R :.-.1.O.` H q.O.` T R ] E >.` 1.( ;._ } i _ $.Z ~ S ' W q.e.e.1._ E -.,.-.A D %.D &.*.8.M H D v c 8 i 6.6.y.w.` ;.( ] ,.A ] C j =.%.9.p.+.( } =.q.:.H =.8.q.%.7.7.-.{ ) H 9.y.3.1.E 1.F 2._ >.q.=.M Q S S F F $.H A E I x 1.] ] ( ) ( ` H F @._ -.9.,.T <.T J F F $.>.9.` q...9.D ' ( +.+.' @.>.>.' ( 9.1.w.:.` $.*._ >.R +.:...P =.( +.Z Q _ ..q.X.$.~ / { <.%.H ( A A B =.@.T +.` M *.w.` F D S ;.*.$.*.S _ F y 0 P ^ +.] C [ ) %.,.;.u :.<.C ( F j C ` ( C #.b q.Q <.V H ( F j v H 8 A F A b j i Z t.9.' 6.~ E *.` D S ",
"X.( +.>.%...%.3.+.@.<.,.E _ *.,.' >.q.Z ' 3.~ F $.] R ~ 9.,._ _ W 1.;.R / $.9.F A B  .F L / 3.( ` H ` D B i &.q.<.0.( @.+.( T ' ;.) C b v <.%.>.C U $.*.9.H $.I =.=.8.9.-.q.q.] 7.9.#.>.0.=.w.3.%.,.( 6.9.8.T A +.( ` ] 2.X.6.' T +.) ` G @.[ E _ :.>.` -.,.' / C :.1.D 7 9.1.3.+.>.-.H >.F D 2.` ` y.w.w.t.q.W w.] ,.T v H D $.<.6.D / N 2.{ ) B R M 6.0.>.Z ' 8.6.H C _ F i A $.F Q ` O.T 7 j L ` @.( ~ 8.( n 8.T F u ;.S V ` ( _ i i =.0.#.M r ;.A S F F K H ) <.' ;.2.p.q.D $.D _ ' ` ) = Z H ( w.>.0.B F a ~ 6.,._ M _ _ _ ",
"] X.~ :.+.1.1.%.X.` ,.H D $.*.w.$.w.y.;.q.0.;.F ' H b ~ *.F v i ,.<.2.E ` ~ X.` ' ( { E i V T D ` o.-.` z n W 8.<.@.` ,.3.' T $._ R 2.` D n B >.H C $.{ ] Q ! } D m ] %.X.b $.$.%.<.] ,.| D 6.w...X.X.*.H 3.*.n U Z { ( 9.:.9.3._ _ ` F ,.T 3.` %.] ] { -.<.*.T D D { H 8 8.9.( ' X.q.=.%.C J C q.<.8.8.8.8.q.8.w.q.S +.E M R Q B ' ( a W m ;.' q.' T D 0 0.%.E ' { @.` ;.[ $.C q.;.H +.v S F F d ~ ' i L ~ n 1.7 ( F H A _ H v C F T ( l A Z I _ ` S _ j o.+.` m %.N _ 3.w.[ +.M ' ` D +.1.T 7 <.*.' ,.%.9.( u ~ ' ] S ( -.] $.",
"A ' %.0.W R E q.T ( 9.D -.8.%.q.W <.] >.y.9.1.` ` Z g / ,.>.' j W q.u %./ q.0.t.F ' Q w.+.] A _ ` +.$.' B V T *.$.A C _ +.#.( =.$.9.*.+.] n M $.{ Z ~ V ;.` =.A 8.] D *.3.] ' t a l &.6.6.} W 1.+.+.,.` X.[ q.F V s $.-.@.D T +.) 3.*.( _ S E ` A 1.%.` +.q.<.$.8 d i A =.i q.>.9 U >.2.H <.] ~ =.0.*.=.<.*.U %...9.;.( H T ( j i / ,.+.i i $.~ q.R ' ` ` > Q 8.7.t.#.;.1.1.;.%.w.0.1.D 1.Q i O.W ' D B <.H 9.F ~ ~ i >./ { <.E H Z F x _ i d ] _ ~ V m U 0.0.X.,.' i F L W l W ;.B m @.H H ,...d H B E 9.w.>.+.( ` b T ( M ( ` ",
",.F ' ' m ' -.6.F C W Z %.8.<.W *.A 7.%.8.[ ) a -.H %.> ' 1.-.C 8 w.@.u B l <.t.' $.:.:.e._ ` V D F ` X.<.A i V Z _ ( ) ` ` ..v z L D 3.R _ V ( J 9.W _ ` <.9._ m S ] ] 1.>.D u n i T W M ' Q ' @.D *.T F ] +.S ( P ..] ( Z ) +.6.S 1.Z >.) ( ' ;.;.' ` [ <.~ J %.$.~ 8 1.D q.R F { / ` H <.<.D $.*.<.=.B 8.H =.] _ j 3.Z A H ( ( i Q ] H s b $.] ( D _ n U i { Q &.*.y.4.q.q.8.9.1.1.R #.<.+.F ( ` X.$.~ A ' 0.q.8.j $.] 6.1.] S ] ( Q _ ~ :.:.9.0.' T _ ' ,.0.1.@.#.: h 7 7 @ 0._ / i H C 1.` i B >.1.3.y.( J H ;.;.Z ( %.-.@.",
";.H ] $.$.l $.R 2.w.e U ,.$.8.} ` A 9.v A 1.9.i ~ >.( j 8 %.] _ D <.) -.~ Z $.' R =.X.@.w.F n ..F %.+.D D +.;.1.>.X.( H V D ] ( >.+.B V #.;.E { n ` ( >.6.1.` ] ~ A E Q q.-.+.( +._ h A ~ <.[ %.@.] %.b S H ] X.( %.,.2.{ G ;..._ ] ) H V A ) F ] ;.@.+.+.<.<.` 1.>.' M &.q.0.+.( 9._ { B ,.$.b Y &.&.8.( q.' n 9.J W D ..D ( ~ ) A ( _ G %.S $.l n B u i s *.=.$./ W $.=.=.6.6.w.] H ( ) H +.A ( t.] B ( ( A =.9.0.T u l 5 ] +.[ X.E v Q F 3.' S 1.n C ~ W ( m X.+.] t.' @.F & ,.2.1.b 2.P j 1.<.A 6.6.=.<.u.F O.F -.] [ H -.;.",
":.>...` 1.3.B *.,.1.,.j / ~ %.( J ' T R A -.-.1.l 1.3.~ #.3.S *.<.0.[ 9.D <.! ) ] B $.T y.w.<.` H D 2.] V H <.R ~ ;.( H T T b T e.y.@.;.' m <.] ( F 9.E _ _ _ ` <.A D ' $...F ` H T E D ,.] _ H F ,.9.B R 8 +.>.D n ~ <.;.-.n A 6.[ ` S ' B ] ` _ ] @.+.3.<.1.) 9.9.V A =.w.` +.d 1.) ,.H } ] ` j N 5.&.*.1.H &.' ;.<.C F ) $.( _ ] v E Q [ <.8.<.@.] R C A &.Q V D %.W T / W &.<.q.*.1.n b >.( j 9.R 1.+.D v b A >.A F T <.( x O.O.9.X.n l D $.r d ( 1.D H r R &.>.D ( Q B ' A W w.{ n I Q b %.;.,.&.U $.1. .y.w.+.1...C :.| ` ",
"R ( w.F ] 9.-.} ~ ' :.Q 0 ~ 6...{ W _ R v q.b 1...$.>.' v Z i U %.,.9.3.0.q.@.+.n w.C E 0.3.2.( H ) ] ;.$.i ..( H ] ' C =.' ` n  .&.w.V *.c ) B =.8.R ( X.] ' ] %.( T 9.....` ( ` ( ] >.,.) C 1.3.$.V / ' [ 2.O.' v m / 9.2.] >.[ ,.F @.3.;.] { ( H +.;.7.S C ( ] +.R $.<.' H ;.' N -._ ( A n ' N j / R N / @.Q ` 1.( 1.,.H q.8 Q ] $.y C 6.8.+.q._ B A %.S ~ %.O.T i l ] S v *.&.A S ] E ( *.9.c S u H F ~ +.O.T m _ k 2.9.O.C i } ` ` ` a X.B 1.@._ ' V >.:.n X.~ ,.i =.=.9.b X A 1.X.%.*.h $.6.$.p B m Q ' T $.p.t.q.] s :.] ",
"i =.6.} 1.X.W %.i ` %.:...j B %.$.' ` %.B $.7 A $.v q.%.,.C ` B n $.1.F ' w.1.' ` 9.3.6.W T q.( H 1.T _ e.e.i ( ` ~ 1.G 1.H A _ N } } { A S 9.>.R H ( ( S P >.b { ,.*.{ _ ,.H ] F ` ' X.' 0.] ,.q.%.=.%.V ` X.) >.) V C *.e.e.2._ +.) a V B b ] +.A _ O.:.] b F j 1.R $.<.` { :.+.D ( *.w.R ) ..' v A = D H <.3.;.@.O.+.( ( ) 0.2.q.<.Q v / q.( ` / Q Q *...v >.D T R X.x l >.M ~ _ F ) j n *.<.Q u A ` ;.,.E { 7.~ B h $.j D ' : %.0.0.$.D X.=.T 3.@.+.;.R H F *.9.<.v > F X.B x o =.M ;.q.' =.=.E ` S A i B ` ' ~ q.i.{ u } v ",
"A 0 ! ` ' %.>.{ S C ' 9.:.3.i Z 9.:.R R <.B ( T _ v 0.0.>.<.A ( %.#.N Q 6.W T S ~ <.q.+.` W ~ X.T %._ %._ ` w.w.6.` ;.L $.] _ s T u Q A C q.b 1.+.V ' 9.+.' { H T A 6.+.1.-.S T :.9.%.R [ ( ) ;.<.6.%._ <.B ) 1.` b ` b A l 6.~ ` ] [ 2.q.,.S R F _ H { >.1.-.C R | 6.6.q.` [ D @._ D  .' ] H ) X.( S V C D q.9.1.[ >.>.( X.;.( F F +.' i P <.] <.] ( M D ( s R ] n Z 6.] b A ] ` J ) ] ` Z %.( 1.b W a D %.) ( %.w.q.>.B 3.,.$.! F u 0.X.,.<.$.<.;.<.+.R M B b U =.R Q W @.,.( A c M 3.:.~ %.$.,.W S ;.Z Z C } _ *.=.6.<.O.` 1.",
"<.` ,.Q ` _ { G +.%.$.q.@.9.1.n =.%.+.v v X.g h Q R -.>.R 2.b <.<.q._ ( A Q >.E / ~ $.9.W ` -.] @.w.A 5 1.m *.W ` ,.%./ ] I ( *.%.H -.A ' b I ~ $.( H ` <.H ;.{ ] _ M >.[ >.] <.' X.( ..<.' S ] %.q.( &.-.p D ;.` @.S H T ( F A H O.X.+.;.1.( ] [ J ( ` { ` E ~ ] <./ =.( H A ] >.>.A n >.0.@.;.;._ F ) D W &.$.;.+.@.9.7.X.3.S 1.M F Z b m a $.F q.;.>.] Z ,.( 9.( V ,.' ( _ :.+.S ( ( H n $.y.q.<.q.~ :.D V ,.S W | 9.8 M 1.q.R w 9 X.R ~ ~ Y $.$.Q B ) S n F H ' o.` t _ X.F <.Q Q % ;.q.' q.l u A J ` S S P _ A ^ ~ ,.] { ` ",
"<.) -.] _ @.+.` ] ( ' ( Q X.q.) $.h l ' T 1.` A +.` T <.3.>.S &.<.-.%.H :.1.>.;.<.p q.9.#.+._ ] 9.T C >.d ` T ' &.<.' C :.{ _ R B H >.C R _ -.R ] [ -._ H b %.S v ,.-._ ) F -.) 1.' S { 9.$.*.<.R c B T ( j ] _ 9.( D F ( ( ;.v ` >.{ +.@._ X.-.{ H _ ] S +.;.T ! *.B _ ] ` H ] q.+.+.2.i 8.9.` >.;.( _ A $.' 1.R T w.3.] A 1.*.` ` F H F R ~ $.=.>.*.*.Z M { ] ;.#.D ( #.' ] ] ( G D { F ] 9.p.y.6.' %.,.+.( Q ' P $.A 9.9.W i Q q g +.=._ Y *.L %.M 0 $ m T m ..R 9.9.2.%.X.3.3.9.] j T 8.v / _ H C ` { f %.S _ &.' ' ..~ ,.-.",
"] { _ ` ] X.,.( ..] %.M _ ] ( ' $.H 2.u ] 1.@.A 1.%.+.X.w.q.n ' _ 1.T _ 9.1.s } <.H ~ y.6.>.-.( $._ ] ` ' %.N ;.i ,.;.( A ' S :.X.v ;.M <.' M q.1.S f ;.) Z +.M ] _ 9.` C %.9.+.] ,.d =.3.$.q.q.' >.M y H T i F N ..U ` c F X.] 1.%.:.7.o.S ..` H ] Z *.H _ R ( =.$.%.&.W +.0 ~ A 3.X.@.C ) ( ) ( 9.D +.F M &.( *.( *.9.9.] 0.( ' %.Z R F ' ( ` n H ] ..' 9.,.8.q.3.:.3.y.;.1.1.' b A A C &.<.~ n { %.~ +.` V Q M ~ B 8.%.~ ..T W ` D E ' B U 0 %.] i $.~ - Z D $.8 q.2.9.*.b 2.C $.j % U ~ 1.;.%.C V Z +.Z T ] 1.1.R =.,.i 1.} ",
"1.` ~ W 1._ ] -.:._ E ] ( S P _ H [ ;.0.-.W ' %.q.-.:.E *.e.R $.] $.,.E 8.] 9.A Q 9.=.8.,.,.9.Q X.t w ~ B } ! N A T Q _ 7.8 _ F M +.$.+.,.] ( ' a ' S ] T C ;.6.{ A ' :.T ( T H S ] ] +.>.#.>.' ] b B E M ` d G F _ >.-.` n Q R _ %.' -.;.#.( ( { :.9._ S s A P %.8.=.@.>.` C } =.$.~ :.%.F F _ %.` A ] @.Z p %.:.-.$.w.' L Q +.;.' X.` H ] D <...{ q.[ v U $.Q $.7.%.*.w.` +.{ +.*.>.D q W T v ] W ' *.<.+.M 3.h i T w.U w.0.j v ( { :.C +.( X.#.+.,.$.1./ i < 9.` B ] <.+.( W 0.q.' S q R { ` { S R ` B 3.N $.%.=.! $.] R *.:.",
"_ q.,.S ' V } E %.v ~ X.q.+.J H ] *.3.w.0.W U E $._ ( Z %.R i _ _ +.] r 6.;.;.C &.a S a 2.1.3.{ S 9.X.*.l b T >.<.j C i _ E k S ,.1.H ;.0.R / @.T _ R ) -.` >.9.:.<.` 6.3.] V -.X.' ( %.1.H S 1.( j Z R H P ~ o C D ` ` H F ( _ E S u %.+.;.@.1._ { +.X.6./ u B *.u H %.( X...d X.` ` B X.%.` ` 1.H H +.H @.A F L ,.' ,.:.;.%._ 1.` +.%.9.R F ] ( ~ T -.n *.%.M M $.$.=.y.-.+.) ;.` ` ] ] ( ~ m a ,.~ ~ _ H ` H F ` D %.T 7 q.m b A <.<.3.F j H Q #.q.R X.2.T B q.8 ~ c ' H @.3.1.u #.D 8 D -.+.M >.A =.@.S $.A %.,.,.A =.b } P ",
"-.' 8.:.1.S _ <.b $.F T 1.1._ $.%.,.&.9.w.w.> a W W c $.9.w.] ~ :.,.1.$.5 } } 7.,.+.` D ~ 8.M ` >.;.2.0.,.Q - 3.y.q.,.T i A W ;.E H U =.8.;.T R 2 R H -.H v 6 B ~ b _ P p.>.2.@.7.T V C _ A E ..>.B c F ;.M H d v H ' ` H D ' ` ) } j ' <.1.O.+.+.1.E ;.<.} T t $.( H H ( +.9.C :.! 2 D 1...1.` A ` S ] ` 1.+.( S W k w.| _ M A D H i @.R R B =.m _ +._ H =.t.2.6.v : ! =.w.w.[ S >.7.w.{ B %.] B *.%.} _ M H ( H D 3.v H ( A S @.D ..X.$.@.>.F Q X.*.n C S l ~ e.<.} 0 T T q.b ~ &.] X.,.( 2.#.' >.b L <.H q.y.;.:.:._ i n $.=.",
"9.] <.X.,.V _ R 7 2.6.] 7._ { ` ' 9.6.=.8.0.@.B m ~ X.C X.n 0.+.b N } 9.<.8 8 Q F @.( H ,.w.) _ ,.T @.3.~ ] %.m 2.#.9.3.W T H Q B U B =.q.3.7._ ` D H ( =.( ( ( C B M $.7.0.q.p.<.V D n ( ) ] 9.) 6.>.D 8 q.U c S n -.1.Z j S n { A M } 9.:.9.1.>.3.3.w.,.X.E u $.n -.F $.) 9.3.S 0.;.;.$.3.( R ( >.] H _ ,.1._ M R ' b ;.H n B ' A D <.` t.;.>.S _ ` *.A =.w.9.X.%.W w u &.%.N h 3 *.0.2.Q _ ( ` _ ..B E A i E C E 1.T *.S >.C u Z <.0.y.( ( ` @.-.F <.n R A B ;.3.t.B m ~ 8.3.i V %.' ,.1.{ F @.H S > C d } ,.q.] _ +.` ] <.` ",
"} 6.` ` ` +.] ,.P =.' 1.+.-.>...} <.&.' *.0.t.0.3.D  .8.] R %.=.;.S G 0 n m >.a N %.8 x / <.+.H 1._ %.3.>._ H b ] _ 1.2.{ m m W h ' 8 =.$.9.R S ;.B -.7 9 ' n *.H ` v N $.$.8.t.>.>.` R ` >.0.q.8.,.;.2.R %.H i ` ` j Z :.r...v f R C d } N %.:.:.{ 2.@.%.=.$.~ ~ H S q.1.;...%.Q X.q.B R ~ %.] X.;.+.A _ S -.S +._ S 8.w.:.( ;.1.1.M ' 9.9.8.3.1.1.C ` a &.<.$.t.] C i w 8 >.:.,.n b 6.%.E A T S w.) <.<.x U s A M _ ' ( H m M r v Y ! N t._ ` J 3.` q.W n ( W 6. .T ( i ( -.c 3.:.A P $.y.0.4.4.` J H A ( w a R ~ 9.1.] ` v &.",
"S ,.,.` ( R ] ' ' E ] ;.u %.} X.Q =.8.E %.8.9.1.q.3.,.8 X.F h l 1.1.;.1.b _ B ] D ;.;.i F n ` 0.>.X.Q +.1.` _ R { Q _ 8.D ' >.b A T B :./ ( B ,.C N n E _ T <.@.R H Q _ s A B 8.O.( ] ' ( ,.0.0.:.q.' >.-.] 0.2.A 3.I ~ ~ 8.H ] 1.v { E b s $.7.W %.` ;.3.] ~ T ` _ Q ~ [ B R ,.b =.1.+.R T -.<.#.O.` H C C ) +._ C W ^ 1.,.X.B 8.>.] $.*.} <.5.q.9.X._ m a 6.k 9.3.1.,.) n g N $.:.*.&.*.>.` n U 8.( @.1.*.$.$.H [ { [ E A i _ ( H ~ <.] Q :.( @.X.,.3.+.;.X.8 7 ~ < B >.i S H A ' ' $.8.q.3.T j +.C C ( n F M ( U $.F _ ] v v ",
"&.:.] ( F _ ! 9 ,...' Q ,.q.+.U %.} 8.` ! ,.8.=.$.%.<.] %.) d M w.R 6.@.+._ ! R v _ ;.` D Z F 6.0.0.T q.3.S A _ ..+.{ ~ _ *.~ g b 0 n D B $.E 3.>.$.] F ` D ` Q S %.F C ] ) 1.B M X.R _ u ' D F %.&.H ` ` M ( / 1.W ~ ( n _ 2.@.I 1.' S M ' ] ' } R A ` { *.i ;.1.$.H F F F _ %.v L +.%.R :.~ A <.' 6.7.H D ( D N m B S %.3.n V E q.T ^ <.T ' *.<.q.[ A A ' 6.*.*.#.J { A X.%.%.M a 8.} +...) R j +.( <.u D ..+.7.3.C F 1.C ~ S J c h :.9.;.T ] D F b R 2.%.>.v ' ..i v i H H ) B :.! =.$.%.1.$.' v 9.<.` ) X.+.S ) >.+.( V S b ",
"u %.` T ,.' / =.B ,.1.$.<.] } E $.C 8.S 8.%.%.1.( H q.w.( +.C a h n n v D :.1.D { ( ` n H D B =.9.' m 8.1.1.@.> $.A M 7 q.] H j H 1.m B D F ,.) _ 1.] ,.A T n F [ A A i S ' ' A ,...>.+.n ] i m ' _ S ( d B F ( ` #.j 1.9.] ( [ ;.' ) ( _ ) _ S ' 1.w.' ,.$.] :.R j P X.T _ S R _ B $.' H 1.v b 5.] ,.s n H ] ` C R _ u >.>.Z ' W 6.~ B 5 v } &.6.3.+.H ] F R 6.=.` +.@.;.R ` ( v $.w.9.-.F ( A R ' Q :.1.P b H ;.H H R K T ,.S F i @ ~ 2 $.] *.@.D F A ` %.m <.%.A %.$.A +.D i ~ 8 Q } | 9.` >.:.D W _ E ;.T O._ ] t.t.1.1.V H ",
"` T  .3.R ~ ..W B q.$.P $.] T S H R u ~ ,.( B *.W R $.t.w.A n ` ;.D @.( n +.W ( w.J ( n @.c v  .H H i l 3.y.>.b n ( M +.v >.;.F s C i c ] D :.9.u.-.t.2.` T u V <.;.A c B j ,.Z i ` 8.>.{ ' ,.] O.v A S ] F ~ Q ` V ] $.' ] { R *.;.H J R :.-.;.D @.O.w.q.T =.%.t.y.{ A ;.` ` H H A 7 $.R >.X.( } Q _ ;.| F >._ f S A B } T ] V <.W ~ } Q M Q <.B -._ -.S L 0.' R F V :.+.@.:.%.v $.q.-.+.F .._ ' %.b X.( D b r <.y.#.+.C ` F [ A C 5 S 7 } $.T H ( ` D >.+.9.q.0.q.q.' X.q.) v $.% i / <.q.q.9.>.m ' R >.:.` ( B *.<.q.2._ _ _ ",
"$.b $.$.8.T v W ~ <.A W ( R ) A :.6.j T T B P ' X.1.H E *.+.I T 8 ( ] T ' Q ] $.U ;.n ~ r._ ..u D ( S d 6.0.t.9.) ) j B 1.@.{ ( F M D B T ' I q.$.A +.p.' <.Q H B N $.E H ] ( +.@.m 1.*.T D >.9.m T ] ' I q.n m A 8 ~ %.W 3.%.v B ] { ;.V 7.C b D ( ' ' ( T U / ' =.] { 8.1._ ` ] 3.9.0 +.D >.` v _ ] A H ( ..0.F N R T n R _ A =.y.7.S Q ] 5.E ) R >.7.@.( ` s H A b ' ` J ` ( b m ( _ ` %.,.] ) ] 8.@.;.D Q b / 6.-.) H j [ ` ( $.2 W b ] S i v ` ( F ] @.-.H R t.w.W $.N +.T 1.b ~ *.$.q.F w.' v _ q.~ 6.$.<.s a ~ 1.w.1.1.F ",
"H ( B ~ $.0._ b $.;.H +.b 1.( D $.q.] %.' M c Q =.R %.D ] >.b _ ..>.j h E ' 1.{ c :.u ,...t.3.2.c ( S Z h P ,.( F 0 ( T b [ 2.[ $.' b B l ! z ~ L W &.$.p.0.P ( v X.S S H ( 3.+.B A &.@.' D E _ S M ) @ A S [ M q l ( A X.%.1.3.E A R #.1.;.1.] +.' ,.Q B ` c W n v >.7.e.y.+.+.` >.1.;.-.8.q.3.F ~ ] I ` ( { >.9.R ,.$.' S R s ( q.1.1.P %.R H S _ | 7.[ >.1.-.>.%.S ( 9.( ) 3.( +.A _ @.3.' ` E <.,.>.q.' n Q R S ) F ` S C ( F ;.@.<.F h H ] F c @.J J >.i H 3.E 9 <.3.E Z :.B +.+.:.,.T =.q.8.9.9.6.q.&.>.' ( A c I <.<.q.S ",
"H A S ~ ~ $.F b u ~ ( D ' ( ( V $.<.<.9.E -.C ~ ,.' _ T { b ~ q.c ` ` H ,.v X.W $.1.A X.=.<.N ~ ' ] ( b 1.( q.$.S { ` ` >.+.F J 2.%.F ~ ! ] :._ 1.n v =.q.] >.i B w %.` ' W >.2.3.R d 3.J Q 7 ( _ 8 1.b ' E _ h ] S M D H ` T 1.] n ' 8.=.+.X.1.b ,.%.,.1.B v D 6.A *.$.8.6.i._ / <.8.( E ~ 8.e.>.2.{ ) ( _ ,.@.>.F E ' ( H ` ~ q <.<.T 5.( F H T %.$.9.;.( %._ @.1.D ,.t.#.F q.] _ $.] o.>.H ] M C ] 8.%.:.[ A J ` F ` ) n H A A _ ] >.) 1.` 0.' D c m %.D b ) = ' T b u W ' T ~ T %.1.=.=.$.<.` } %.<.&.} e.] S A M y E f _ 3.",
"q.#.+.=.E u b $.` T B _ x H -.c 8 ~ B _ :.b D %.Q ( _ ( H ~ ,.X.b B 0.,.T H ,...T 8.S ~ ,.( X.b $.` V { %.S %.@.Z %.B B 1._ ` ] :.W S P N A ] ~ Q +.i I q.q.q._ R @.X.` ;.S P ( A ( T ] _ 1.$.n C ! L v ] ) ;.' Q @.] ] ,.D _ :.H ] ! b ' ` @.n ~ q.$.R +.$.b $.M ~ 6.i *.<.7.9.) ( ] Q ] *.q.q.1.1.T b i ~ A ;.` ` ' T H ` ` H A %.,.b T ;.S H V A r p &.~ { ( ~ ` ) w *.{ H B *.+.F ' ;.O.1.:._ *._ $.>.>.H H >.[ ( Z ` R +.b C +._ 2.1.i N N 9.0.0.%.i ! 1.~ ) ^ A %.V W ( j l &.*.^ =.m ( Q Q <.q.7.b ] w.7.[ F ' 8 ' | B M ",
"i V n n ( <.v D ( m X.@.>.+.B ~ 2 B ` ] A T w.>.O.@.H ' 6.n ^ N D -.=.8.B B ,.( ` / $ D ( ` b R Z Q T u y A B F S M 9.Z ( ` F D F @.M n Q ` <.S F T _ ~ 6.7._ _ >.%.F v ( v S V %.$.O.~ ] %.D F S R ] ~ 9.` B $.( ] ) -.S ,.$._ %.g M ( D +.[ ,.X.n >.@.<.' D ;.b b a -.&.P P E ] <.` *.*./ 5.6.8.:.T ] T b H ] +.+.X.-.( ( +.] Q S %.F v 3.2.{ E A ` <.T 8 @.( +.,.$.i a b _ S _ { ;./ >.>.q.>.0.` T :.$.0.{ >.$.` @.;.D { A @.` _ ,.=.#.r n n T $.>.%.' B 0.>.j ' E 3.1.8 $..._ A m ~ v A 9.r W  .8.v h *.>.q.@.;.B ' C R T 8 ",
"_ v D ' ( R ' ( +.E X.q.' g %.F ( b &._ ;.S P 6.8.*.l X. .3.B E B =.<.C 5.F ( A H A n 2 { ..q.X.@.R W ( Z b S S ( S ,.F @.+.X.` n b B ~ $.9.u ( o.` R i 7.%._ R $.' Q %.:.b S $._ ;.] D ,.1.*.R c 6.-.S H :.S i n ` ~ ,.-.v ' H -.%.Z A F Q :.,.i ' B B j ( m ] -.T 8 / B -.A ] :.M ~ %.1.} 1.1.9.2.;.O.( %._ _ { @.H T +.S ) ,.1.] :.$.Q 8.w.t.{ ] ` +.( _ 7.( +.3.1.$.E A ` J I T +.S L ' >.1.;.<.~ 6.,.6.9.@.>.( ( ` { H R F >.Z $._ ] B ( j j ! >.q.$...&.U >.1.q.3.u.c W ..9.y 0 F _ q.' 8 n Q ~ *._ &.~ D R >.| _ v ` +.%.",
"S D i ( ) D Z T 1.=.' *.<.2.2.;.{ +.` T =.' $.=.0._ T A 7 T 1.) j Q u g q...E H Q ` ` T 0 %.e.;.9.;.) A ` C H 1.K D A D +.( ] H @.:.F T 8.q.>.u M v T V =.E $.v T T ( T t { A $.W 7.>.w.-.D m Z ( +.` ~ _ 8.X.E ( ,.] -.B E I S 4.w.' V $.3.>.9...~ W :.%.~ m 3.;.X.E ~ ( D ` %.] ` } &.q.%.q.*.X.1.t.@.=.:.Q ;.:.+.+.' ;.W { >.<.2.1.] 8.6.>.q.;.+.` ` S E 7.#.:._ 0.q.:.F 3.>.9.( B ( $.E _ ' $.,.} b $.' X.o.H ] H { ( H T T B E 1.H ,.1.1.~ i i B x W ~ &.v &.! &.Q q.W u i _ 2.9.W  .=.$.H 8 6 a M Q H 0.R -.+.0.>._ F B [ ",
"R >..._ { ` ` i D *.3.! <.9.>.<.{ <.O.6.3.+.] 8.<._ M u i A *.@.;.1.Q 8 9.;.' D ! y.` m +.+.q 2 _ X.+.( ' ] :.` +.V ] j ( ] @._ ' q.R n ~ 6.q.+.H b T U E ] S _ F ' v 7 R M P T S ' w.>.u.1.W n H 1.S ] +.l 1.] ,.W ' 3.$.$...s 8.t.:...E %.` T 1.E ` W X.1.>.<.>.1._ R ) 1.] u 8.] ' T Q $.5.$.5.q.w.9.X.A %.' +.H @.Q >.F ` 3.+.v <.%.8.6.8.,.<.' R +.B v E T ) _ _ +.X.) A q.3.` n Y E ~ A v S 8.' ( <.~ q.' #.+.( s ( { Z Z ;._ ) A q.@.[ | +._ ' j ;.m >.v u m D Q A p.*.q s ( m R v N q.( =./ c ( A ;.=.' b ` q.q.] [ 1.] ",
"V V A E n F E Q ] } ' 1.$.]  ./ &.w.w.=.9.q.*.e.y.[ _ ' 7 W D T q.t.' > 8.2.;.b U $.1.0.;.H B A ;._ F S B 8 =.` ) ( n S F D D A B / [ *./ ..~ y.] ` M %.{ H n +.+._ ;.,.-.:.V D i $.P %.3.$.' E b } A B %._ 8.>.V M q.1.` ] n v B u t.' =.>.9.R ' 8.E Z R B %.] R ] @.&.~ ~ _ } ' Q _ S E Q $.E T %.8.@.A E _ %.` J T A ] 9.) D R F / =.%.<.$.*.k O.( H ' ) 9.] 9.[ _ _ F >.H Q ..H ( F u 5 B V b V ,.$.%.! ,.y.[ %.A H n ( V D U +.` U 6.@.{ ) ] @.P T ~ M Y %.9 %.b l 6.=.<.u v n ' B 3.' Q _ q.$.:.Z _ $.F T ' B <.;.X.>.+.S ",
"R Z D ] ( ;.( B %.` ! 1.9.6.w.8.,.q.9.~ q.,.~ 8.y.[ ) C } Q ,.' <.1.9.j q $.3._ T ' ( w.Q w.0.:.C ' { D ] } y } T A ( +.F ( *.R b Q ' &.) T ( B t.X.H ' u #.M C F ,.>._ [ S +.+.,.b ] ] C ` ;.` ( 8.X.` -.w.m W 3.D %.2.t.q.7.%.+.R B } +.' +.>.0.B >.X.3.$.$.+.%.H <.%.~ ;.>.R 6.w.B $.%.F ( V E ' +.%.D R >.` _ ` X.;.A ` q._ F B V ~ W ] @.X.:.,.>.[ R <.q._ ( :.A f B Q <.@.X.` B ' Q ;.>._ v V H v :.' =.<._ F B C F F ` M c ] l ' B ` _ 1.>.T %.' N $.R B T m ; u a ~ ' @.$.T -.n q.1.1.( 0.M Q ;.h F 1.#.8.Z i :.+.w.;.] ",
"R R C D w S Q ~ <.<.X.*.~ *.8.3.( 8./ l / <.6.<.9.` ' +.E j A j =.+.B 1.P B 6.:.n n $.9.q.q.w.i.X.( %.} ] 3.A ' v A A ;.C S ~ H +.! W _ $.~ R B %.` T Q 2.%.%.S v n ` @.3.<.( %.+.A ` D ) ;.{ ` *.7.1.j 0 _ ` <.' =.$.H 1.Q c ' } ] w.T @.;.] ,.0...E X.( @.R F H ( Q ~ -.D A $.*.W +.,.' ] %.{ S H ;.{ A ] H S C $.,.1.Z n ( T F n n ] ] | 7.q.w.*.2.X.-.N ' R P $._ 9.( T ~ q...#.S ] ' V S ` ] i T ' j v A $...y.0.1.+.D %.+.B F S H ' b ' { X.y.=.i %.W u q.' X.~ T h 5 6.;.| ] } e.%.{ 1._ ' M _ E ..$.` +.) C V u ~ :.A 1.",
"O.` 1.E C v P R F $.W ( U W ^ *.{ $.b c B z P ~ 9.) { B ] E D &.<.H R 3.$., / H F b $.&.<.8.0.w.@.3.1.2.( C 2.E n A n :.A Q T F ' t A X.} T l v v { 3.( ( M H $.H H %.,.B E Z M A q.2.;.*.=.8.%.&.( 6.7.$.X.V $.8._ 1...>.1.( B $.1.X.,.:.T ( B 1.3.n ` J X.` %.B ,.A 1.M @.B D ' R Q ( _ ' R :.` -.>.E ) ] { :.) ( ~ Z E A n R A n d P _ } N @.+.0.` 8.,.Z >.+.R ] ) 0.{ _ i $.` V #.-.i _ D B ] ,.] b b c C E B ` $.0.q.` ~ ` ( ( _ ( ( J ] S _ ~ >.$.T B R } m c <.$.Q s i W $.*.y *.' ] r %.] S I Z _ >.~ ' ` 2.D D 2.S @.@.",
":.O.1.;._ ' 8 ! ) ` *.Q ! ( T ' q.{ 2.' ,.v ` ( @.{ ;.` ;.-./ $.` ..H ] R x L ] F Q ! $.&.<.q.<.H ' +.9.~ H { ` ' <.A ' ` _ ( J n Z D +...-.3.~ D 1.9.` 3.F E ] m ` T ( H H F +.T v $.-.3.%.A / I %.%.0._ M E ' _ _ ..] 2.' B ' B *.9.' ( w.>.D 9.3.8.( ' D F @.,.S ] B ~ ( >.;.,._ _ 7.' X.Z ` R S +.) >._ X.@.' ( ( @.%.@...D S n R v a m S 0 ~ *.$.R ..F <.>.C ] #.D H ( v ' q.' ` _ %.Q C _ ( ` ` Z _ A F n Z ' $.@.+.( ` D @.` D V R ( ] +.R V ` ;.Q ( $.( b ;.1.8.B A ~ A N T _ =.1.-.` #._ 1.H ( $.~ ( H E +.S %.$.9.3.S ",
"i { @.@.<.-.I S $.T 8.8.q.;.( ' 8.=.1.:.%.S <.@.@.A X.@.T ' $.3.R o.X.;.D i A @.5 U W U  .$.*.( -.J j a b A R R >.] v T ` ' A F ) F H J 0.1.:.-.] $.{ 3._ { C ( S u X.X.A H _ v D ' ( ~ B ' _ i n S { +.<.7.A u Q A ] ;.*.~ $.X.u &.( T B :.>.>.-.A ' ) H { ) ( 3.+.T ~ E ' :.9.3.;.>.$.F S +.F -.] ;._ ` ' H =.+.:.;.9.+.:.:.R ~ n H N l B ~ %.a S H ( ` ` C 3.;.m Q >.X.` H ' / w.@.%._ %.P V C H F -.F F ` F ~ ' X.>.[ >.i <.#.>.( V 0 %.( @.F ;._ ' ,...3.p.w.~ w.y.b A X T d m F _ <.` b ` P S C C i <.D A q.o.D m ( $.;.3.",
"R F T 2.@.S _ H <.D %.F ~ X.W %.( $.$.<.;.H ~ 0.;.,.R 8.A ..&.q.>.9.$.{ ( S $.T ' +.0 2 a N T ` D v @.D ( M F v D +.C D v ( ( %.( -.B F ` { D T ] :.q q.q...;.+.A B M ( ) A -.~ R ~ ~ :.-.:.A X.q.D F +.@.;.-._ M A Q 1.7.T c D j i 8.Z *.3.1.-.~ ] F ] Z >.T ] ,.b ' ] b r Q ,.q.M ' %.H b ' S ] } _ [ ` ] 1.S E w.` ..%...8.,.' 1.T 7.8.{ B =.N ,.R +.q.( R ~ 9.Q ..$.w.1.B M M ' R >.9.<.' ( ] ( J =.T v ( ] ~ ( E E $.7.{ c >.-.` H Z T F C M ( ] :.3.i q.w.p.d.u.O.=.5 P S u @.9.A *.A W 1.;.` M S D 9.$.x <.] >.<.{ X.;.;.",
"-.%.$.0.2.D D $.4.8.` ~ w.@.H m 1.` T m ,.+.( -.4.>.o.` 1.^ a *.$.9.1.+.3.<.1.' F ` ( +.( R A j >.M B u ` :.( S K ` ] >.R >.+._ ( ` +.+.] +.Z ( s ' ' / w.2.D $.} +.T _ ] S +.( S -.] ] ) ~ <.<.q.1.F ( Z B ( -.3.6.] X.9.R A T ( n $.;.m W T H Q { %.2.F ( ` T Q _ ~ ' S r M =.B { _ M -.E } H _ $.T :.@.+.;.] ` } 2.@.( q.0.q.| 1.-._ 1.;.0.( T +.S ~ ( F R H >.b ;.$.:.#._ l ,.` +.` >.0.9.%.+.A B ' i S A ;.] Q :.} q.2.q.i ( S ' ( H ` G Z E +.` A j u z *.w.y.w.H 6.*._ I n _ ;.1.P @.] _ ;.0._ V -.,.1.H d <.~ <.W X.=.3.",
"+.;.C y.3.Q Q =.%.q.w.D 9.y.O.v 9.:.q.U b i :.:.y.;.:.@.D i x $.H =.q.9.<.w.] F H H ( ( +.d ) V v <.<.,.i %.$.D @.A F ' w.m D <.J $.` >.3.( -...<.v A A 9.{ [ ;.{ ] ( B %.( ] O.` %.<.Q ..) D v $.,.J ` R ( ( ] @.+.R @._ 1.$.3.' i ! %.-.` 8.;.' H v l 9.;.S +.i T c D b W T v 8.3.F H ( ' ] ( *.) ` E ;.*.>.;.$.>.+.;.q.1.w.B ,.%.7.T A 9.1.>.-.) ! ` 0.@.B ' T H M +.$.' -.( <.2.E ' +.' :.<.0.<.0.w.$.S ( ~ +.H ' H 6.8.1.M v T A { J H _ R >.-.9.A A *.T a $.q.e.q.8.E C ;.b U 5.+.] 1.S / b #.` B V ) ,.` +.' n A E $._ $.",
":.$.<.%.9.$.$.a  .&. .%.$.q.( D w.t.2.) q.$.v ~ 8.q.] 0.>.T ~ R ~ $.<.=.q.*.@.A ` >.n n ( / B D ` >.9.] -.q.<.V X.X.( C R q.+.0.>.] $.;.:.' @.;.0.8.$.&.>._ >.] 9.( >._ .._ -.-.$.<.) ` 9.%.X.( J F ) F 3.` B ' X.H ' -.S S ] A ' c l ~ 8.:.:.q.( ` y 9.0 ' 2.H +.' :.+.>.1.H R ! 2.0.9.3.` { [ W $.-.*.D ( ~ D X.A V w.,.q.#.) ( [ T ( _ i J ] S A E E $.8.) n ~ H v q.;.2.%.e.` 3.9.$.X.A ' %.' $.9.@.;.+.n 3.V ;.1.1.6.( q.2.( H A H S ] ] 5.S H ( ~ T *.3./ l / / 7._ ] 9.R _ B N E 6.] 1.T ( R 1.` ( $.m ;.D ' T T B S j ,."
};
