/* XPM */
static char *mat5[] = {
/* columns rows colors chars-per-pixel */
"256 256 173 2 ",
"   c #646344",
".  c #6B6A49",
"X  c #72714D",
"o  c #7B774F",
"O  c #706F50",
"+  c #767553",
"@  c #7B7953",
"#  c #7E7D58",
"$  c #827E55",
"%  c #817F59",
"&  c #878256",
"*  c #84825B",
"=  c #89865B",
"-  c #8D895C",
";  c #918C5D",
":  c #96915F",
">  c #98915C",
",  c #A29A5F",
"<  c #858660",
"1  c #888760",
"2  c #878864",
"3  c #8D8B62",
"4  c #918E62",
"5  c #959264",
"6  c #9A9664",
"7  c #9E9966",
"8  c #94946A",
"9  c #999669",
"0  c #9C9A6B",
"q  c #9D9D71",
"w  c #A39C65",
"e  c #A29E6A",
"r  c #A09F70",
"t  c #A7A067",
"y  c #AAA266",
"u  c #A5A16C",
"i  c #ABA56C",
"p  c #AEA86E",
"a  c #B0A768",
"s  c #B3AB6D",
"d  c #B8AF6E",
"f  c #BBB16F",
"g  c #A5A372",
"h  c #AAA672",
"j  c #ADAA74",
"k  c #A6A779",
"l  c #A7A879",
"z  c #ADAC7A",
"x  c #B3AD73",
"c  c #B8AF71",
"v  c #B1AF79",
"b  c #AFB07F",
"n  c #B6B175",
"m  c #BCB474",
"M  c #BFB877",
"N  c #B5B27B",
"B  c #BAB67A",
"V  c #BEB97C",
"C  c #C0B773",
"Z  c #C4BA76",
"A  c #C9BE76",
"S  c #C3BC7B",
"D  c #C8BF79",
"F  c #CCC177",
"G  c #C7C07E",
"H  c #CCC37D",
"J  c #D1C477",
"K  c #D1C67D",
"L  c #D4CA7E",
"P  c #D9CD7F",
"I  c #DDD07F",
"U  c #ADAF80",
"Y  c #AEB081",
"T  c #B5B582",
"R  c #B8B781",
"E  c #B7B886",
"W  c #BDBB83",
"Q  c #B5B788",
"!  c #BDBD8A",
"~  c #C2BE82",
"^  c #C0BF88",
"/  c #BFC08C",
"(  c #C5C184",
")  c #CBC583",
"_  c #CEC885",
"`  c #C4C38B",
"'  c #C9C68A",
"]  c #C7C88F",
"[  c #CDCA8B",
"{  c #D0C780",
"}  c #D4CB84",
"|  c #D9CE82",
" . c #D3CE8B",
".. c #D8CF88",
"X. c #D7D087",
"o. c #DCD285",
"O. c #D6D18C",
"+. c #DCD48B",
"@. c #DFD88E",
"#. c #C4C691",
"$. c #C7C993",
"%. c #CCCC93",
"&. c #CCCE98",
"*. c #D1CF91",
"=. c #CFD096",
"-. c #CED199",
";. c #D5D293",
":. c #DAD692",
">. c #DED994",
",. c #D4D59A",
"<. c #D8D799",
"1. c #D7D89D",
"2. c #DCDB9B",
"3. c #E1D585",
"4. c #E5D986",
"5. c #E9DB87",
"6. c #E1D789",
"7. c #E4DA8C",
"8. c #E9DE8C",
"9. c #E3DD93",
"0. c #E8DF91",
"q. c #E2DE9A",
"w. c #DFE09F",
"e. c #ECE18E",
"r. c #F1E48E",
"t. c #F7E98F",
"y. c #E6E096",
"u. c #EBE394",
"i. c #E5E19C",
"p. c #EBE59B",
"a. c #EEE99D",
"s. c #F1E693",
"d. c #F4E995",
"f. c #F9ED96",
"g. c #F0E798",
"h. c #F3EB9B",
"j. c #F9EE9A",
"k. c #FDF097",
"l. c #F7F09E",
"z. c #FBF29D",
"x. c #FFF89F",
"c. c #D5D7A0",
"v. c #D7DAA1",
"b. c #DCDEA2",
"n. c #E0DFA0",
"m. c #DEE0A4",
"M. c #DEE2A8",
"N. c #E4E4A3",
"B. c #E9E7A2",
"V. c #E7E8A7",
"C. c #ECEAA4",
"Z. c #E4E6A9",
"A. c #E6E9AB",
"S. c #ECECAB",
"D. c #F2EDA3",
"F. c #F0EFA9",
"G. c #EFF0AE",
"H. c #F6F1A5",
"J. c #FBF4A3",
"K. c #FFFAA5",
"L. c #F3F2AC",
"P. c #F9F6AB",
"I. c #FEFBAC",
"U. c #EBEEB1",
"Y. c #EEF1B2",
"T. c #F3F5B2",
"R. c #F8F7B0",
"E. c #F6F8B5",
"W. c #FCFCB3",
"Q. c #F3F7B8",
"!. c #F6F9B9",
"~. c #FCFEBA",
"^. c #FFFFC1",
/* pixels */
"u.[ o.j.o.X..._ o._ 9.o.' 9.6.h.d.' g.o.+.u.{ a.i.+.+.B.' D.9.| n 6.i.7.7.>.o.C.8.9.~ ;.+.o.q.h.~ N 8.q.2.' +.+.D _ K.t R.C.y :.L.U.Y.o.>.y.N.;.X.~ B 8.y.7.| +.u.) 7.o.>.| L 4.K.p.X.+.] S.~.i.| ( :.X.u.E.:.+.+.G.>.Z q.o.* W E S.p.[ 6.G.S B.m | I.l.7.{ p.} 7.V N.E.O.;.N.8.f.} 7.o.j 7.M H.<. .u.9.+.+.4.@.9.2.4.9.S i.>...9.P.b.O.y.p.6.o.C.H.4.7.D...' W ;.O.N.7.O.m.1.H...3.M Y.5.` z.z.u.6...9.H.!.;.+.+.5.:.u.6.| S.Y.V.W.P u.8.6.7.H.u.>.H p.L. .{ V V :.y.4.4.o._ e.o.p.X.e.} h N.,.G.Q.T.( { X.X.n C.p.9.i._ H Z ;.",
"5.d.n T.J.3.K 9.X.B.C.L.L b.:.0.( g P 9.3.P @.i.o.+.@.L 7.0.D.p.o.p.{ ~ N ..J.) X.7.,.X.s.X.V X.W.j G >.W i.6.[ q.Z p.%.` 7.N 9.B @ Q.6.+.i.Y.:.F.L.P.&.H.7.} d.<.L (  .L @.y.3.o.o.b.L.m 1.( ) h.} L >.s.i.h h.s L.p.L B.7.6.i.E.5 u.h.4.A.u.9.7.P ) h.h.N.>.o.H @.0 6.i.| } X.u.Z G L X.{ ( F o.( 2.[ 4.S d.u.L.} p.i.T i.i.;.i.J.L.X.J.2.) X.+.3.P >.@.h.H L V n +.@.;.( ;.9.S.Y I N I.d.8.u.6.>.9.Y.S.[ +.a.2.+.7.V.u...N.P.A.Z.A.C.q.9.o.;.s.+.H C.;.u.' 5.u.f.;.+.P o.X.4.+.C.@.o.+.+.j u.[ = W.C.G.L.D.2.X.o.o.G e.7.H Z ",
"..;.1.~ L.m B %.p.N.U.#.8.B.6.B.u.i.T +.y.a.u.H 7.9.+.e.e.L H.( x +.8.S.7.) 9.o.F 3.>.g...y.{ 7.9.[ 9.^ B.} u P.o.9.t | p.0 B f ..F.J.L 8.D R.;.= [ o.i.n / e.y.e.W u.+.d. .L | S 9.:.C.7.S.~ 9.D y.( 9.k.i.+.>.} w.y.e.R.G a. .i.u.>.m 3.J.i.| 6.7.m >.5.d.( H H S. .( ,.S.o.:.b ..e._ ( H @.7.3.=.g.3.C.@...@.J.( H.2.B.q.' K J.i.o.7.u.2.8.9.!.4.o.5.o.D.N.9.V.C.C.G.) m G +.Y.W 3.u.8.{ } m S H +.>.W.7.+.y.o...N.C.u.O.S.S.G.m.B.2.q.3.e...F.9.) V.u.s X.#.' x j f.u.7.z.{ 7.O.y. .e.o.S.S i.' [ A.) a.K.q.[ N.5.o.C.H F.W.",
"W.^.+.1.W.*.N 8.! N.D.6.o.9.p.9.X.C.O.9.i.7.7._ o.L +.y.~.R R.7.N.p.>.6.p.o.o.o.;.:.[ V.5.A.y.D.d...N.B a.@.N.h y.d.o.9.~ n Q h.K.C F i.7.8.m D.H.+.g.y.g.2.9.E.a.@.S P +.6.+.C./ C.o.+.5 &.l.H y.( Z >. .7.7.7.M y.>.G X...y.o.[ :.] ..u.7.m.7.d.S F K } +.d.p.z._ H.B.S.S.S D.O.@.w.O._ +. .J S >. .P 7.} | y p.A.f.V.2.B.9.S n >.9.h.7.2.A.Q.L.p.y.B.| e.N.7.B.C.S.A.i.L.2...+.W.` B.:.9.N.,. .;.5.L _ ;.H.y...7.;.i.u. .m.i.A.7.C. .N.g.{ +.G.9._ Z.P.;.7.[ N.u.a z.( :.{ n u.9.u.7.X.u.o.D G.7.X.V.O._ W p.B.D.M >. .D W %.",
"q.W X.p._ N.V.B.q.>. .o...3.q.p.h. .8.3.y.9.8.6.:.( ;.g 7.+.<.C.8.6.F 6.X.p.6.3.7.~ $.b.8.N ! V.} ..%.V 7._ O.L +.+.G o.L n 7.7.D } A ' h.K.B r.| 4.>.u.W.I @.' m o.4.X.5.A 2.u.&.B.y.h.o.+.6.k.m d.u.u.>.u.y.N.b.i.B _ s ; ( o.9.n u.i.7. .( u.+.;.H 7.o.P f.z.f.a.>.I.:.L.i.H B O.>.%.o.y.>.z.+.G.g.h.} ,.>.[ ' i.m ) P.i.y.:.q.7.o.Y.V.N.:.N.;.+.H a. .| N.p.a.S.C.i.8.6.<.>.X.m l.L L 3.;.L.,.[ u.N y.C.I.e.J.H.p.4.a.f.D.P S.i.N.H.9.u.+.d.L.V.X.O.s.7.i.J.X.( R.m i.p.H.i.i.0 V 9.u.u.e.+.m y.;.T.C.;.X.>.h.i.2.:.[ ;.I.H ",
"8...a.| } B 6.D X.i.W.7. .m ....o.u.i.;.F.L ,.W ) I.V +...Z.S i.X.9.9.:.u.C.| ..+.q.2.g 9 ;.S.} g.) y _ 3.X.>.q.u.C.G m ( 5.>.0 7 ~.6.+._ q.P.[ o.h.p.=.m G.( :.9.N.h.0.7.u.2.D.S.;.7 N.+.u.H o.F :.J ' ..T.C.=.y.i.K N.i H S X.o.a.p.X.4.u.B i i.:.H L  .( y.p +.' 7.X...+.u.h.u.H B.n 9.I...X.( X.n [ >.9.V 3 u.:.a.L.e.F.:.y.S J.b.V.C.p.i.i.V.C.y.9.J.L.i.6.y.C.N.9.+.9.g.9.L.9.p.7.+.a.a.y.N.G.i.} 9.D R V Y.! ' ) V.,.~.X.p.C.~.:.o.4.o.H.S.g.:.L 5.L. .a. .X.+.X.;.C.P.s.B.S.N.H.h.p.p.2.+.6.h.S.h.h. .S.:.K.N.i.O.i.u.G ",
"s.I.7.X.~ L.p.[ { 2.9.h.8.S 7.8.a.{ @.C.B.e.9.p.L S.>.J.S } ;.d.3.} h.+.C.B.o.7.;.V.+.I.I. .D +.H R 3.9.6.y.| | ..S 4.| o.m +.{ 8.z .._ 7.} :.8.6 V ) [ l.X.y.+.4.i.+.7.y.W.N.S.~.H.i.n I.o.S.C.y K.9.y.S.;.b.y.y.9.2.4.L.S B L m j B.O.J.d.N.W.i ~  . .' [ C.w. .s y.Z _ L n { 9.7.r.V 3 K.B @.2.d.@.;.) Z +.S.y.' E.f.h.C.9.7.d.+.N.p.i._ :. ./ 3.7.;.N >.7.3.I S.a.y.6.| ..W...n O.<.;.5.@.2.o.S <.9.' ( g.7.N m a.W.g.S ~.C.2.m.N.i.y.e.N.' ;.I H.' u.a.i.D e.4.X.+.9.9.' g.I.7.9.K S.O._ 9.%.o.7.;.B.Q.C.R.P.V.C.;.~.L.S.y.",
"L.T.9.+.p.N.h.+.V.D.S 9.q.7...9.>.o.+.@.+.u.W [ 9.N.o.2.H.N.i.6.| q.X.N.7.9.p.u.p.:.A.| } } j.o.O.! 7.' 6.+.p.M e.h.9.o.Z X.'  ...2.D A n 7.B  .7./  .P L +.o.J.' %.y.C.@.:.+.u.[ e.u.H m.G.] C.7 Q.p.J.N C.5.W o.5.m.u.9.;.+.7.u.:.G p.O.e.[ S.L.y.H.7.+.n +.P i.x ( V ' s _ K.} >.+.9.m P.H.H. .1.( 9.N.i.P.( o.9.2.:.d.+.u.I.9.p.b.L.L.2.o.H g.p.y.2.i.>.5.3.o.C.+.| | 7.6.3.9.3.G &.z.{ p.5.S.J.o.| [ ;.I.' +.X.z.>...o.Y.L.a.q.X.X.8.o.f.J.e.5.7.9.@.:.P.( X.6.7.W.e.7.@.b.a.@.H G.{ 6.7.o.N.H >.u.m C.;.W.N.N.e ! S.!.L.C.",
"Y.A.,.@.B.o.o.7.7.:.N.O.i.S o.9.X.o.6.6.+...D.C.N.S.4.F J 9.6.p.Q.h.0.o.y.h.| o.d.N.o.9.S.V.%.f.' I.:.8.u.9.d.j.o.5.l.o.I +.u.u.:.%.X.} H ( K.S ..F.j.h.p.d.| H H F 0  .K +.V.N.7 G.y.6...b.S.K.e.) C.2.2.;.I.6.H P V.e.) H :.u.u.{ p H.9 h.i.C.T.:.| +.9.O.@.:.N.I.z W W.S.Z X.;.'  .o.{ B u.i.(  .7 E.Y.C.9.H g.z C.z [ 8.o.u Z N g.i.S.C.{ 8.h.y.S.i.X.4.g.4.4.B.>.4.g.7.o.7.e.| _ a._ F.u.e.W.+.2.%.A { G <.f.' :.S.I.d. .G ( [ 7.o.P.N.y.F.J.o.h.f.3...9.A i.3.:.i.u.s.C.R.E.9.X.;.u.6.7.4.W.) v m +.u.@.y.:.N.>.y.x %.W.Q.",
"S.j D.G H  .G u.9.a.6.i.N.q.V._ +. .V +.e.y.0.B.g.p.b.r.0.q.6.1.{ | 7.6.p.u.3.7.y.g. .N.%.| >.N.z g V 5 9.9.o.3.P 4.L P 5.%.5 ;.b.V.T.S.I.0.g.B.o.x B.X.q.6.u.B.m u.g.f.I.X.W.N.V t o.w =.1.S.m.H.u.' ^.N.^ V.S.o.6.f.7.S.} H 9.| s.>.' H.( 2.>.;.+.6.s >.N O.H.a.s A H S p.N F u.H 5.>...8.{ H p.9.7.>.;.9.B.J.:.y.B k...9.S.S.~.S.m y.y.O.| ..:.7.4.p.u.p.b.L.| 2.| u.o.| 7.H I.5.p.3.z.H f.o.Q.' 6.q.~.h.u.r.L E.H.H | +.7.L.T.' B B.p.L.G.Q.D.y.b.u.e.7...F.7.9.+.C.{ 9.1.U.N.N.L.C.P u.V o.f.V.B.S.2.~ i.N.D.+.X.J.R.h ;.S.",
"B.S ..p.5.N.' } } y.>.7.P S.^ 8.j.8.u.+.) ..o._ i.F.2.9.C.[ [ u.o.) } 6.C.>.L F.6.o.B.S.S.g.x g w I._ V z h.S a.3.4.7.9.@.)  .C.U.Q.i.:.C...,.{ 5.o.B l U.L.i.| X.y.Z p.+.u.z.I.u.W.H.J.K.L V.p.Z.3.o.m 2.b.2.p.6.e.X.P 2.V u N.A._ ..p.N.' _ i.~ 9.u.u.h.u [ 9.9.x 7 ) L.K I.} i J.` >.h.>.) o.G { N.7.( :.N.H ) L...3.....S.' Y.~.N.' p.S L o.i.N.+...L H.} S e.G.2.7.e.d.5.7.X.p.:.;.~.d.H m...| } V u.H.N.F.z.{ A 4.9.3.} ;.o.o.7.,.S.A.Q.;.( V.N.b.Y.) d.;.f.o.L 9...n B N.C.p.9.i.o.9.X.5 H.!.R.K R. .p.9.:.7.S o.9. .~.g ",
"y.h.d.m.R.V.H...>.:.l R.P  .:.o.~ a.) g.| X.f.9.p.q.( D :. .X.o.[  .S.8.N.G.2.o.9.6.9.C.F.O.q.h.L 2.+.g.: s.q.y.o.P e...H 4.( m. .W 2.Q.!.o.:.F.L u.z.D.j P.h.{ N.d.r. .D.R.' u.J.:.J.[ [ V ,.I &.2.J.6 ) B W.( i.f.' +.2.p.q ) O.B ;.N.i.S )  .P o.w.u. .J.L.} z j ~.+.2.6.O.G +.+.*.| N.u.d.H.L 0.8.+.2.G [ >.>.3.:.h.X.D.2.B.m 7.{ Y +.4.D.>.>.C.B.y.9.m N.>.S 6.C.N...+.) +.P 4.@.g.Y.[ 7.6.o.+.P 5.+.B.[ V.C.C.2.4.g.9.>.S 5.6.7.+.M.L.u.+.e.y.L 3.:.J. .Z.D.i.N.l.C.X.u.m.u.o.:.N.o.@.u.l.G.B m :.p.[ +.N...( ) S.L.9.u.o.",
"b.W  .! Q.'  .6.9.*.} >.{ 9.o.u.N.Y._ q...;.u.9.x D.8.p.q.....>.2.( ) o.8.o.+.g.J.7.g.V.S...6. .>.V._ 3.f.G L ( 5.x J.m i.o.Z.S.S.S.p.U.N...) 3.g.' } j.J.I.9.+.[ B.O.f.F.D.q.Y.N.N.J.W G <.y.N.u.G L.o.+.+.Z.N.H ) *...;.D.m.o.q.A.:.i C.I.P.7.3.+.( ..o.m S.2.S.%.S. .+.}  .+.+.) ' p.C H ! f.)  .n s.9.+.K W f.u.y.7.+.V.) 4.9.h...S.7.I.6.9.0.C.2.9.S.N.u.u.i.W B.G.S.L.o.e.+.+.C.9.o.V y.f.+.7.7.+._ D.%.C.X.o.o.7.e.7.H...5.@.o.e.) { 7.| 3.) H.3.V.>.:.U.N.( L.9.C.g Z m.I.:.E.u.3.H 5.n h.C.C.P.W.i.i.W o.} X.b.N.9.6.} ",
"[ S 2.D.R.~.>.[ +. .<.B.u...o...0 v.I...o.H a.N u...6...' X.S *.N.8.N.+.6...) u.9.>.8.d.p.8.S j.x e H _ h.: S.S #.K.W.G 7.Y.9.-.U.A.Z.1.g.i f.S ` o.5.n &.' ) o.{ A n N.R B.9.W b.H 3.o.@.i.T.>.y...U.m 6.:.N.C.u.@.N z.W i._ x D W C.p.<.I.;.o.I.q.i.) s.:.) S.C.S.S.l N J.>.[ I.H m O. .L.m x H.K.' K.:.S.i.L.S.4 y.i.I.e { 9.i V +.' e.2.o.9.7.p.N.q.V.o.7.4.D.R.i.H.u.e.y.4.3.+.:.4.o._ 9.2. ...6.p.{ D ~ 9.5.9.g.u.3.m e.s.o.+.h.7.3.e.o.3.7.H N.9.a.u.E.,.I.7.p.N.I.i.' D { O.A.u.o.o.H K.u z 0 ..h v 3 o.6.8.9.' 9.0...Z.",
"X.9.7.C.x S.K.N.+.N.y.S.0.I.p.6.P _ A.` X.%.| E Y.L.F 6.p.9.9.2.6.+.g.} 6...;.C.A.Y.S.f.J.| b. .*.D.9.K / B 1.i.@.N p.) G.N.h.( N.Y.Q.b.W.( z.) N.e.6.o.o.I.K.e.S _ l.W.N b.P.X.9.| a.x C.Z.G.a.L X.N.7.n >.p.9.| h.W B ` N.q.u.H.u.L Z d.K.B S &.N.H.o.;.L.( C. .` S.y.W y.x :...o.| S R.' I.N.m i.L.L.S.m.Y 2.T.m.C.C.o.P.a.9.y.h. .( o.6...9.q.i.V.E.:.o.7.7.9.{ d.:.H.h.p.5.o.u.e.u.>.u.7.@.N.e.9.h.X.D m L.5...7.y.o.K.{ +.6.Z +.u.4.e.N.~.l.s.p.{ 7.7.7.3.o.i.u.h { u.J.i.i l.:.H.y.L 7.;.<.i.p.;.a.;.9.o.3...7.C.i.H.C.O.",
"o.) +.u.9.%.S.>.7.T.q.2.S.;.+.5.o.;.;.' h.p.d.e.| Q.+.+.s.} o.H | u.8.N.L.b.A.A.U.T.' ;.S.v x h p.9.4.L 9.D u.H ( o.B.Y.i.S X.S ;.V.! m.) o.{ X.D u.o.7.L.Z.L.u.5 ..u._ ~.L.p. .s.H K y.-. .A.~.p.3.v.e > S.<.} u.N.L.H ' R.N._ i.e.+.G 9.p n i.S ' q.I.I.<.C X.S.T.i.i.+.N.V. .+.s.X.J.D 9.) n.p.m | N.S.T.W.P.i.u.' d.4.9.h.3.8.u.K T.5.f.9.a.q.J.I.9.9.u.h.6.7.L 7.p.9.>.o.3.o.6.G H.+.f.7.d.[ C.z.p.f._ 7.h.u.7.F p.u.o.p.u.+.o.6.L.W.i.Z.R.&.u.h._ J.u.F.u.p.N.p.` z.H y.6.W.6 +.T.i.9...;.B.;.y.[ ..` 9.e.0.u.u.p.3.A.7.h.",
"..{ i.y.` W.S...q.;.S.6.T.:.6.6.9.>.J.9.q.;.p.C.6.K 1.;.i.8.3.g.) [ P.p.L.S.T.N.Y.9.o.{ [ 7.u.e.o.| 0.C q.4.+.L.P ) p.2.W.L >.>.( p } 7.z.o.7.X.d.S G.L.[ R b.P.9.C.( ) b.~ C.o...X.G 9.V b.S.L.F.7.m ..S &.W D.N.g.T.A ..p.S.S.:.p.o.0.o...H.{ V m.N.C.O.L.V.;.A Z >.P...N.N.8.} 7.0.8.e.L m l.x.7.h.R.L.8.7.4.8.u.L.W.y.X.+.;.:.[ i.S.' L @.u.W.7.p.G o.:.X.o.e.i.o.4.3.e.u.3.o.| o.| B.} 6.H  .L.V.) 9.o.L P 6.Y.p.C.I.8.0.9.q.K p._ ;.v.T.T.s.8.6.O.E.0.| @.>.q.7.T O.9.y.D.K.) S.W.W.7.3.P a.9.p.7.d.S.i.h.V @.e.G C.N.C.' ",
"7._ M.S.7.W b.X.V.N.q.V.E.S.u.6.6...g.q.i.S.H N.i.H.7.6.3.H. .+.7.y.&.2.$.R.7.=.G.e.4._ ' n Q.j 9.o.u.9.W +.e.4.O.o.+.b.~.C.7.z.y.5.H o.' F +.X.a.C : 8 (  .B h ( x D N.L.d. .u.K ( h...` 9.v ! ~.4.s 8.B S.N.N.>.s.8.x F.W.J.P.g.' 3.4.@.Z X.} r.V ] _ s.u.s.W.S.i.B ~ ..g.*.6.f.j...5.H a.m ..o.:.L.a.8.8.p.<.i.:.P.X.j W.B.^  .n i.` 9.I.g.E...m u.y.@.| u.6.7.j.7.{ o.6.6.7.6.8.L y.4.o.+.7.*.E.D u.Q.H | ) 3.:.S C q.{ J.| 9...E...D 6.*.Y.>.h.8.i.o.I.u.I.~ n 8.N.8.x q.) B +.o.m +.) 5.{ C.i.V.u.o.7.] u.o.L i.9.M S.!.u.",
"I.<.b.*.7.S :.B.V.>.u.q.b.2.D...8...9.5.u.u.i.7.:.i.g.q.8.[ D.N.d.+.>.@.M.(  .T.q.p.X.G +.A +.9.3.[ p.j V 9.( G K e.+.:.N o.7.P 6.o.+.4.) h. .K S H.( >.+.R.G I.y.T V 2.N +.0.7.p ) *.u.) _ l | L.e.b.X.y N._ u.x u.q.+.5 p.8 S P.f.3.3.G 6.+.T o.7.d.L Z 7.( i.m o.p.9.4.8.8.B.N.B.z.d.o.h.6.{ 3.6.i 7.N.9.} +.5.{ u. .j.1.H } u.f.I.o.f.s n 2.X.e.o.7.B.7.9.4.{ o.7.8.L e.j.y.+.7.r.d.{ 6.u.N.5.3.o.4.E.2.{ 3.8.D.T.9.s.d.) d...3.~.8.K 8.<.i.4.7.8.Q... .a.h.L.I.L.) ..+.c 9.A T.d.d.5.o.x 3.C.>.i.p.X.7.7.7.u.u.d.' 6.9.S.A.",
"Z.S.X.O.9.u.L.7.q.8.>.5.T.i.{ Q.B.q.+.B.S.F.y.;.7...+.T.9...} 9.G  .+.i.:.g.A _ t y.3.+. .e.h.` G S { :.g.n | F x W.I.U.i.L 0.7.r.J.3.e.V p k.C.G u.@.;.;.u C.S ) ;.m N j.x +.o.9.7.' K.0 q.S.B ^ I.i.D w W ' ,.8.) p.4 >.+.[ B o.p.X.o.9.q.9.f.p S V J.r.d.h.C.d.8.9.u.K | b.N.;.= Y i F.9.+.9.X.6.B.j i.7.o.h.5.a.A u.....S.q...6.3.} V d.a.:.' d.@.q.N.d.o.3.7.e.H.j.u.7.X.S B d.6.C.o.+.R.2.x Z K s b.B h 7.| C E 3.4.o.3.o.o.b.i.| 8.7.n { o.u.x U.6.>.9.>.S.B.9.' g.S ) ..7.x L.i.p.7.P o.u :.) H.7.:._ 6.2.+.h.O._ <.-.9.",
"v.) i.9.9.3.q.9.V.~...g.i.7.[ ;.q.| N.o.V X.y.X.| p...9.S.+.o.L.3.:.o.6. .V >.&.V.u.4.} G O.B.<.,...+.B i.' 7...) 9.5 [ ..} o.[ ) i.7.r.y.F L I.H =.C.H o.I.W.:.C.$ e N.I.o.o.d...o.z O.P.F.| i.] N.S.G z I.7.8 ^ u.Z 9.X.6.S.J.S X.6.7.9.9.5.n y.u.V 9.7.x H X.H F 9.| J.0. .V.9. .9.p...u.S.o.3.G d.B.s.y.i.N.b.N.h.P 0.z.j.9.{ 3.P r.P 8.o.H._ 2.N.f.i.u.J.+.u.i.N _ 9.V G } y.5.o.;.h.S V.6.4.L F d.7.7.7.W.8.5.8.| 3.o.| p.:.W.K J...} [ s.x n P.N.7.q.+.D.S._ G z.7.) ~ y S...N. .7.| 6.7.G p.u.I u.9.o.J.s.y.7.9.D X.g.T.",
"~  .2.F.D.L S.&.] p.o.T.p.X.` W.T.*.e...7.C.J.H.3.y.2.u.d.S.[ N.7.( .._ y.9.p.[ +.d.o.2.N.m.I.7.9.N.+.o.9.6.7.o.} y.9.f.p.o.o...i.h z n >.N.:.X.) I.u.W p.~.m o.p.{ A 0 0 B p.) O. .) i. .( T u.S.S.Z < I.- h y.i.D.s  .' U.N.S.p.0 9.e.9.p.8.J.n 4.7.i.9.K m +.D 6.8.y.i.g.+.9.J.4.i.D ) V.H.+.` d.>.;.T.j  .B 9.R.i.7.6.B.8.d.| 4.8.| 3.6.6.>.{ i.C.N.q.2.;.] B  .5.P o.S s m H 9.+.o.N.+.{ ..I.z.J.f.z.o.S o.q.K q.~ 9.J.L n.S.S 6.6.D +.u.H 9.:.+.,.S F.( R.x J 6.7.6.{ B L q.[ [ { 7.9.z.+.O.:.N.9.7.{ f  .( H G 9.h.I.%.6.",
";.W N R b...D.p.A.) N.H.9.3.Y.N.p.:.U.;.>.I.~ Q.y.o.L.+.L.d.C.G 9.+.q.i.W.p.n p.e.H F.e.i m ;.:.` 2.:.+.) C.P.y.7.V o.s 6.L o.9.e.X.p.B S q.y.7.X.7.H D E G.@.+.X.p.S S >.x = p +.) - [ i W q ' %. .:.B h.e.;.#.J.6 r 9 S.9.:.( q.j q.6.6.7.6.X.+.u.5./ X.6.o._  .z.W D ( 0.7._ z.p.p.W.0.L.N.2.) i.L.L.p.I.V.6.K i 9.9.N.~.~.D L 3.u.A Z 7.e. .o.H N.S.N._ 9.F.p.S S.V.i.W.~.:.H e.D C.o.| P N.K ` G.S.E.-.S.:.[ o.| 6.A n.2.Y.' 5.8.6...F y.9.u...9.)  .+.+. .3.g.{ 1.2.V.+.) n S u.} u n | ..m.+.{ y.{ I.W.G.L.y.4.2.C.( W.i.",
"7.} >.J.i.l @.u.p.+.N.7.c.N.N.M.D.U.) N.2.i.G.g.L.L X.( 9.+.B.S.} *.( O.4.G D.7.N.;.S ..B.p.S.i.N.} F.} p...~ n.H.N.L  .6.;.@.f.h.I.p.H.d.R @ a.p.@.N p.h.h 9.u.s p.+.N.L.B p 2.F.7.K 4.h.G X.+.7 N.X.N.S >.z.T l T D.~.h W.N.m i.B 7.+.3.9.7.p.G +.7.n e.2.) 7.9.( i.} | o.p.Z L 8.~ ;.F ) B.K. .S.) ' B V.S.L.X.9.W :.<.!  . .| P o.0.r.6.9.o.P D N.2.3.o.F M D.P.F.6.S %.V.:. . .@.%.o...+.) G X.` K L o.m { s.6.d.c S ) A.*.) 6.H P S 9...J.i.G z.c S I.h.a.[ L o.[ N.L.u.d.o.L :.L m 9.C.q.p.' H +.J.p.i.X.@.a.X.;.L.S...:.",
"L 4._ P ..| g.D.f.N.N.N.S.9.+.X.b.>.:.V.+.~ 9.g.%.u.C.B.g.) 7...} ' 3.g.7.>.o.D.e.h.p.p.S.G  .B...P i.{ 6.3...X.<.u.9.B V u.W.i G g.9.~ Q.; j Q...| A H 6.n L X.>.o.` A.N.u.) i.@ 4 B.u.p W.W...B i.9.S.C.D ..} d.J.[ j i.2.V.| 9.- u.7.7.9.| o.+.+.7.D 2.K.N.m [ u.o.q.8.' s 8.Z @.0 7.N.a.!.X.i.+.;.2.h.K ,.I.V.i x G S q.S.q.7.3.s.| ..L H.y.d.C p o.| a.:.N.9.X._ g.8.) ~ :.L...' %.+.X.R.6.4.| o.e.+. .9.X.D N.J.u.C ..) <.O.8.J.o.S i.9.Z.I.N.) q.p.>.+.o.m o.4.p.N.*...S 7.f.+.>.' x W.>.+.9.a.9.8.p.+.9.@.o.X.) :.T p...",
"5.3.7.+.<.9.o.u.y.6.p.F.H.p.p.G.6.} V.i.8.3.2.2.7.o.3.5.S ..N.q.p.0.6.G  .z.q.U.U.+.+.' _ : C.H W.6 c f.9.G O.N e S +.) i ' P H +.:.a.z.x N u Y.i +.6.6.0.9.C ..J.Z ..3.9 9.5 z S w 4.u...v W.j i r.p.L. .9.8. .i.' f.3.9.~ U.j.9.<.%.o.F  .d.:.6...h N b.} N.m 0.[ 8.{ R :.p.N ..o.+.f.W.$.!.S.e.&.N.N.( N.K.A.p.L.2.~.W.p.S.:.o.P 6.3.H +.o.I 3.I.S. .y...L.) 3.9.j.J.) B.L p.[ ) B ..Z N V.A | @.X.H i.@.S ! m K.K r.g.} *...f.q.>.e.b.S 2.o.7.9. .K A.6.9.| S 3.m Z } ~ h.h.S K o.4.p._ ;.R.7.+.2.) | 6.+.y. .2.;.:.H H.` H.",
") F 6.o.7.9.0.i._ 6.[ b.Y.@.X.C.9.9.9.:.o.3.+.N.C.7._ 8.0.;.B.>.N.W 0.7.J.A.v R.Z. . .) h G.5 8.e V  .B.5 G 6.i.>.2.G ' T 9.9.) y.o.>.V.s.s ) 2.9.s.S ) 9...~ K.J.m D ..o.L.+.j S.9. .X.L x h +.g.T h 2.} 6...p.u.8.X.%.>.q.N.h.p.g.K.6.u.z.H 2.X.N +.;.' 3.q.>.S.I.....e.p.I.` o..._ w L.u O.7.' S...N.7.8.,.g W.V.p.q.L.h.9.8...A K C 9.H ..A 8.o.N.S g.} 9.V P.2.` J.o.6.m B o.] K 7.;.I.b.K.y.| o.+.e ( 2...;.N.l 6 d | { 8.o.| p.D P.W.x ) d.~ X.} } X.7.F P.[ ) ) 9.+.g.D +.p.a.2.p.C.O.X.7.g.@.>.g.D...o.7.[ a.+.9.) ;.S ",
"h.p.} 7.o.3.[  .;.e.>.8.L.4._ 7.>.+.>.7.9.R.6.) N.i.9.9.} ] j q. .( 7.9.g.B.H.Q.q.S.;.2.N.:.S.;.+.d.~ ;.i.K.n O.N.2.n T.N.w N.z.a.L x T { y ` n } 8.:.} 9.C o.~ ;...3.8.P ;.o.>.5 K %.+.3.2./ ..m K.' W h _ 8.o.{ F.( 4.9.o.S.h. .[ +.C.J.7.G C.1.u.i 7.o.o.q.W W.<.X.o._ 8.7.T.B G o.e.:.C.L.p.+.3.i.+.D.P.7.s.v ( V.x -.7.p.d.o.7.s.z.9. .p.8.D.+.) +. .I f.u.s.9.i.L.H.6.F ) x N.H %.N.:.Z.~.z.M L.o.+.>.G 9.i x 9.s.9.8.| P P H ..C...} u.:.y.X.| g.5.3.+.F u...8.{ B } X.7...4.e.9.) +.:.S G.G e.I.J...} N.o.N.6.L.Q.+.z >.",
"C.+.p.<.| | 0.j.O...g.| S.o.| p.,.} <.u.7.7.3.| >.H.F.:.) o.L j.g F.p.+.p.U.G m ;.C.:.X.q.y.H.N.[ ; E W.[ 2.b.2.2.g.p.8.W.V.h.N.K.S 7.P.( 7 E [ >.| W +.y.X.p.5 [ F +.3.L N.q.2.J.N 2.s * V.7.z.~ W.` I.[ { u.H P D.o.8.h.1.8.N.5.+.X.n m.L.G.i.7.k.* f.d.` G B [ ) u.S.9.9.V.N.;.s.8.o.- u.9.H.N.H B.>.A 2._ L.u.X.d.g.H.p.i u J.J.g.8.8.9.S x S V.p.9.e.7.u.s e [ >.d.K ) 6.' %.6.L x ~.m.Q.L.<.o.} ;.i.x W V.q.9.8.h.0.g.8.3.3.7.9.D.H.3.F.+.0...+.9.6.h...7.F K L g.| 4.8.8.| :.;.X.s C.,. .o.7.( e.) L.q.;.L.5.6.N.' 6.i.h.",
"F.X.} +.3.o.q.H.T.4.i.9.G.4.| 6.S.6.>.7.e.8.o.g.X.:.+.u.g.P 8.K | N.V.S L.D.9.d.S.L.V.C.2.H L ..+.C.N.F e.S :.%.O.7 q.P.I.7.2.8.J.' 8.s.{ :.m o.| S B [ +.+.a :.u.B.H 2.n ( 4.H o.O.L J.g.S T u.S v d.v z.J.7.{ 0.S X.3. .E.S.i.i.) R.X.x v.;.>.o.) K.5 7 5 i.V.*.q.u.9.9.) 2.:.2._ +.Z ) 0.F.:.S.) ;.6.9.L C.F.I.C.i.K.6.p.9.3.u.u B.a.J.u.S.>.i.F.| | X.3.3.K o.+.[ ;.c 8.e :.V 7.P L v !.` 2.+.r.7.K ;.) 7.' 9...q.P.8.&.n 3.r.u.>.8.{ m D 8. . .B H 8.9.o.B. .o.3.| +.D 9.9.H 7.9.y.u.X.+.u. .u.9.X.S ] ~ L.[ W.p.[ o.7.z.W.",
"z.s.g.F.q.q.N.8.9.+.B.=.( P.G.u.y.:.V.| 4.y.y.g.D.3.3.s.T.7.H P 7._ G d.z N.B.s.I.@.i.N.N.B.[ >.u.F.J.o.D H >.I.F.I.m 0.+.) S >.5.Z z.X.h.;.` 9.x x  .W I.C o.~ u.>.{ 2.W.i.,.W q.7.( S.y.d.8.+.S N.K.H.[ *...j.4.3.| L 6.& F ) C.j.m { a.z.o.7.p.d. .u.u.u.S <.o.7.h.g.S.N.:.C.i.;.A H z.+.9._ e.9.9.D.L q.L.p.V.C.C.S.| 8.| 8.P B q.9.{ y._ F.g.f.o.7.3...H +.9.N.S.F.S.N. .j.d.5.K S.g.W 7.| m o.o.e 4.H 8.h V.S ~ x q.+ [ J.u.L e.o.h.X.n.1.V...D ~ w 8.0.j.p.7.F g.7.+...:.I 5.L B.s.O.X.>.K o.H 7.0.2. .` 7.X.m.I.W.3._ V ",
"..K N.+.+.9.+.;.B.m.+...i.Z.Q.o.{ p.o.9.6.3.i.u.o.u. .p.D.0.>.8.6.8.y.y...+.H ' o.B.S.B.S.N.S.S.2._ 6.V i.+.m V 9 N.J.2.3.8.} _ e.4.B.H ..' h } h 6.{ ..i H.S X.G F p g :.i e ,.2.( >.| F y.,.' N.v.B.( g.} 7.p.o.3...P g.L.L.W _ H.L o.+.9.m P 1.u | 5.3.P ) W.B +...q.>.d.D.9.C.X.{ 9.h.p.3.z.D s u.9.p.q.N.>.>.L.N.9.3...>.p.i.T C.d.d.;.p.L.L.{ o.P.6.z.9.~ ' 9.N S.S.[ ) [ 3 %.b.m Z ..G j C 4._ >.u.y.y.6 W.:.[ V.W.n.^ Y.p.| u.+.o.) 5 F.!.B.d.e s.8.G 8.3.o.| [ 9...q.9.>.Z H b.( o.B.7.+.>.p.y.p.' ] 7.' v.e.m S.L.S.F.",
"S.<.%.[ S.R L.S.7.L.y.| h.2.G.O.N.7.9.[ L ..u.P h.u.9.h.C.e.6.z.e.;.) i.H.+.+. .u.F.p.L.y.H W.L.G.g b.q.p.G.' A U C.N.;.u.P.5.e.( h.L L L i.S O.;.H.3.Z :.5.S 6.C H ' D 7.n S d.5.d.g.i.l.x i. .B [ L.W.W.K o.6.e.J.9.' I e.K.T. .( a.K H.@.a.o.+.K |  .H.%.#.9 ( 9.o.9.3.S 9.9.B +.u T.C.F.L.C.9.} C i.i.>...>.9.W.C.V.o.J.q.>.m i.9.;.a.>.i.[ Q.a.0 L.e.+.o.n 9.B :.+.' T K R.u...C.g.| ..' O.N.s p.X.S.m H.w U.D.1.S.p.S.%.9 %.' P _ I >.m G r.;.;.p X.@.@.4.} u.o.9.D.K >.' ( 4.[ :.[ %.g.H.X.V i.p.E.o.N o.~ C.( L.L [  .O.",
"B N.` ( L.f.p.;.i.z.@.p.8.' i.[ V.+.S 7.B.p.p.P 4.2.9.O.S.~.>.N.T.{ d.+.F.Z H o.+.P p.+.o.7.o.9.d.a.{ H D.2.N.~ } C H 2.+.T.B.a.C.e.4.e.F | +.;.L.a.X.o.[ ..4.h._ o.S n d.=.D ) x +.7.7.S y.e +.:.i b.<.~.u.P o.:.L N.S.o.7.4.7.4.X.;.+.O.+.[ C.W.6.+.p.:.3.p.8.u.p.F.0.} _ 7.F.q.B z.' 2.2.m >.;.6.a.F ..i.a.u.o.2.v.2.f.+.f.9.u.H.g.N.9.x E.v.W S.9.9.0.u.m  .y.3.3.4.....A S.o.' i.u.W.C.S.I.F.L.V ) N.D G y U.F.V.D.q.L.7 R.0 i.L z u.4.L 6.7.u.g.G.o.| K r.s.e.)  .+.+.K u.| a.+.2.V.A.V 9...y.o.o.P.X.S.u.F u.N. .f.F.i.;.",
"p.P.i.D._ F.' >.u.i.O.H.) C.Y.i.V.g.i.i.p.e.7.o.+...u.1.S.<.] _ u.~ E ) S S.F.} 9.i.>.7.H J.+...o.,.O.i.e.3.I.N.B.H e.S S ,.T.X.x ~ +.9.` 3.S i.C._ 5 u @.N { 7. .S 7.F i.>.! :.V.N 9._ h.7.o.h.L.Q.y 0.:.7.6.| ~.N.E.H.e.h.I L P +.+. .| H C.n m.L.9.O.z.n +.9.h.C.O.d.d.p.o.} s.o.) h >.p.V.G.+.p.u.9.G H %.;.y.a.u.8. .3.5.7.o.o.H S.u.D ( ..u.B 6.u.{ >.f._ Z | n.q.x 8.3.&.p.7.z.9.i.p.d.h.B.9.H.I.2.H m z.z ~ B.i h ] 9.m ;.( 7.W...9.u.B.P.C.2.2.7.7.u.e.9.3.o.s.o.3.o.G z.| I.N.W.7.{ 7.I.y.+.u.o.v.~ i.:.y.y.S.~.u.D.e.",
"G V u.i.u.L.L.T.:.+.H.+.G 9.m.;.L.p.7.u.+.u.| y.3.o.i.y.G.C.S.p.S.q.S.` i.H.i.x 7.:.7.+.p.b.6._ ..6.8.e.+.5.d.D.9.[ D x i.Z.T.u.8.X.+.( I.9.u.>.u.J.9.0 +.+.X.y V.F p.y.7.@.o.u..._ H 9.3.7.i.N.q.2.f.l 8.p.6.;. .7.u.7.a.a.@.s.3.I h.+.C.s.V.V W ;.:.H.Z X.X.7.O.2...7.{ 6. .) ( o.+.C.W ~ y.D.L.I.L r.o.g.5.7.P 5 u.7.7.d.X.o.q. .o.8.~ ' R.L +.o.x 1.7.>.H.o.o.6.o.8.C ..j j m H ( % L.i.J. .} [ 6. .d...i .._ S 8.{ V.%.>.{ o.X.:.G V S e D X._ y.;.f.e.@.p 7.i.o.y.I 3.X.o.:.X.L.C.2.[ 6._ A.+.o.r.} B ..o.w q.V.A.R.!.W.l.",
"Y.g.I.e.V.N.Y.B.X.+.:.L.p.1.N.S.i.y.6.+.>.b.:.y.P o.p.C.m.A.2.7.N.;.%.i P.B S.9.9.o.3.U.%.R.>.y.7.4.+.i.u.K H.4.J.;.V y.B b.A.R.>.G 2.a.z _ t n } z q C.& W  .H.G.g o.o.p 7.;.o.C 3.n (  .F d.u.3.O.9.L...A ,.K.>.7.{ o.X.C.f.S K }  .C.;.G e.e.G { P.&.S 9.| o.o.6.o.} X.o.y.6.+.4.u i.I.p.C.W.L.~.I.p.I.7.o.g.p.D.s ..4.;.K.D.p.u.3.8.;.F i.G o.y.L H L s.z.p.p.7.o.7.~ A ) D.' / 3.o.+.A.2.H.F ) p.6.y.L B s #.| 7.C.h T. .o.5.o.9.D o.C.H N.:.M n l.p.m 9.K.] o.e.g.o...p.| ,.N.Q.:.u.G a.S 9.| +.u.B [ <.9.S.p.m.#.` U.S.N.",
"N.T.N.' B.N.N.i.i.D.T.&.[ H.X.o.y.9.P 3.H.i.7.>.o.y.+.S.N.+.G.b.P...n.<.F.| y.8.6.Z Z.N B.N.E.9.q.9.9.A.u.,.%.} o.7.9 m.i D.( 9.e.S K.C.>.R.L.:.N.a.g i.E i i H } ;.g.7.&.N ( H.' o.p.7.I | u.+.i z.h.D +.u.C.H x i.8.H 5.| ;.a.H.@.y.C.N.) a y.7.C.<.V.4.u.o.Z o.6.y.d 3.p.p.S C.L H g z B 5 S.G.G.Y.E.G ( C.S g.C.7.o.) +.p d.F 6.6.' [ C q. .r.m f.3.| S.y.( G e S ( N A S L.j @ { u.o./ p.9. .u N +.3.) m ) V.{ D :.h.D.i.S <.7.C.H p.g.J.u.y.L.W S.R.W.>.z D.g 5.x 9.K o.9.I.w #.f.d.s.S _ p.s.} u. .u.S.L.+.2.>.S.` Z.` %.",
"I.N.Q.2.p.B N.:.C.S. .3.P 6.6.u.p.>.p.| +.L +.P.7.~ 2.C.I.X.a.@...:.v S.V.6.| | o.B m.L.m Y.Y.H.+.2.C.Y.u.L.( 8.T 8.d.;.V p.2.9.g.R.>.q._ ..N.z B { l.Q.I. .;.7.Z H m u H i [ o.F u m o.5. .( H G o.6.I.X.5.m s i.9...7.z.i.>.( H y.V  .y.K.' P.{ ( W._ X.P ( W. .x y.I.K D A o.' +.o.y.D 1._ 2.%.n h W.p.G.N S o.r.Z 6.p.9.+.5.6.P i.A.8.J o.D :.d.3.B u.7.[ p.p.L.V.2.j F ) 2.S.8 C J.H N.H.3 g.G H N g.K.c B S.( 9.w w B  .~ o.X.{ 9.V H 6.+.f G C.x C.@.( +.' z.u.7 6.{ +.o.L 2.[ n G C.9.H f.H.a.Z S ' 3.u.X.W.U.T.a.,.<.N ",
"f.( ' q.a.+.' { V.!.3.e.o.Q.>.S.P p.>.y.o.7.<.W.C.G p.S.S.Y.4.4.o.:.;.S.S.X.6.6.J...C.' X.Z.@.n Y.A.B.U.E.K.W.w ) W.H :.[ 2.h.q.u H ( <.D f I.4.6.H u.m.6.W G d.u.Z ..| o.L.N 1.2.m X.P y.o.O.7.9.y.+. .8.8.8.u.G _ | 7.<.s i.W.m.` i.8 X ,.{ y.o.m %.+.X.4. .` C.N.,.N.+.0.y.S Z +.u.i.~.p.I.~ L 7. .T 1.b.o.6.r.6.7.p.7.i.+.3.7.L.( 3.p.~ 6.A z.G.F.9.6.K ] s.u.T.X.2.' B C.m ;.l 3 o.o.H u.N S.t.( D 8.} R.Q.( ~ ( T.~. .3.| 8.C.O.X.S S o.Z +.} C.) 2.u.K.( p.z *.C...K 7.O.o.u.N.C.H.1.x.( } ' 6.p.S :.V +.&.9.:.<.{  .+.| ",
"C.!.P.) 9.B.6.6.( U.| f.7.N Y.i.9.3.H.u.u.L u.i.+.L 2.1.L +.7.u.8.e.W V.S.H.X.G ) N.( h.;.>.7.g.7.G o.0 Y.[ B.F.z Q.D s.S J.) q.6.p.>.+.6.S m.W.Q.v.' ( ;.o.s E.e.u.( P.I.i X.) V ( >...4.P o.e.Z 9.m ) 3.I  .h.H.D.i.i.N X.+.S.W r C  .>.H L y. .o.>.y.I +.2.} m.S :.@.u.p 3.+.Z 6.j.o.;.] T I.V 7.x ( x y.I.Z ..7.8.+.u.C.+.p.N.: 6.) @.` u.e.S n >.V.D.| h N.f.L.h.[ 9.9.P >.S.*.V.O.p.u.S :.E. .u.+.3.h 6 L.R.%.] W s.X.| _ ) 3.y.8.+.3.x >.[ <.( z o.n X._ +.S P.B.C.7.o.} [ 9.N.A. .Y.R N.X.7.:._ J.7. .o.9.+.K.( i.G >.o.",
"N._ p.>.V.) X.+.p.S...K 9.+.L 7.e.+.S.A.P.7.7.7.7.<.p.J.e.+.7.7.g.4.j.W #.A.R.9.i.~.>.G :.q.L C.2.( ;.o.,.Y.f.D.H ` } | ) 3.A S.B ] C.&.o.;.;.g z X.H 3.:.p.P.m $.N.d.7.e C.;.s +.i.N.+.C l.d D +.J.) u.m x i a s i '  .o.G 5 >.C.) ( 7.x.I.s.4.C.u [ 5.G r.H.;.f.( X.H.X.V a.o. .i.B >.b.B.I.5 h.m >.Z D.G ' ! z.@.| 3.7.a.G.:.%.:.H | o. .S o.| [ >.@.G o.K C...H ..p.Z m G ;.S.S.) 2.' g z.+.j >.H o.P.;.~ s B +.u.0.S B L.N e.C S | p.+._ :.` ) %._ L 4.P u.#. .G ;.:.H X.o.6.X.H ,.y.;.9.y.u n ( P.| T.x s.i.<.q.R.~.~ o.o.",
"*.[ i.>.V.6.L.B.9.+.' L.D.>.N.d.} >.y.>.{ 2.H X.p.i.C.1.T. .e.[ >.>.p.g.h.o.~ 2.S.Q. ...+.u.G :.5.u.+.) ;.[ 9.8.+.<.4.B.p.8.:.2.S p.j.9.S H x ..B { 7.y.2.<.;.u.B 8 b.Z h Z 7.' 6.C.W.V.x n o.K.B y.:.} S.F.I.I.J.p.>.B ;.A.S.D.>.G.G.o.:.<.( K.N.6.( d P :.H.N 1.m @.=.z.:.} i.7 m ( V.B.' +.9.[ L.7.) J.J.W.N m.D.6.s.L i.G H.p.G 2.K | o.O.o.H s.X.o.7.o.H a...D o.N.[ G x C.<.;.~ V 2.J.x W.} X.) 2.x +.+.' L  .) F.H n _ N.5 } D.i y ~ _ { C.S @.l.4.X.Z _ V T.) _ d...y.4.Z S._ O.3.a.p.L.L.9.f K.+.>.S p.I.S.T B ;.H.1.+.",
"*.L.>. .+.| V.L.V.2.+.S.H 2.[ +.6.@.@.J.L.+.7.7.7.@.2.i.w.O.7.7.p.y.7.H i.+.9.7.~ 7.} N.V.:.q.;.6.7.9.7.2.2.J.:.D.i.F.W.I.| 8.q.o.S.B w I.W.C.L.C.G.S [ C.0 s.V 7.4.d.e.H _ D u.[ N.L.u.L.7 z.>.i u [ y.J.s.N.J.D.$.p.D.h.i.X.S.e.l.:.w.O.;.K r.D.P +.D.H Z [ u O.H u.:.K.P.h.B.K.C.>.p.o.,.G X.' p.( T e <.W.:.S o.S J.Z !.) G.V. . .o.6.+.u.Z @. .4.9.u.d.H u f.O.| >.[ +.o.| L 7. .m.f.n y.[ ( u.8.N.C.[ e o.3.s.Z 8.} 9._ ;.W.>.9.J.S  .g 0.+.O.:.n ;.9.7.B q.o.P Z u.D X.6. .) ;.9.y.;.C.O.S u.x :. .N.O.H.6.N F.C.| R.i.&.",
"A.p.<.V.T.I.A.2.f.>.N.f.7.H.e.H y.C.V.X.4.o.L o.:.C.@.m.| :.Y.7.6.P o.3.| N.7.P ) +.:.I.K.V.S.C.H 9.L._ Z ..>.9.P.;.V.A.W.u.| H.o.n o.z.N <.O.G R.<.I.G.S.o.A R A { o.3.:.o.9.u.H i.N C.K.;.N B m V { O.v z 8 e  .| y.k.8.W.L.P 3.o.C i.z._ o.6...S { L  .g N D.a.+.| p.+.2.3.L H i.G.' 0 o.x +.7.L 0.7.7.p.-.E.W.O.X.X.;.~ ;.<.o.e.7.6.a.S u.6.u.e.y.;.H.7.o.h.O.{ ;.J.j m } G G ) %.N.h.3.m } f.>.N.C.~ K } * W q.V.S.q.D.w ` p.*.,.[ n 9.h z.9.a.6.p.P.+.L p S u.g.+.u.) 9.) ( 3...>.:.B.i.N.O.| J.C._ H.X.Y.z.7.<.S.( <.R <.",
"N ' 9.( p.i.X. .S i.<.L.F.i.6.C.D.T.S.<.o. .+.V ..:.) 7.X.Y.>.e.>.Y.I.3.y.>.4.N.` N.8.m S.I.S.S.:.L L.i.3.o.p.| p.B.A.=.` } o.9.u.) m i.>.V.o.H K O.O.+.) 6.7.i.j.X. .d._ | W L Z ..+.y =.s.e.N G s ' T.2.9.p.>.I.+.3.7.3.q.8.m x ' >.* +.u.d.7.>.J.o.H ~ P.l ;.p.7.F o.D p.L 0.o.o.L S ` F.H.x L X.I.d.U.N.! b.I.w l.~ 1._ g.{ ' 5.e.:._ o.x n  .2.;.i.C.7.f.V :.9.6.7.p.L.S A 9.L h ~ 7 } L ' `  .+.) j.7.[ | X.L m 6.s ^.s.S S X.Z >. .) N.0.e.n @.&.V.a.( ( D.h.+.) 4.H i.X.x N.6.) F.C.S.S.h 7.A.n H :.+.O.C.7.T.a.z i.a.;.",
"X.H.` q. .h.C.u.y.F.B ..T.+.7.} 8.>.i.+.p.i.9.6.p.b.y.s.Q.Y.S.C.C.Y.Q.7.o.S.A.2.;.o.>.I A.Q.B.L.A...d.3.J.u.j.2.A.Y.( >.} ..X...( g.) ;.9. ._ W.f.m J.] ) P  .' | o.p.W.y.e._ 0.>.K @.o.F.L.W.W.R.J.C.q.8.7.J.8.u.<.>.p.9.i.B.V.b.S.7.:.S.K.G y.} X.u.y.<.K.W.i.X.P H y.9...o.} u.7.u.y.2.F [ V c W 1.Y i.L.z.7.g.s d.m z.n 7.5.o.6.S.@.i. .z.X.X.7.7.9.N.J._ | K o.p.o.p.E.D.X.3.3._ F { 5 y e.w p.;.:.h.>.V G H x H H L ..W.F.N.:.z...N.8.N.:.H 7.j a.N s.s y.B u.X.+.7.S.o.B S.F.3.W j :.C.C.G._ ..X.[ ' ) I g.u.u C.B.W.h.X.",
"B.~ o...F p.7. .&.' T ;.+.5.F u.N.} :.h.y.+.q.H +.| X.9.0.m K M <.Q.J.3.o.P 7.y.o.7.9.o. .N.C.2.N. .[ X.X.#.( V.1.H I. .+.7.9.9. .W...j.L i g -.C.| :.V H | f ;.G B.} H | p.&.3.u.7.9.@.e.9.9.+.o.7.e.e.+._ 2.~.7.5.m F.p.>.+.I.R.} B.q.>.p.,.y.( m m S.P.x m ' L 3.P P B o.7.e.d._ I ..e.H 7.Z V i.} D ! N.N.T +.g.X.J.J.B.o.{ o.h ` ( f.S V u.S D ) 9._ X.m g.o.n 6.3...0.8.X. .P V u.7.8.g.p.z.7 ;.` ( ' 3...3.j.y.m [ u.u.x >.;.B } c ) i.*.a.G H A._ o.o.C.X.| 9.e.+.` | C.2.B.9.L.i.L.+.9.O.a.n X.i.+.) ( u.y.p.:.B.] C.' ",
" .8.6.H.9.[ +.i.%.S.;.K B } g.7.6.2.y.9.o.+.u.a. .N.{ _ %.:.W.d.[ S.2.0.8.p.X.7.8.4...g.| 2.W.V.C.| B u.3.) d.o.3.a.F.d.u.| 7.K O.@.p.o.@.y.s y { ( } :.p.i.p.{ G %.B ;.P p.N.| 7.9.9.K 7.B.>. .| H X.4.7.N.Z.<.p.o...i.L.B.8.X.i.;.' y.:.G N.e.8.x ;.' 6.D.E.:.P | o.6.X.G { H 9.+.3.6.5.P 7.+.7.+.2.@.C.V o.;.0._ 5 i.p.3.+.) o.H i y.9.8.y.R.0.6.O.C.L.7.s.L  .} 3.3.@.Z o...H u. .N.G.x ` [ 3.u.O.~ B  .Z 7.y [ F.;.+._ s S Z  .i ..[ K o.>.C...o.p.7.7 i.V ) X.6.;.D.N.V R.Z.A.' S.O.6.+.S.T...o.' 9.) ' ( 8...F.L.N.N +.C.",
"!.T.F.' q.) 2.o.) G ;.4.I.N.o.| 3.' { o.@.7.i.X.p.6.} o.9.f.( I.>. .+.8.B.N.u.| p.6.5.7.m 3.b.h.B.) e.e +.u.9...H.L.A.6.| o.+.8.H w.@.;.<.y._ C :.B i.q.I.2.:.p.X.a.H 9.9.K 7.y.q.i.g.4.3.D u.%.a.u.7.C.Y.S.S.} Y.J.u.' ;.~.W.p.:.1.9. .M C.G ) | e d.R A...N.9.o.;.O.h.i o._ w.} H L +.7.o.4.s.{ ,.C.S o.d.P.m n L e.{ 9.5.8.6.I C q.D.y.z.7.;.u.o.9.P.D.6.o.F...S r.j.F o.6.+.7.N.Y.a.N p.q.h.m n u.G m n o.X.d.i.N.p.K. .p.<.i.S i.:.6.>.+.i.;.V m h +.m N.L 7.V 3.>.i...p.H.;.Y.C.F...8.b.>.+.C.}  .F.;.( G  .o.C.B S.B X.L.",
"E.:.;.:.J.o.) L.p.h.C.~ 9.p.H.d.7.) { } h. .:.y.R.3.O.C.d.8.) C.T.+.+.o.Q.u.7.S.b.,.9.f.3.S.L.W.u.o.{ s.9.X.p.N.S.D p.5.) K  ...g.) y.L.@.@.V _ o.4.o. .m C.>.W.>.' p.+._ g.| N Q.{ A.L.7.3.u.9.A.a.y.m.1.S.b.Y.S.2.z.+.9.Y.Q.Y.y.2.>.C.:.+.X...O.;.i.H.K.K.;.N.K.( o.+.:.L ) V.L.;._ z K.;.| 3.F S  .g.R i.S V G { } 5.o.p.P } 7.7.:.S.z.n +.( L Z m N V 7.6.i o.5.{ ..h.o...H.Z.J.A.b.z.u.; ( a.V x H 2.@.} H S L.S.G u.y.{ W.e.a.:.N.:.B n F +.y.9.| P.5.y.o.C z.C.n z.7.o.G.n >.8.K +.3.X.q.p.u.) N.z.@.o...6.>.| :.o.B.G S.",
"s.:.>.V.d.d.z.b.s p.S.+.:.L.6.9.o. .) =.I +.a.W.S.9.) i.i.7. .' ~.+.0.N.p.V...T.i.C.m >.F.D L.S.i.3.6.9.d.+.G.) X.e. .+.p...:.o._ a.l.:.y.( t 6.) >.N.' O.9.C.7.9.B.2.u.o.S y.{ ( +.` E.G.L.{ g.x n i.-.;.,.Q.m ` 2.U.A.Q.;.Q.7.C.n x G  .X.6.o.! S ;.R.N.u.o.L O.7.F O.D N.: H J.T.m C.K ;.g.3.m 7.y.a.G 9.:.) u.h.+...( i.o._ 7.F o.' +.S d.>.9.o.K I.= n.| 3.8.| ) R.[ @.X.R o.G G | o.u z N.:.P.u.[ ,.L  .h.+.J.S _ 8.9.) 8.o.o.u.J.[ 9.L.W.9.6.+.n Y.n ( 7.S i.n V.W.d.z E.%.i.V.X.| | <.;.;.+.X.C.<.B ..+.S.N.:.i.g.i.u. .",
"V.} 7.S 9.v.H.K F.B V.q.:.9.C.u.( p.5.Y.y.6.8.X.d.4.9.9.i.9.,.+.N...p.G.9.a.| N.b.7.u.L *.3.S.E.9.o.9.K.v.S. .K G o...9.+.0.g.7.7.X.) l.H 6.F.;.G H i._ y.C.a.| u.J.~.:.X.I e.a.f.6.n %.,.W.H ;.9.@.9.q.9.S :.,.I.K.g 8 z Y.9.~ B.G.i.+.V ..i.u +.L  .%.V.9.~.| _ e.Q.V.+.( S 0 X.p.+.@ d.H 3.g.H ) | 6.V O.>.S.S ..g 7.*.K D | H m u.G 2.B.T.d.+.L 0.s ( x 7.H d Z m I g. .G.M :.B.i.3.9.J.W.] u.;.C.j >.o.C...P H 7.3.5.S W.s  .F H 6.j.9.S.) [ B B.C <.o.) o...9.>.x ' 2.g.p.s.C.y.J.L |  .} @.C.N.O.B _ O.W.S.+.( n 6.;.6.o.",
"6.u.L A { S.%.9.8.f.1.q.u.C.P.| u.) 7.G.L Y.f.e.7.@.X.@.9...2.9.+.7.A.L.q.3.7.;.a.N.6.y. .E.+.' W.C.U.Z.+.0.s.o.o.9.o.@...| L.D 6 v.z.[ H.6.o.} [ S 9.B p.N.L.F.~.S.i.i.@.) ' +.9...;.X.7.~.7.;.S.O.q.S e C. ...k z z.T.S.0 P.i.G >.P >.>.{ +.6.6.O.-.3.S.N.B o.u.X.G.i.9.p.9 n #.e.C.R N.P L | ) H h.9.p.9.J.p.&.D } 7.| o.u.| 9.3.+.S :.H S 7.7.D.p.p.K.0 P.e.6.o.[ o.+.<.Z...2.:.[ M 7.9.J.( / +.b O._ X.f.s.e.>...o.J.I.S V i &.K.6.} 3.4.O.S.K [ @.} e.H :.X.) } o.9.!. .<.8.p.( q.p.....+.O.H G ) ! 7.o.o.{ V _ q.u.@.y.7.",
"b.6.}  .A V.9.9.~ 9.>.S.u.u.C.C.6.[ +.S.Q.S.U.F.7.N.) 9.u.y.i.F.7.i.N.A.F.q.B.i.F.p.7.7.y.] m h.] T.^ B } I.E.0.e.8.7...o.=.Z. .G D N ..' Z S q.H.9.O.( 1.p D.N.T.B.i.O.9.9.@.7.4.[ i.J.W W P.X. .H d.X.[ H a.N o.0._ ..W.g 9.S.9.6.;.m +.s 6.;.~.9.8.S q.[ ,.9.I e.g -.z.D.C._ e.V [  .( | 3.S h.3.y.O.2.Z.c. .B.D ..o.P +.| 6.K | ..s B.o.A L K y.9.m n h F.u.4.o.O.H W -.S ) e.L.;.~ N.N.2.J.- z h.' ( V d.H >.H V x B f I.>.+.o.C.3.9.N.W.!.W.W.Z ) ) _ @.u.9.N.J._ H W u.G 3.4.u.H G G B.o.u.u.N.L W y.6.N.g.D 9.X.H.:.F w.",
"{ D.p.:.;.+. .>.F.9.L.2.~ 9.+.T...n 9.m.[ A.Y.;.7.o.7.9.:.i.:.L.| C.d.+.i.9.S.X.7.6.8.8.5.2.7. .D.+.i.+.j :.V.8.G !.p.' j ) i. .G a.) ( L 5.q.C.g ;. .( w C.Y.A.S.z.y.@.o._ | o.L ;.p.+.C.( y.V o.o.D +.| p.) 5.B.x 5.9.L +.| N.7.e.i.N.y.;.+.z.;.O.' i.2.2.u.[ -.o.X.1.W.I.n 7.D e.B.:.x 8.9.+.r.5.7.w.' V.i.' +.o.m L 3.m A e.7.7.} u.o.| | d.o.9.z.9.y.'  .i.>.N.W.X.2.,.X.n Y.W  .W [ ;.N.m.a._ G.I.@.@.a.x 9 X.: G D t.e.H N u.o.i.4.Z j %.Y.M.V.W >._ p.+.S.W.B.z.z.P K.f.P ' g.7.0.i.O.' 7.H.@.u.X.+.i.+.e. .o.o.+.m x 9.",
"h.V  .:.~ :.%.N.W S.` q.u.W.a.Q.J.a.u.] S 2.A.F.d.@.g.6.N.2.+.Y.9.} U.o.7.} Y.h.6.3.9.} :.U.D.P ( p.6.o.u.:...z.<.g ;.C.L.S.C.h.J.i.[ +.I.S +.9.e.o.7.H.( r =.Q.~.[ 7.) 8.8.7.6.;.a.S.L.6.L.>.g.N.I.o.e.7.h...7.{ y.5.( +.7.+.>.e.G [ s.q. .u.H ) V./ o.H X.f.L.* 7.u X.g.u.S P.) } ( h.4 r.k.6.,.b.[ V._ A.N.+.z  .B o.A t.K L u.3...} o.o.4.o.9.e.| +.H o. .L.*.| N.L Y.K p.N.q.~ >.6.H.G.L.!.V.;.S Y ` -.V.l.J.( ) :.+.X.F.I.z.2.s i.u.3.o.x u L.;.o. .8.+.A S.z L.+.7.S.N.&.9.H 9.y.i.6.q.8.L.:.S e.o.6. .i...y.y.o.o.e %.5.",
"i.:.N.8.3.:.V 7.B.S.<._  .i.L S.H.7.I.2.I.9.W N.i.>.9.| 9.S.i.D 7.u.N C.4.K Z.I.C.7.| 8.<.L.H.) K 9.0.V.X.p.I.L.i.e.N.q.H.i.X.i.y.+.+.9...8.B.X._ g.G i.O.' S { ~ { 6.6...:.b.S.A.7.G.2.;.h.;.} H H o.+.C.p.q.f.q...9.+.o.| 4.6.H L.{ u.+.X.;.9.6.8.| 7.H o.9.+.i.= 6 7.N.V.d.h.Z F D.m n P.4.+.L.K.N.{ Q.1.Z.N.~ ) y.o.+.L.n.0.4.P e.H P P o.o.| 6.4.e.7.d.+.9.@.6.i._ p.+.] Z.s.L 5.B.V.N.m.S.L.9.z.K.B _ h G.g.7.9.a.+.[ K c S y a.L { 8.d.S 6.o.+.R.o.>.O.o. .9.u.N L V +.v &.o.C.~.h.9.[ O. .5.h.X.4.H X.C.:.G d.o.u.H ' 7.",
"q.7.6.+.C N.s o.i.Z.%.9.p.y.H V.C.e.` w.A.2.;.E.9.y.y.S.>.N.2.) u.:.i.Y.P.:.B.K z.R.q.+.p.q.| q.6.p.9.N._ i.W.z.} u.p.y.[ >.W h  .u ! p.} o.X. .) ;.( C.O.( h.) D H @.Z.q.L.,.R.L...y.u.u.G 7.o.8.o.5.2.i.' V.S.g.S o...o.9.7.| T.6.u.o.+.w.y.H.<.N.o.0.S ..N.P.K.=.2.y O.N.H.~.L.7.S 7.d & 4.6.W S [ B.W Y.q.T.O.( _ 5.` %...e.4.3.o.L 4.3.| P C  .o.4.u.p...o.9.@.e.N ;.+.7.o.~.n.6. .2.N.m.,.~.; J.i O.f.w ( 2.p.9.p.H A A ..F K ,.f.u.>.n K.' P.p.:.W.N.K 4.:.+.8.8.a.B.V.h.L -.2.( X.W | [ 9.:.H g.:.7.K K.i.G B.7.x ..5.;.",
"_  .i.b.F.( B L +.*.J.e.V.>.f.i.p.s.( N.2.u.y.N.C.+.u.+.g.9.u.i.@.7.C.i.q.y.X.Z E.C.P.p.2.+.L u._ H 8. ...1._ W.u.E.J.;.>.2...1.;.N.H.f.7.y.+.p.j +.N.E. .7.X.u.i.u.D L v.b.i.A.Q.>.e.o.u.6.6.u.o.7...B.6.) N.p.3.y.S 8.@.{ B L  .w.H.u.C.u.o.2.H.j.= y.T.9.+.n ;.W.K.H.A.9...n R a.d...7. .O.G *.' H.Y.;.S.Y.Q.+.V.) N :.N.| e.o.u.2.o.L +.5.2.i.) o.+.o._ R.+.u.o.{ i.n o.[ 9.m.N.U.Z.&.#.J.>.p.) G A.2.>.H Q.:.N.Z.Q.7.K s.+.6.A o.o.x n | G h 6 g.B.C.u.[ [ N.} 9.i.' | L.' i.C h.` ( ..J.9.3.i.3.;.:.g.e.S 7.4.3.e.+.G g.6.",
">.7.o.a.7.g.s.i.o.+.B.F.W.o.9.C.[ P P i.N.[ S.>.7.7.6.;.G 9.7.H.h.9.:.o.8.9.+.e.:.>._ 4.e.y.g.S.;.o.2.K +.Y.B.;.S.( z.D.2.G.F H.D X.o.i.+.:.9.P.J.( C.i.7.o.u a.e.y.@.9.u.H ;.S.q.P.o. ._ g.o.+.8.3.p.D.B.u.9.F.7.7.+.} +.J.>.K.p.A.C.H.q.C. .u.) d.K.g u g.| ..i.<.9.+.:.L ;.~.} S >.8.m 7.i.9.G ~ C ,.` Z.T H i.B.7.{ X.N.9.7.u.f.4.o.4.3.3.C.H.<.n K i.` Z.I.7.@.p.g.H.o.;.>.) ' i.G.A.F.!.C. .<.} ,.V +.A.M.^.9.;.N.F.O.6.q.y.@.7.o.e.p.p.L.G.;.D 7.G 7.L.;.<._ 3.| u.[ ` i.9.C.H.| 3. .{ ' 9.o.P 5.;.L.i.a.h...K 5.[ o.u.a.",
"B.g.9.+.>.X.q.J.6.| 9.C.+.9.X.6.B.u.w.m.@.B.@.7.6.u.o.+.>.9.m.o. .u.[ +.6.p.2.+.l.h.X. .u.3.7.9.} P N. .o.p.N.:.C.| i.r.o.O.J.I.7.| N.( o.X.o.9.z.+.T._ 4.O.X.M %.L.h.+.7.u.=.;.u.i.s u._ 9.F :.p.N.K N.D.C.P.V.o.>.>.7.G @.G 2.V.i.2.T.C.p.7.X...X.3.I.N.i.a.o.u.9.G ' ,.7.V.W.8.o.F.4.~ 0.A ..B.6.;.8 g 6.;.+.) s.k.u.B +.S O.m p.o.@.+.| o.C.a.H.S.%.~ 3.D 2.i.e.L 7.Z 0 L.5.<.+.S <.W b.S.W.h.+.i.) 3.L L.Y.g -.Y.v.P.9.F 0.G u.o.Z K 9.p.N.C.w.8.3.o.6.i.+.6.6.d.q.y.r.0 <.d.p.P. .F p.o.9...3.P.7.7.;.i.S.H.>.7.y.l.7.u.P.",
"j B 9.p.y.e.C.i.J.F A R.8.u.V.9.X.1.L y.C.7.7.u.H.L +.y.y.C.} H.+.7.H ;.N.o.D.| P R.+.3.5.H +.8.o.L.L.N.o.L C.c.i.6.L { G X.[ } m.(  .Y.,.j.n >.N 6.V.@.) ( 2.i.K 0 7.h.M G.i.m >.o.' B >.h.K [ :.3...S 2._ i.B.8.9.p.g.y.X.N.J.2.G 9.x Z.C.K 5.K o.B.6.B.S N.h.@.( >.X.H / 8 S.8.:.;.%.j.S K 7.8.Z 3.m 9.G | ) Z >.| 5.| h...f.9.3.o.e.D 7.u.p.o.>.z.S.H p.| 2.a.4.o.P u.J.N.W Q.J.u.s.a.V ] W.) ( L V I. .#.b.~.) U.-.+.y.7.} K 4.y.9.g.K D.C.+.N.J.W | 6.K u.3.u.9.p.>.` J.q.{ S.B.;.K o.;.V.L i.L.z.C.H u.( C.:.C.9.i.6.o.7.",
"B p.u._ o.X.2.q.L.u.B.,.J.8.3.J.:.S.) G.>.O. .O.) C.3.} A.P.o.;.R.{ Z.O.{ ;.H o.y.A.+.7.5.l.| e.6.N...S.L  .( p.a.a.i.p.I.+.D.3 <.Q.7.N 5.9.6.H.L.7.L C.J.C.G.E.L.2.e.p.u.N.z.G.N.7.d.S.o.+.0.+.+.F.u.+.9.:.9.6.6.i.p.B.x +.9.{ y.7.<.o.2.p.7.D 6.H ..+.C.q.~ [ O.w.y.~ >.W u.7.P.o.o.U.) D.n.{ 3.8.9.L f 3.| n 9.@.z. .+.o.X.9.) Z L e.W @.o.4.A ) f.L.N.o.i.N.Z.o.7.{ L S P.E S Y.N C O.( V n 9.p.p.u.;.X.F N.W.W b.o.A | 3.e.7.( ,.J.7.H z.F.N.g.a.R.H L d.[ } 8.o.[ %.B 7.| m N.J.H X.o.9.| S.y.+.;.D.G o.G i.a.S.V.i.7.o.z.",
"8.B.H.o.8.3.4.~ >.^ q.D.n.u.9.S 2.%.q.V.i.3.%.0.p.u.p.v.V.A.T.6.A.R ..( r.u.' P 7.y.4.e.| p.>.X.C.N.G.S.S.S.X.9.i.q.8.7.6.9.u.7.>.N.6.V.j.D O...9.X. .) V.9.L.2.<.n.N.n X.G 7.C.p.+.p.L.2.+.:.8.X.y.o.y.2.V.d.9.9.p.N.+.L.x +. .u.o.9.F 9.;.G 5.j...6.u.;.2.C.L 9.+.9.3.q.m [ z.u S.V.T.H 3.V.7.d.d.7.H.4.o.L p.7.u._ d X.7.>. .y.9.o.C u.L d.3.d.H 7.H.L.5.o._ +.p.o.L.| e.o.' 2.9.P.[ i.S.N.N.B g O.n.o.8.9.h.z m.X.+...j.S 6.{ Z j g y.>.u.+.4.X.o.| ..b.R.u.6.4.e.P.B.B.H P P | o.p.G 7.C.7.z...I.7.i.y.o.:.{ I.g.L.9.D.h.9.",
"o.H l i.7.o.9.6._ S.d. .H 3.a.>.N.H.Q.u.V.o.) 9.q.0.o.:.8._ +.N. .u.@.f.F X.d.l.6.| 6.} u.i.u.3.e.e.R.1.S.S.N.B ..;.D. ...X. .>.p.h.W.o.F.g.i.( +.8._ u.9.:.i.D.S._ u.q.K.N.;.B 7.T.>.p.2.+.7.u.e.e.z.[ 2.p.G.8.| S.p.9.>.2.o.| g.8 e...| >.q.| H 9.>.D.+.i.H.p.N.2.>.} C.V ( <.W ,.V.n.) 3.F.3.| +.+.7.P 5.1.N.u.o.| G { +.9. .P.K._ P o...L } _ 7.K C.+. .g.8.| D 9.S.o.5.K i.{ N.C.p.N.h.H I.L.b.*.) +.p.7.:.' !.X.q.o.V.W.C.J.l.s.) h.6.p.x >.2.V.' p.;.g h. .5.o.e. .M 9.z.y.o.o.>.i.{ D G o.>.o.z p.{ :.n 6. .9.;.L.i.q.6.",
"H T.B.:.d.P.9...T.F.>.Z. .V p.S.S.S.7.q.g.7.7.>.S p.8.0.y.9...Y.X.2. .i.C.p.4.>.P.:.K X.D ' N.u.S.S.f.d.i.p.y.S.i.J.9.' p.9.8.A <.T.v } ;.S.i.S o.g...0.G D.S V.S.+.u. .z.C.h.C.m Z.N.` 2.p...i.C.B.:.u.B.9.} o.L 7.o.X.J.J.*.| 6.o.m 5.o.<.p.:.p.g.u...p._ P.P.J.>.I.q.9.i.p.( y.{ Q.N.m P S m 3.4.7.X.L +.+.:.g e.:.>.@._ ( i.D.o.u.| @.7.P 3.O.3.I.H.S e.7.>.i.6.+.B.i.o.o.V.i.>.o.{ t.>.o.d.9.p.R.%.Z >.>.n S.N.u.q.n ~ N.L.i.X.u.e.y.J.I.u.a q.N.I :.2.p.G I +.g.' H ..C.p.h.i.p.j I.7.L } u.S.m.J.G.a.e.o.v.{ >.W p.i.) y.",
"C.N.:.v.W x ..V.o.+.y.y.p.C.{ p.q.u.9.S.' 9.6...o.2.8.o.u.o.h.Y.P i.I X.e.6.K >.P.o.H.O...P | P T.:.9.o.L 4.| R.*.z.o.2.2.i.8.K !.Q.S.S 9.o.X.7.P u.P 6.s.N.i.+.s.o.9...u.C.b.a.[ V.>.L m P.Z i.i.o.m 9.o.O.P ( ( e.+.@.P ..q.g.+.6.9.C.@.~.J.s.0.8.9.q._ j U.+.6.K 9.e.9.+.G I.:.7.! S 3.D.j.V.P +.9.7.S X.G y.) u.O.H .. ./ M [ p.L ' X.4.7.L 3.| 3.a.u.+.o.8.| ) 9.>.2.+.H.7.a.:. .q.S L y.8.6.+.I.V.u.R.f.T.V.V.G K a...Y.i.i.u.6.X.e.9.C.+.i A.G.V.y.E.i.~.y.| u.u.C.C.9.X.+.y.a.+.L.M o.e.:.' >.L.7.>.S 4._ o.6.N.L.C.[ @.",
"i.9.| P C.L.L.u.y.>.D i.C.e.o.s.8.V.6.G ' W.u.q.>.6.6.8.9.8.N.S G.@.9.i.( u.e.u.o.5.>.T.V.u.P o.o.g.5.L y.X.p.q.+.C.H.y.S.Q.I.{ T.N S.:.} p.j.i.} u.~ :.+.S.A.X.5.6.9.F.[ p.i.i.O.Q.C.H.5.F ;.H | S C.<.i.p.8.D.p.y.o.L o.6.7.;.7.o.n Y.9.X._ n C.F._ J.~ J.l p.9.D.H.2.p.;.B.T N z.~ q.{ ,.o.N.G G L I.) u.D i.) +.7.e.p.I.w.W.' B.x 9.g.H e.4.7.e.o.9.8.3.H u. .9.+.>...8.{ W 8.>.i.e.p.{ 8.8.5.p.S.L.N.m.m.b.,.^.e.K X.P.S. .n 8.a.B.P.9.X.7._ %.N.N X.J.u A.e.J.H.h.3.C.J.l.4.u.7.a.p.a.m C.o.7.H.N.a.+.+.G ) e.3.K.O.+.S.9.",
"g.o.| 9.9.d.i...7.s.7.3.>.i.9.S.Z._ 2.q.o.[ o.9.) K.X.9.7.b.P.p.( Z e.P.+.I o.@.+.6.z.G.f.y.B.9.V.W.9.K.u.5.d.L.C.:.V.P.;.G S ;.[ V...H ) s.W.B ) 8.[ 2.K.N.;. .4.[ H.C.9.>.:.x r.u  .S.p.o.L.+.2.<.i.7.P R.P.W.:.:.K.6.:.i. .i.y.| V.p.o.+.9.I.:.( >.N.` F.L.N S.S.G q.>.%.i.9.x V.I. .] *.4.9.P 3. .6.H.X.9.V @.z G { O.c.P.2.:.E :.u.) 7.L X.6.5.P  .G L.i.u.R.3.i.| 7.e.7.( ( K.9.:.>.q. .p.i.q.C.Z N 5 L.!.Z.:.| Z F.V.A...o.e b.R.Q.~.J.P.+.z.f.3.H 6.W +.:.` m._ b.S.C.' e.H I.6.y.g.y.D.L p.[ <.a.e.a.6.| s ` p.9.A a.B.",
"| h.o.e.:.~.J.( 6.8...e.~ B.2.A q.;.[ h.W S S.i.7.i.q.B +.~.u.N.X.O.<.a.9.+.e.e.i.3.4.>.2.2.C.y.N.i.V A.L.L.T.b.E.b.m.b.o.[ i.2.G.f.8...y.9.+.u.) :.+.` 7.n.y.i.9.+.>.q.i.N.C.u.>.y...B W.C.7.q.e.P.L o.U.*.v.S.L.A.m.>.8.o.w.b.N.5.L.@.L | u.G.K X.B.h.1.~ C.[ <.L.v A.X.N ;.e.9.h.j L.f.7.3.p..._ S >.s.y.I.+.6 N i.) V a.1.N :.y.z 9.[ ..m u.F o.o.o.9.7.7.6.7.i._ H.N.3.| Z .._ u.D +.V.9.o...p.7.C b.{ ) ;.!.T.9.A S N } y.y.G S.Y.v.A.T.~._ F :.a.8.9.6.E.p.} J... .z B Z R o.2.u.f +.[ 7...o.| u.X.z.>.7.o.u.u.a.} 9.B.N.",
"o.9.u...q.2.o.C.u.9.3.U.u.u.9.>.;.,.i.:.d.[ g.N.D z.( _ y.V.m.( 4.o.w._ ..2.H.$.u.( d 2.P.( u G S.g.C.B ] F.b.W.o.D S 9.( ) z.S.i.| | H 6.H u.u. .G 9.7.V.i.L.e.| 2.I.+.d.R.6.O.@.7.y.V G.W.6.o.p.B.7.} T.T.p.W.S.:.9.g.S.o.S  .9.a.4.a.o._ J.J.L.S 9.i.D.y.K.#.a.N.2.%.( ) I.:.6.H p.} B V.3.p.f...!._ W y.2.>.e.4.G p.+.>.p.:.o.y.| i.+.u.I D | 9.i.9.y.V G 6.F h.S.:.L i.o.F.q. .} S.o.+.W.9.7 u N L.N.K i.8.T ..6.8.9.P 6.6.H +.Q.E.D.c.<.,.u.o.9.+.8.g.K | 7.p.V.i.H o.L.m.C.@.H e.e.y.E G K o.o.X.4.u.7.n  .` i.u.y.u.x.:.",
"B.H.f.u.<.G >.L.m 5.| e.6.a.} o.e._ m 7.o.z ( V ~.J.g.Q.X._ o.d.B p.u.C.P.y.2.h.z.p.J.C q.8.A ..V.D.I.L.9 !.A.N.8.=.G.:. .;.>.S.N.n o.{ 7.+.G 9.j. .7.B J.) m.!.j G ( i.H +.>.6.X.4.h.@.:.1.E.Q.~.q.7.7.V.!.C.N.S.;.N.N.H.a.K.H  .C.V.o.6.7.L.;.I.i.N.p.8.S [ ~.N.V.I.>.y.L.Y.2.u j.I.d...i.M  .x [ p.:.q.I.h.>.3.g.3.D H C.K.h.W.+.W.o.m ` J.9.h.S [ H e.a.N N.H.i.K.L.h.a.i.C.9.7.i.9.F.%.'  .;...o.i ~.7.o.[ v.+.3.H | s.y.o.y.,.T.m.p.p.9.+.7.3.9.P.3.| u.3.Z Z.L.9.9.f.C.S.R.<.W.5.@.i.7.e...o.y.h.u.+.y.r.8.G L.i.;.;.` k.",
"x p.8.y.h.p.5.9.;.u.o.s.>.d.o.:.C.o.h.o.p.B ~ 7.j ~ o.D...R ( h.u.~ I.I.p.) { { 9.L.~ |  .S :.) %.u.6.7.@.b.y.| Y.V.G.W.2.q.; S.S.o.o.y.9.} |  .u.z.H.m u.| a.R 9._ e.6.a.S.3.L 4.a.7.>.| ..,.T.q.T.Q.Y.2.2.[ >.N.{ i.a.5.} ) ( a._ C.e...N.3.| S W.( H.| o.8.S h.,.>.7.9.o.x ~.2.>.p.e N N %.:.' V.} s.i 9.K.u.D m H _ ) I.G g T.h N Z.S.J.+.' N...u.L.W } ,.9.Z.y.>.i.2.y.9.G { B.+.0.W.9.0.I.!.6.J.G N.H.N.2.N.d.) I.{ 5.q.4.;.,.=.,.S.p...o.7.9.8.o._ p.j.| a.Z.G.6.a.;.S.S.C.N.T.L.9.>. .s.9.p. .9.h.| >.8.W +.<.W.h.D.5.6.",
"~ +.p.5.u.A o.i.L.g.9.] B.C...>.+.>.+.>.R.m @.O.m j S o.9.l. .O.q.{ ..9.p.l.+.( D.v S q.S. . .p.P.@.6.W.u.N.3.} A.2.o.7.o.x.W.S.+.o.q.i.h.p.K 7... .m o. .L 9.q.u.h.K.i.G o.4.o.O.u.+.e.u.o.G E.p.;.;.S.>.8.+.V.p.L h.+.>.6.@.X.,.h.9.y.{ +.y.D.X.G.;.>.C.X.o.8.N.i.7.| S ..D !.W.~.%.W ( H.L ;.*.z.3.0.V.9.R. .i.W.9.( 5 :.V.9 [ R.~ ;.%.( P.| p.q v q.s.H.u.W.G >.u.N.$.<.9.L V v.| 6.<.*.G y.C.i ' ..>.A.Q.-.N.+.O.5.+.o.+.| 5 ` 2.m.:.l.h.6.7.3.6.u.f.} ) J a.S.Y.2.H.L.J.L.S.) S.L.u.u.7.e.8.u.o.i.+.q.` W.m @.q.i.B.[ o.i.",
"2.p.R.g.9.S 0 | 9.B.:.| K ' >.&.7.4.b.W.1.P.h.7.o.y.z N a.:.u.+.o.P ..g.W. .9.Z H.p.B _ D...^ D.4.' Y.Y.p.u.9.N.&.y.8.+.+.| C.{ 7.y.>.f.u.( +.) y.C.) 9.X.L | { i.6.} K. .R.u.p.@.@.u.p.o.4._ E.4.i.+.{ S.+.h.L.+...B.6.P 6.u.9.7.) ( o.9.8. .X.o.2.| H [ L 7.9.) ..} p.B.| <.1.Z.X.+.J...[ 5.B.Q.b.8.L.R.~ 2.%.Z.d.o.e.X. .S.S.G.B i.J.O.I.m.l. .>._ +.g.>.u.h.9.[ C.3.>.2.e.7.^ ..D.9.( ;.V q.V.>.u j.9.u.8.y.9.A <.X.| L H K | d.3.%.b.A.+.6.| y.>.S.Q.s.9.3.b.Y.N.i.h.a.6.D.L.[ p Y.i.4.9.p.8.o.{ ( 6.+.D.8.9.9.p.H.a.y.I.:.",
":.~ L.<.X.9.} ` 3.+.9.P.N.i.[ q.a.>.+.N.( 1.C.A.W ` +.a.a.p.g.7.0.8. .B.:.q.x C.m ' ..C ..q.*.3.J.@.3.e !. .o.m.` { 9.9.o.5.( } 7.L i.9.7.p.;.| p.9.p.f D 5...| y.u. .;.2.N.z.V +.+.i.o.+.o._ E.u...X.L p.2.1.!.H.| ;.u.o.o.G.a.| ..9.o.7.:.+.y.>.C.9.X.6.i.H.{ W.K 5.P | +.S.B ) { P.y.6.i.N.;.E S  .e.e H 2.u.y.a.+.9.H +.O.C.A.) ' :.N.8 ` E.W.9.S.!.%.' 9.C.H.( Y.S g.K >.+.p.N N N.^ >.p.X.;.W.` _ ' 8.N.g.g.F F +.+.m 3.N o.P 7.7.6.P K { +.L.V.Q.Y.0.6.| ;.S.;.O.u.o.6.3.9.| 7.B 9.o.4.H o.D.X.0.' N.V.X.J _ i.N.y.q.7.J.",
"x I.' 9.' V. .( i.h.9.+.9.x H m [ <...a.N.S.H.H.' i.o.o.o.Y.p.P.7.D.~ T h x y.8.g.6.7.j.[ :.6.0.H ) ' d.0 Y.V.+.d. .C.d.L 4.+.o.:.p.3.| +.:.7.P +.7.9.y B.X.} d.G o.e.7.6.R | z.S I.o...L.3.m N W.h.7.m.3.L.~ Z.P.N.;.e.y.o.y.e.e.@.4.+.7.9.| ..9.S.q.X.{ N.S.~ ;.<.p.o.) H D.H.:.;.' c.,.e (  .;.N o.u 7._ Q.a.y.X.u.d.<.S.i.G.N.7 [ F.I.D.0 ~ q W ;.9 v.O. .~ :.C.X.W. .X.6.6.6.6.C ~ 9.q.Z.C.9.Z L.>.2.6.1.B.i D ) Z 8.| 7.r.u.o.u.} 3.3.7. .>.` !.S.L.s.+.q.Z ,.:.( e.a. .C.' Z S e.3.7.o._ +.o.7.p.h._ ..+.....T.F.i.9.F 8.",
":.l J.d.p.9.V D ..0.2.p.2.o.p.} u _ >.I.| V <.T.Y.I.n G W.j T ..8.~ %.H 2.>. .2.9.Q.W.p._ 8.0.8.e.5.6 G I.[ h :.) +.) >.i.C.y.6.y.a.z.;.N.9.| ;.v j <.d K ( ..7.P +.6.7.+.P 6.;.8.;.+.X.;.8.3.7.G m.p.D.B.L +._ 7.C.;.7.+.7.C.u.y.e.u.o.7.y.7.o.L q.p.>.I.] &.p._ W.S u.r.7.p. .D.S.+.+.X.7.o.L m P 7.H e.o.N.S.W.I.s.>.9.^.H.( I.L.N.0 A.T.C.<.q.S.J.L.[ ..o.o.u. .H.Z.7.9.y.7.g.D.z.N. .2.X.R.N.+.N.C.b.<.q.:.I.u.6.P ..o.| H o.o.| 9.p.g.9.0.u.:.2.S.T.j.s.T.A.e ` ..>.v.A.p.K.I.G.;.i.7.y.u.h.p.| 5.p.p.m { 9.) [ p.o.4 u.N ",
"W :...' Z L.9.i.q.U.| H ,.6.0.2.L.m >.,.z.;.!.' 2. .S.S.m.I.o. .} ' f.9.C.{ 4. .$.8 U 2.2.| D.+.o.7.H g.n C.<.:._ i.| 6.h.i ' 7...) ) :.} +.L S.S.q.[ T I.O.7.6.X.| 7.:.+.4.o.;.+.M.+.7.| u...6.u.( p...9.X.u.p.;.d.N f.6.L.i.;.9.o.+.I 3.I o.6.L G.e.&.;.I.9.+.o.N.N.H u.n s...C P.p.6.o.B V s.+.X...X.4.C.G.m.= ' <. .9.X.X.L.V.S.N. .N X.+.@.A.i.f.7.C.I. ._ | [ :.H u.+.| ;.q.q.;.o.j.y.;.B [ m.o.C.8.:.~ O.&.S >.+.:.h.3.z.7.S 3.9.)  .7.7.+.a.S.U.S.A.H.K.( W.y...S.S.u.y.{ z I._ +.6.y.f e.' L ..9._ h.8.| o.} 8.p.9.L.f ",
"H ` X.a.H.n @.+.2.S.P 9.G.P S >.9.7.I.>.9.>.R.P H j L.b.F.&.W.i.+.| Y.N [ J.i.u.K.y.u.X.L { o.7.5.4.y._ _ H.h.A.N.N.%.p.9.i.| 6.} +.D +.j } N.>.i.u.+.9.C.| C.g.u.d.u.o.3.P C.} _ 2.....L +.y.3.7.e.H 3.y.o.| C._ W.2.) Y.S.!.7.4.7.o.7.o.@.N.p.4.N.u.9.4 N.p.7.:.S <.x u.u.e.(  .V.d.o.| o.o.o.D.o.S.7.N.b.;.:. .N.q.6 z n i.E.K.N.H.( 5.g.7.A ( u.K V.9.~.d.i.9.w.a.;.y.o.L o.G.i.a.O.' b.I.L.p.D H ( T.e...a.{ I.G D.S S 9.+.7.u.o.B.u.+.9.6.} N.S.>.9.9.m i ] ~. .S.o.a.X.y.8.d.u %.;.T N.s.8.~ 9.G 6.C.~.e.P P H H z.p ~.D.",
"7.J.8.V.p.+.i.2.q.' 6.z.g.3.i.Q. .+.L.u.+.9.' u.4.7.*.~ B m x ~.+.Z Q.{ o.S :.W W N.q.u.>.{ 0.3.3.| 7.X.J._ S.N.C.S.~ V 9.a.+.) } o.C.Q.9.3.V :.9.o.3.u.7 z.d.G G i f.5.6.6.Y.V.| o.O.B.u.9.7.3.7.X.o.u.o.7.7.9.>.( h.L.H Y.Q.7.o.5.3.o.7.o.H T.p.| u.C.+.S.;.{ i.6...B.7.V L 7.A.A.J.p.s.P o.L i.p...A.;.X.B ;.} 6.6.{ D x o.Q A.N E.S.( I.u.8.J.<.x j 2.D.6.i.N.a.X.;.o.o.9.O.o.9.C.>.p.L.( T g.+.B.{ S.y.7.i.) C.7.3. . .3.| 6.7.G p...| ( 7.Q.N.D.:.N.7.y.C.D...N { ( B S | ( y.[ H.I.L.x R.P _ J...P P Z.i.e.r.H o.+.=.R.D ",
"4.a.y.y.} i.w.p.X.s.+. .3.3.i.%.6.3.U.| ..>.o.3.P 3.+.b.f.' V S P.d.u.m | F ..o.8.K ' } o.) S | 8.8.6.9.,.@.I.,.d.S.S.S.L.G.S.U.Q.,.2.~.F.| ..q.8.7.y. .+.W./ I.9.6.i.6.o.Q.6.B.7.p.y.>.9.7.6.o.>.p.i.y.i.+.X.7.p.D !.r.7.B.i.7.9.+.7.@.9.y.P H O.o.:.o.h.S.%.~.9.S ..N B.z.7.N.C.{ O.;.C.X.| u.H o.Y.7.6.X.o.X.;.2.3.H o.B.N.7 &.S.` ;.p.h ~ g S.| B.H.N C.S g.K.' 9.y.+.6.P :.i.I y.7.h.7.7.+.o.H.2.+.D.u.[ W.S.| H :.S.i.o.e.{ | u.N.7.7.B.Q.N.y. .>.Z.S } F [ B N ;.h.W.V.W.) z.( V X.d.p.B.o...' 3.I o.7.[ +.P.s.o.| N =.7.",
"7.;.@.+.Z G.7.4._ ' S.N.I.L p.p.C.&.R y.i.;.u.G +.4.h.i G 7.i.( A.X.) ) L } L 8.0.C A ..} X.A  .3.e.o.G o.p.>.~.G.W.L.S.z V.S.9.2.q.*.X.p...9.J.:.3.g.+.H [ +.N.N.g.G e.H ` ..p... .x p.i.9.p.7.G.B.C.a.a.p.o.7.y.;.2.i.4.C.6.e.5.7.y.7.@.7.' S o.u.J.L.L ' s X.I.7.p.y.j X.S.i.u.} D h.i.P } u.8.S.N.X.p.4.g.+.A.p.q.R.F C.s.G +.=.*.m g.p.J.~.~.H.8.6.V.n.;.7.a.( :.u.i.@.o. .w.u.>.i.8.o.o.o.9.o.;.{ B.:.V.+.} L i.9.o.3.o.| 8...7.i.+.7.V.z.B.5 >.S.,.~ N.V.S.L.N.:.p.9.7.9.s.3.[ :.;.p.C.o.) 9.| H u.+._ @.O.d.' J.D J.B | ",
"7.( >.o.a.A.X.5.2.L H Z.p.p.>.{  .I.Z 7.C.:.o._ p.g...+.3.C.o.&._ :.>.p.+.( _ P.o.o.g.S } ..N.F.7.+.3.D.f.p.l.f.g.J.S a.S A.Y.B.B.>.V.u.{ J.6.z.C.[ | 8.@.L @.S.q.J.6.S j 9.X.>.<.) q.L.V.f.C.q.B.@.w.C.+.:.5.p.i.S.O.<.P | G.E.F.6.y.o.+.+.| a. .a.6.i.O.7.;.h.%.9.' 8.R.>.V F.>...S K 2.M G.S.Q.S.H ..o.6.3.i.O.D.h.G D.} N.g.[ S.i.D.9.9.~ <.S ,.p.W.N.+. .9.G <.+.>.h.9.L a. .7.;.2.+.e.e.P o.i.| o.+. .i B...p.N.| 9.{ I i.0.7.D.y.o.6.:.O.S.V.T.o. .q.T.S.;._ o.N.C.i.:.o.+.{ y.D _  .p.o.o.K G 7.i ..I.J.o.D.5 ,.{ C. .L ",
"g 2.g.o.i.o.P W r.e.H S.:.N.>.3.y...7...9.N.V.T.L.8.7.Z >. .<.X.( G.H G ..o.H.i.C.V.V. .+.} S } P 6.9.4.u.u.n W  .C.+.u.S p.S.y.p._ Q.H.Q.D.o.d.@.+.o.y.7.4.@.S  .N.F.W.:.o.F.o.z.6.9.S.i.y.I.i.y.u.;.} ..S.o.g.S.g.:. .>.+.y.S.y.e.4.7.{ <.u.i.6.u.G :.I.p.L.N.) X.S p.y.H.i.;.7.h.z._ @.9.E.] ] >.n +.P 8.P q.B.V o.p.p.q.9.H o.~.W.S.S.i.[ V.@.N.+.2.:.>.#.8.o.7.9.p.S.f.u.a.@.g.i.[ V +.} 9.>.:.i.6.o.| W 9.o.+.9.>.p.9.y.L g.G 8.J.:._ ) L.I.S.V.:.q.:.K.z.C.9.g.[ 9.@.I.o.r.+._ 2.>.y.9.L.N.C.f.V o.i.;.i.,.e._ 2.i.@.I.I.",
" .w._ C.S.o.f.( O.d.+.H ] +.7.V i.:.[ 7.' ;.M.U.P.h.) >.+.J.b.( 6._ m Z.+.<.S _ p.0.p.V.2.E.m S K | o.@.P 8.4.o.| ( ( @.a.N.V.:.y.*.( A.,...} 7.i.7.0.+.o. .8.9.L.S.b.B 8.3.p. .) ( ( :.o.i.B.y.+.P L.7.C.7.3.V.o.S.2.6.9.o.i.i.7.7.p.+.<.P.G.>.L >.;.2.S.f.h.S C.>.:.9.u.N 7 e.o.5.5.d.9.2.+.x ) I.r.4.6.i.o.9.I.' e...) 4.Z  .S 2.i.!.~.>...;.N.y.[ :.8.u.N.L.9.:.y.V W H G.5.u.@.H.A.C.u.| X.V.u.P 9.7.P N.+.0.8.i.N 1.+.7.| | :.>.R [ H.N.O.;.R.R.V.] Z.&.%.L.%.i.3.V.i.>.o.i.;.i.' 9.u.p.9. .Q.e.6.| { o.8.W.(  .Z.>.:.H.>.",
"O.6.i.:.4.o.>.p C.i.a.P ) o.H C.2.r.C.8.A.S.A.b.A.o.o.;.a.) O.) 4.>.6.C.f.X.o.n 9.B.S.7.j.8.C.q.g.6.~ :.~.P u.o.@.>. .u.A.Y.c.T.:.7.u.R.>.0.H _ y.+.2.X.Q.o.9.9.Z.b.8.....p.u.u.o.P ' _ W K 6.o.s.7.;.p.i.p.+.y.>.o.9.7.y.@.3.3.u.y.i.i.C.N.C.f...a.O.S L.C. .P S i.J.%. .} R x l.;.w.B ( N i.d.8.9.+.J.>.u.q.D.A.X.L.q.4.9.+. .b.L B.T.Y.N.S.,.1.o.9.e.C.i.y.q.4.i.H.| F.W A.2.y.9.O.+.H.6.V.o.3.o.o.6.Z :.V.o.| 7.C.C.V.( S :.P.:.W.o.+.o.S m V.W P.i.#.o.+.9.| u.p...<.h.J.@.N.O.2.O.:.e.X.H D { X.q.h.3.o.G q.G x W y.>.p.p.",
"H +.f.2.E +.d.6.2.u.9...' S.P.X.m e.9.S  . .7.o.B.p.9.9.>.S.P.| 3.i.C.+.i.A.i.X.d.H P ) 4.G G j.u._ u.O.;.g.u.e.S { N.) G.` L.Q.o.b.A.p.:.D q.7.O.6.9.S A.J.a.q.N H I.X._ @.9. .[ +.o.s.p.8.5.6.7.G.7.9.i.C.e.u.n ( P.p.4.7.4.+.' L.H.D 2.' :.X.6.o.+.H *.f.9...p.' p.o...X.z.>.+.;.S  .;.I.i.( 9.[ 9.' :.y.C.6.7.e.u.7.8.{ p.S.A.Y S.v.!.L.T.6.C.+.o.' 7.o.o.:.C.) o. .y.@.A.H.g.X.B.:.O.C.>.9.o.4.3.9.y.i.D.o.H e.C.;.7.B.i.I.W ` D.O.:.I.l.o.h.4.X.L.8.+.h.o.o.;.D.p...u.>.K 2.L. .7.B.o.7...d.>.:.7.7.| 9.S.]  .[ { L ..;.+.",
"C.f.V.g.o.Z S G.N.C.9.J.9.) p.A ( P.z.j 7._ 6.H 7.p.S.A.e.W.m H.9.C.[ C.2.i.y.+...g.G | u.s.s.B 9.2.i D.O.V.9.@.+.N.9.U.b.H ..} i.i.S ~ X.N.i.u._ 3.u.f e z T i.o.7.;.+. .X.m d.W.2.u.<.o.8.o.o.+.B.p.p.y.u.7.6.X.W J.e.| S.p.y.@.:.f.>.@.e.e.e.K g.p.4.{ B.9.N.H.1.D.6.V.) u.7.n N.S s i.6.V.p.B.L.~.5 B.C.u.q.X.y.n o.7.u.>.V W e.V ! Z.G.L.o.L L [ { l.7._ 7.L i.N.;.p.y.) G.9.p.u.C.V.q.o.o.4.P C.P i._ e.B.P e.9.I.L.F.>.7.[ S ;.>.) P n ;.N.H.H 1.A.a.2.J.;.P.L.C.L.>.H.7.@.9.:.V f.6.B.;.S p.i.L  .L u.N.X.B 7.p.7.o.( K ",
"N.N.-.| F =.I.u.J.V.z ..%.9.:.T.S.;.K +.9.B 9.N.W.} 8.x N.[ N.| _ P o.{ o.( O.f.y.{ } 7.7.V x z.u.C.>.C.m o.5.| V...V.X.D i.) C.i...L.{ F.N.y.p.o.u.S >.+.+.3.' d.z.+._ o.H I.p.9.H.8.e.0.{ 6.o.L i.y.o.7.H.L o.@.h.7 b.h.@.@.O.p.6.+.@.D.4.d.o.5.B.y.G N.+.;.>.N.i.O.H } [ N.H.7.L._ s _ ` *.+.V.9.p.p.C.f :.X.| L.>.I @.d.S 9.u.7.i.i.z.n J.h.3.+.7.o.o._ i.h.C.Z +.q.G y.P.N.+.e. .X.N.+.:.3.q.B.X.y.s.) H ) o.4.( ( ' | { ` 9.7.+...7.o.H b E.o.2.L.;.s.( N.A.m.N.7.;.A.W.7.G u.( [ @.O.} i.y.i.H +.H L u.| +.X.S a.:.7.<.2.",
"u.6.s.u.7 h @.5.P u.) 6.) g.V.i.G.5.+.5.o.E.T.y.X.8.u.s. .p.N.+.7.6.a.p.C.5. .L <.7.L W +.i.B.i  .s.d.P.L.i.' _ y.O.Y.3.C.:.7.9.7.O.y.G.7.J.2.1. .i.} H a.+.` :...7.p.9.i.!.S.S 5.5.) 8.N.q.u.5.s.9.T.e.P +.e.+.p.L.u.@.E.o.p.u.O.( L.>.6...=.i.2.N.p.x :.,.} S s >.H h [ ) I.V V.N.6.w.~ B g.T.R.>.u.*.H.L 3.| 5.8.4.9.o.+.B 9.6.+.)  .e.O.X.7.( >.7.3.7.@.l.+.2.L.S.f.| i.y.O.L.h.u.+.o.9.8.9.7.9.X.C.w.o.' p.u.9.i.u.+.7.@...7.o.o.;. .+.i.G b.o.} i.Z.T. .( _ ` $.[ h.C.Z.o.p.>.S.o.y.B B. .6.o.@.' ;...9.' u.z.N ~ z ' o.h ",
"N g +.h.f.+.:.X.~.8.X.7.O.:.2.T.g.6.6.e.4.3.q.9.7.y.T.3.+.j H 8.y.9.7.+.} ..8.K.y.o.y.C.9.u.u.6.>.V H _ D.9.+._ 8.U.Q.+.f.H | ..2.;.3.C. .W W.V.+.) 3.X. .9.>.L.+.9.q.N.Z.Y.B.o.6.6.L y.9.b.2...' 4.f._ 6.L P.e.) R.K.9.H <.) 6.a.p.X.y.i.2.u.i.J.( J.9.+.u.i.u.z.:.' V.N.f.Q.D.~ { p.i.7 <...u 7.H.K.I.O.X.o.y.} y.L o.| @.u.o.h.y.Y.X._ :.G.K.X.o.o.@.7.>.;.u.X.u.I.{ _ p.m.y.>.+.>.o.3.P 9.i.J.>.9.>.g.>.+.>.=. .y.o.g.o.X.@.p.q.7...o.C.[ :.2.D.i.+.:.b.;._ a.o.3.X.i.i.R.m.i.F.N. .g q.A :.@.7.V.7.W.C.S.u...X.f.) F.i.7.i.",
"d.O.' o.g.:.o.i.! ~.6.o.o.C.:.[ I.o.i.e.9.B.[ R.i.( o.4.%.8.( h.P {  .i.2.L q.+.@.+.( y.} o.u.G { X.S y.u.9.D.H.2.,.N.h.6.L.B.q.V.8.L.8.7.%.o.q.y.7.o. .7.,.) | i.X.i.>.=.` 9.o.q.9.i.y.i.2.i.e.r.{ i.y.f.2.+.o.' ` Z.L.X.P.7.+.G o.K ) +.s.4.o.P.+.] ! N ;. .6.a.D <.x Y.2.N.P.V N.B.O.D 7.7.H W.p.>.!.N.E.7.6.P.3...7.a.7.V b.N.A.e.u.S.G.;.C.N.7.@.y.7.h.y.o.G ;.S.0.i._ ,.9.q.6.7.6.y.+.7.7.+.g.7.6.7.B.y.V.g.@.4.C.| e.X.+.2.+.L ) 6.h.<.:. .>.y.:.C.+.9. .o.o.9.i.2.U.~ d.u.J.;.+.u.I...p.} H.@.o.7.W.x _ L u.m h e ;.T 5.",
"+.9.d.o.7.) a.I.W.S.9.7.L <.7.J.h e.L C.7.F.6.o.y.m V u.D.n +.&.L.C.h.e.a.o.@.8.p.H i.o.6.7.N.J.P.L.G.;.C.B a.) [ Z ( 7.{ >.+...) :.g.h.7.>.g.i._ u...{ v :.C.X.o.9.| _ J.;.o.6.C.H.u.y.( O.p e.H [ H G.J.;.o.u.C.O.S I ' +.+.) :.G.J.y.o.H N.N.>.~.>.o.e.9.9.G.C.L i.I.7.4.C.:. .p H.B ) ..L _ N m.-.E.D.<.z.9.o.G 6.5.e.a._ X.V.>.p.P.G.) p...) +.H | G h.@.2.{ J.q.+.@.y.p.9.R.h.>.9.9.>.o.o.C.Y.g.9.V.;.m.y.6.7.o.) @.;.S.4.9.C.I.C.S C.N.[ X.( p.u.~  .p.d.N.e.Y.m.&.=. .i G } B.o.7.e H.y.S 3.N 6.;.u.y.9.f.x ' L o.| o.+.",
"X.9.} X. .G N.A.B o.X.i.l.p.@.G K.e.u.) o.2.A.u.| 7.o.N.R.P. .f.h 7.6.6.J.{ 7. .N S.O. .P o.[ _ | m i.f.+.+.G 9.K q.E.d.J.p.} } V H >.G G u.:.L.K.m m 6  .V C.:.2.7.H >.Y.i.e.{ N >.2.( L.z.z.y.X.o.+.I.{ P 9.y.5.+.h.K i.H.I.C.C.9.L G p.W.K.o.o.S.9.5.H +.p.I.+.H D u.7.j B / :.m G H i f.X.y.| n N.O.N.J.i.+.+.' o.+.u.4.r.j 2.:.i.L S.7.i.{ N.o.;.S.i._ >.d.2.L.I.[ ) V.;.Q...y.h.>.+.y.9.u.O.Q.,.b.i.7.i.@.y.o.6.E.4.2.3.P.L.i.F S.w.i.C.u.u.o.+.7.o.9.9.S b.A.A.3.} ( H N.P.O.2.o.P 4.q.p.| 2.L K o.+.) 6.S u.L D D 9...F.",
"..+.) H 9.[ ;.v.{ 0. .<.2.v.| h.@ Q.9.| | 3.+.h.m 2.q.{ W.V ;.V 8.[ 3. .H 9.o.p.N.H.@.+.9.{ >.o.9...f.9...! p.7.d.9.L <. .o.+.S.H.p.C.| { >.R.2.x 7.+.B g.L._ q.;.K +.L +.i.q.7.o.C.A.2.S i.y.7.H.d. .N.+.9.9.m.Z p.+.9.L ..P i.%.| P ! S.m.m b.z N.+.g.;.2.P ( A 7.o.~ p.| L.[ q.L o.i.' | u.o.l.( N.2.( ;.R.i.u.9.M.I.s +.u.u.L V 9.9. .;.2.D.;.d.6.a.S.[ 2.L.e.<.S.g.e.) y.u.9.+.a.B.+.o.| o.9.B.C...i.8.9.d.3.6.9.u.o.O.b.Y.o.u.u.a.y.d.p.N.B 9.+.0.q.8.8._ @.W +.O.2.C.T.o.) _ X.9.9.+.i._ 4.....n o.+.{ 7.u.y.;.+.3.u.:.) ",
"a.S d.Z C.8.>.} 7._ 9. .+.@.7.L @.q u.L 5.9.S.y.7.u.H X.~.' N.y.d.6.8.L 4.G.;.<.C.X.O.>.Z q.u.y.9.3.S +.i L.K.} i.B.F.i.y.a.] U.C.L P.{ 6.o.:.W.S.u.p.7.D.^ >.i.2.7.P 8.o.p.9.y.+.p.] ..K i.i.F.C.i.S.C.>.I.S.L.N.y.5.d.+.y.f.e.f.z.+.s.S.[ o.6.F.6._ ) A.N.T.i.L.;.| ( +.;.} 9.o._ 9.y. .x +.s +.[ C.( w.9.>.| j y.K G H.m n 5.i.u.M 9.} S.V.>.X.u.o. .L.,.m.N.i.a.W g.y.7.H.9.V.p.q.:.e.+.D.i.T.a.a.+.o.+.L +.h.a.6.>.9.u.q.+.p.o.7.9.J.u.B.C.V.+.9.8.3.3.| }  .e.6.i.i.p.7.+.Z y.e.| d.s.j 2.F.{  ...6.s.e.H +.K ;.L.o.y.7.+.",
"p.e.@.P +.X.o.z ; m 0 5.K.f.L m 7.L c.f.;.N 3.7.4._ 9.! m.;.' ' :.} V.| 6.7.p.' V o.u.2.V.z o...o.q.:.| B.p E.E.z.D.T.S.B.N.6.<.>.y.9.S.K o.>.1.H.u.W.u.[ ' ;...+.A 8.3.3.e.J.u.u.y.7.H P.y.g.c.2.H.c.i.X.H.l. .I.C.i.9.~ <.` Y.b.S.S.N.S.>.7.6._ { >.} P.L.>.o.g.>.G ;.[ 4.K  .p.S h.5 J.a.X.P H L.:.G.F O.m ;.H.W.~ [ m.h.o.N.9.+.' ..q.H i.6.u.o.O.8.L } _ _ A.P.+.9.:.o.[ @.7.i.D.S.{ s.N.N.O.p.y.F.3.8.3.9.{ i.p.L.R T.q.B.9.7.7.Y.S.R.D.@.p.S.W.H.8.} 8.3._ _ >.J.2.} P O.u.F a.A 0.9.7...V.L d.9.y.5.o.+.+.3.P.L u.[ H.V.",
"I.s.:.m X.9.{ X.R +.T 3.z v 3.) o.n >.B >.@.H.X.o.m ) 9.j u u.+.7.m C.L ..} X.S.N.+.2.H.| u.H.p.F.3...P G.L.[ D ;.V.i. .%.A.R.S.o.X.S.>.| { } ..B.p.,.S.Y.( ( | z.i.4.+.J ) H m ) ' %.N.M ~ :.-.W.!.a.:.6.D.y.V [ ) L p.p.S.S.1.N.<.Z ( C.I.h.R.u.y.D.m L L.+.L { u.y.W 9.+.7.L.( O.9.G G ....} :.C.C.C.i.a.i.;.>.:.g.g.N.S O.e.y.p.C y.6.3. .O.P o.+.+.4.i.i.o.i.o.p.5.C.J.( A.H.i.e.I.) o.o.y.X.7.u.y.V.7.6.+.3.y.q.U.9.S.>.b.N.B.e.+.;.V.' H X.) N.;.Q.h.7. .o.P o.V.N.>.4.e.P F.9.p.| j.P. .) 2...i.@.4._ B | o.[ y e.;.( 2.",
"+.:.8.y.s o.' I.' ) %.3. .9.e.L.' 8.W.H a.=.g.V 9.9.J.F.B.>.z H.+.X.F.5.r.9.u.Q.N.i.i.X.6.M L.C.7.o.X.B.;.u.7.s.A %.C.z._ T.u.G.4.9.L.S.0.F.o...N.} S <.} ) [ i.S.7.K { O.h.S.~.9.p.I.@.D.B ;. .>.L.4.S.I._ J.X.N 6.0.[ 2.m.,.+.5...L.L.C.;.9.~ !.a.>.I.P.X.i.p.>.o.+.:.X.) u.,.7.H H.p.{ 7.( L.o.9.2.q.[ i.7.) a.[ N H 7.P.@.I :.O._ q.u.+.i.h.9.L F C.7.| ) e.7.7.+.S.G.G.~ h.m.e.9.f.L.4.5.u.q.o.9.9.F.F.7.0.7.X.N.N.Y.i.n.o.i.9.>.o.>.7.>.q.8.3...G ~ T.j.S.N.L 9.b.2.S a.G D.6.9.+.$.<.6.y.2.+.N.+.L.f.h.e.7.O._ H.;._ X.n ",
"( C.2.H D L.5 = h.u.N.P o.:.s +.W r.;...I.i.V ' C.o.~ j +.L z.S.{ x E S ) q.+.o.f.+._ y.6.u.d C.} u.+.S. .9.3.( d.F.:.C.q.T.C.V.p.i.S.g.q.9.B.[ R.<.0.6.{ S.q.{ o.a.S.} _ { x ' _ N.>.S F.N.u.Q.( I.h.;.Q.u.W.h.J.6.K o.A...P.o.h.J.o.7.X.q.q.9.` ( +.H 7.i.X.e.| 9.;.>.p.' l.C.K g.d.9.} ' ;.P.m.D.V ' i.{ i.X.H.G.C.@.y.N.J._ i.U.' p.5.{ ' o.| o. .N.S.V.F.H.y.p.6.S.N.@.o.O.9.o...q.p.{ 3.y.9...,.2.S.N.8.4.o.6.i.N.>.N.6.8.9.6.3.>.i.g.u.L 0.i.+.y.6.Y.i.S.H.Z V 2.B.) y.| B.I.W 8.7.( +.=.>.9.>.| C.S.H.4.9.Z { 2.=.e.o.H ",
"N i.| V 9.R I.i i.u.9.6.Z +.n S.P o.' X.;.@.n 9.y.J.J.) u.L 9.W +.X.p. .s.+.f.S.o.;.3.B >.3._ X.{ 9.h.S.+.) N.X.L.F.p.C._ N.Y.a.6.S.} 9.V.S.N.q.} +.u.| m H.V.;. .S.S.9.3.V.:.` T.m J.V.N.;.` 2.N.m.>.y.[ p.0 m.y.u.f.H.g h.u.Y.N.G.9.R.z.H R.H ..@.P 9.y.P ' @.+.*.} z Q.*.{ h.F.4.6.G j.<.N.;.,.| o.o.o.u.>.H 7.i 9.( 4. .d.C.L.q.2.+.6. .J.L E.N.+.C.G.X.a.} i.X.9.N.s._  .a.| L.>.+.a.6.o.9.+.6.7.3.p.+.a.u.7.0.9.C.o.D.7.+.7.3.o...+._ o.u.' d.s.| :.p.q.S.A.C.7.P.I.[ e.Y.X.D C.u.I.K.( @.3.L 9.:.Z.Y.T.7.5.y.o._ X.X.V >.",
"| H z K U.+.3.%.` I L | o.h.P.u.P 9. ...5.L.s P.;.B.S @.9.o.{ o...( ) G h.y. .S.u.7.+.+.G u.6.u.z.o.O.l P.>.u.H...S.R.9.X.b.y.O.B.T.q...6.B.F.N.C.m.L _ 6.L.P.J.X.d.q.>.N.B.I.H W [ ,.R.[ V z L.9.} M s @.a.S.s.=.q.3.:.P.W G.N.S.S.o.' L.N.~.P o.a.L _ r.H ' n s q...7.9.i. .j.h.H L e.[ i.: 9.>.e.i._ :._ p.<.@.s.u a.y.<.p.9.7.q.X.p.o.:.+.N.4.O.a.$.A.c.o. .h.p.7.9.) C. .u.p.u.6.p.;.8.| i.8.i.8.4.:.C.B.} o.o.|  .Q.+.2.g.9.} +.9.X.u.+.D.9.P.| | o.q.E.0.p.+.( [ i.V.7.=.@.o.9.L.P.X.) y.6.7.o.B M.Y.U.Q.z.3.| _ G 7.H ;.",
"2./ 0 e.P.7.i.H S.H i.z ` >.~ I._ P._ e.d.>.s ;.%.9.D.9.X.>.P.S.+.K.G K 9.T +.*.T.:.o.o.i.>.7.o.m 7.~ r.j 2.f.L _ L. .p.N.a.H.a...B.C.B.p.6.B.S.F.V.N.| o.D W.W D.:. .B.F.C.!.g.b.;.' ~ O.W o.K +.a.' N.' R.C.i.w 9.o.i.T.E Y.a.W C.n >.Y._ 9.8.y.m 7.O.S.{ K @.) g.m d.z. .Z +.l.S.+.L.I.N.K.- i.q.K D.y.;.h.L.C.) y. .y.9.y.6.F.8.H } { g.G 8.B.N.X.G ' 9.u.J.J.7.;.L.6.i.7.o.3.D +.:.>.p.y.Q.3.) ) +.u.:.p.3.7.i.I.H.) N.u.| <.N.:.h...8...6.p.Q.6.7.q.V.9.9...y.| G 7.u.N.D.X.C.i.T.F.2.4.o.3.8.4.6.` G.S.L.R.7.o.9.V y.7._ ",
"3.O.e.3.5 y.( O.O.L.L { 7.L.D.X._ :.e.| 7.S F.u p.F.g.u _ f.5 V.Y.9...i.h ~ g.6.m.o.9.` [ +.| T.p.y. .O.d.V F.y.C.1.i.N.[ X.*.<.i.9.{ B y.p.p.0.q.F.S.u.9.+.X.h.w | g.P.F.` C.N ^ *.A.N <.[ 6.9.C.o.D.K i. .X.p. .6.o.L.<.p.K i.p.>.S.a.i.o._ _ J.o.H >.M.'  .' i.} L 4.` u.m 9.X.O.Z S.Y.C.e.8.z ' 5.B >. .E.| H.B u.n p.>.u.C.( D.h.y.p.y.p...u.g.F.:.7.9.y.B.X.y.6.i.D.o.a.X.7.N.u.i.u.i.9.*.6.i.3.u.s.7.+.e.2.y.y.V.7.S.N.9.C. .i.+.i.i.B.I.8.H...u.L.K H.>.N.9.:.M O.l.1.) 7.w.Z.G.A.i.G e.3.o.7.7.o.X.A.b.S.o._ L.) ( e.o.",
"3.I 7.e.o._ C.:.+.N.e.e.@.p.:.p q.B B.L.3 W._ 9.>.T.q.H.a...F.S  .} ' A p.+.B.2.N.p._ 6.p.p.9.| 6.O.+.o._ 9.7.N.N.q.g.+.u.q.H.C.q.@.9. .S.0.h.:.L.S.i.>.+.7.G i.v g.H.h.u.T.S.S.S.V.T W.B.*.9.,.N.e.p.B.B W.a.2.V.u.+.;.o.2.@.+.P.y.] 7.G u.>.o.+.d. .V.r._ C.[ i.y.....o.T.J.C.y.9.i.C.y.p.e.4.~ u.D.| x S. .9.>.<.X.B 7.i.>.g.9.L.D.9.u.P.+.X.9.C.9.o.>.o.} y.S i.7.+.6.+.9.3.o.} } >.u.B.[ T.q.8.3.7.X.| { i.u.i.y.7.p.p.p.u.+.D.y.+.X.O.7.e.S.G.D.6.7.} T. .G.5.e.i.} a.Y.) m O.G.A.T.F.P.+.s.o.p.q.>.:.[ S.S.7. .7.+._ 7.+.",
"S 7.7.P.2.) >.{ X.A.b.Y. .n 7.I.S.b.y.7.I.i ( ) O.6.u.K N.s.S ) u.D.g.;.o.>.g.C.P %.i.} d.p.o.s.u.f.9.7.@.p.+.) 7.F.+._ ) u.5.C.+.S.N.g.3.u.>.9.p.N.p.>.y...N.[ G :.V.w b.j.B.L.S.F.H 3.9.| :. .u.7.D.J.;.V ] q.3.B.7.6.e.i.4.o.V {  .7.( 9.:.a.q.i.C.Q.r.a...) ..y.4.7.+.| [ N.L.;.( { n t i.o.@.B C.+.u.o.' s.>.9.N.9.' m Y.i.%.P.2.U.L.N.+.o.5.4.8.h.j.+.+.' :.8.[ 6.o.+.G 7.9.:.N.+.p.N.N.-.+.N.S.K o.9.7.2.u.X.4.p.F.L +.3.6.7.4.6.' u.L V.N.X.C.i.o.) V.u.C.W Y.W.C._ y.| p.:.[ U.A.=.} u.D 9.+.w.b.X.>.G.C.} +.3.G h h.7.",
"3.7.6.x +.z y.f.y N.T W +._ ` !.%.{ L B 6.V  .S y.X.e.y.) :.p.9.W.i.y.u._ m 2.S.B  ._ 0.>.y.C.C.o._ g.( p.K.+.e.b.>.| } 8.) 5. .i.i.C.p.S J.E.V.S.:.q.8.e.2.2.2.A.S.L.V.{ q.3.D.S.F.o.p.S +.o.6. .P.W.e.X.e.L 4.L.%.7.P o.3.y.{ 3.) i.o.0.f y.' 9.7.2.[ 2.G } d.G X.X.8.V K.x 2.p.:.P.H.h.' { 7...X._ B.i.:.( x 3.7.u.,.>.| [ +.H >.d.Y...>.:.>.9.4.9.9.+.y.q.R.X.4.C.p.6.+.o.X.u.D.i.9.4.H.y.i.a.S.q.i.S.o.B.p.{ ' 8.u.7.C.i.+.7.X.@.i.i.p. .;.B.u...9.3.9.h.3.p.9.S.v.;.L d.2.[ y.C.A.E.9.7.y.b.6.o.u.7.7.7.V.9.@.o.e.L O.:.y.",
"G @.+.u.+.7.( o.g._ { u m 9.0 o A.W S ( <.i.x X.o.O.s.7.j I.D.z x  .p.:.(  .D.+.7.7.X.d.O.u.' o..._ B.J.+.H ) | I.L.u.o.>.9.X.G.S.p.@.e.u.B.J.p.S.:.X.7.p.m.;.C.C.V.A.D...H.7.8.) +.P ~ T 9.i S m S.A.7.6.;.3.A.r.X.N.@.u.d.7.o.7.C.7.{ ' 7.' :.V e.s L.z.9.m W.i.:.;.J.s S J.B.i.i.;.J.2.) +.( I.J. .( | Z N.' i.+.C.H.D.H +.Z u.q.9.E.>.F.p.7.H o.@.u.3.9.y.e.X.6.G.d.8.7.H.+.e. .;.7.9.9. .8.X.F.7.| L.L.[ 7.) D.S +.N.e.+.6.7.6.o.4.2.d.y.+.b.L.V.7.o._ i.X.a.! S.L.u.z.M ( y.X.-.[ Z.W.i.e.K.u.>.Q.7.o.o.>.y.O.P H L o.N.G ",
"o.+.r.o.f.V 3 C. .t.o.+.S X.h 7 7.3 N.j 9.x ) W { ;.d.+.| _ +.G D H S a.} 7.x ' +.X.>.V.G Z.i.9...} O.>.G 5.h.7.8.C...| P...7.>.p.8.7.+.d.7.~ d.D.7.} 6.6.!.e.:.6.<.V.V 8.|  .v ~ >.K  .;.B J.V.{  .m.N.9.{ Y.:.A.Z.L.y.4._ o.y.p.:.} y.b g 5 ~ >.o.D / C. .p.>.S C.p.) p.h.x i.i.i.C.X.) ) ( B.T.;.h y.S.' m @.7.2.f.s.2.>.E.C.[ C m >.o.S.d.7.u.K =.} ) 9.7.0.p.3.9.S.u.5.;.X.X.:.) B.J.q.~ @.i.3.o...a.y.+.F.;.S.J.H.+.o.o.9.o.@.9.H 7.:.i.o.+...S.9.3.S.K { [ ..%.A.S.S.g.+.a.F +.P.:.A.T.S.A.Y.V.C.V.M.X.+.9.9.g.u.B B.o.| ",
"I o.H | 7.o.a.i.6 # 6 T ( P.u.' 5 9.G ( N S p.V ( i.7.7.u.:.a.q.p.{ 7.G D.3.y.h.3.8.O.y.} +.+.+.6.f.} o.~.*.z.+.F.6.5.+.} y.o.X.X.+.H P | >.i.>.b.) m | ) G.I.z.C.S.V.S.9.H L.u.S ..2.6.;.9.3.L.6.~ o.M h.L.N.V Y.C.i.5.7.X.7.n [ >.3.G.>.8. .>.3.{ K.+.C.e.{ ;.u.[ o.&.N.;.%.N H ( 7.u.C.h.E.:.p.L.N.A.[ o.N.R.F  .:.u.3.W.u.y.B.O.L.p.+.:.X.u.d.6.X.o.8.7.+.u.7.9...o.P 6.+.) D.h.9.G.7.V X.p.:.3.o.7.u.9.9.a.D.S W ;.9.l.r.o.a.o.o.i.q.9.8.' } y.B.i.8.i.N.7...J.a.V ,.B Q.:.e.g.@.9.7.} M.M.;.Y.B.p.} N.+.3.+.o.D.| 8.C.| 8.",
"3.3...e.e.o.3.e.S e.H.G # f.%.a.D.s.j n ( 6. .y.>.o.6.3.+.@.7.J.G *.9.H { o.9.@.o.| 9.+.8.} ....H >.y.) C.7.| u.o.y.y.F.| u.D.+.9.| 9.y.p.{ 8.:.y.p.7.o.;.N.,.2.p._ L. ._ 5.e.C.3.7. .X.<.6.9.7.+.N.o.C.C.>.z ( Q.B.V.B.7.7.B.8.C.9.d.p.9.{ :.*.I.9.V.>.q.X.g...+.V m 9.a.E.X.[ ;.i./ N V + e.7.` >.K.u.<.` w.G.a.@.C.7.s.e.5.e.p.4.i.+.m.i.+.p.4.e.@.7.7.3.i.C.9.q.y.6.9...i.K L [ +.6.B. .( a.X.q.9.K i.9.B.B.2.u.y.p.C.N.i.C.6.o.p.X.9.9.X.p.i.p.8.2.X.B.N.{ | { f.o.j L.S.Y.b.7.n y.D 3.3.o.9.S.) 5.2.9.o.) 9.9.9...G +.o.o.",
"y.5.+.e.9.f.P h.+.e.o.( ( 2.| 1.m.B 9.h.o.@.9.7.@.>.H ..9.e.@.>.4.H ) | 2.h. .u.3.G A m.) 9.J 0.d.o.H ;.m ' o.L.+.y.9...7.+.[ :.p.N.B.V.F.A ..q.3.I } p.[ i.:.p.6.f.C.N.S i. .X.+.9.y.v *.A S.+.y.B.>.{  .P.[ H Y.S.v.i.h.9.6.| +.H.C p.6.)  .7.a._ } U.) ..9.S.p.o.q.~ 9.X.;.O.L } 7.a.) L.O.) S W.u.:.i.O.N 1.A.N.X.:.y.a.@.h.i.P.;.B.O.P a.o.e.+.) K 3.q.a.;.5.u.~ ~  . .9.i.p.9.+.g.p. .[ u.6.9.6.q.u.i.} B.V.N.N.:.o.N.i.i.q.o.3.7.9.u.C.9.9.X.A.9.X.C.i.7.>.o.A.:.V.2.i.| B.2.3.' D...} { ..9.) 9.9.0.6.8.) ` u.} y...o.) ",
"N.3.4...6.9.' k.P.y.{ m H P.J.u :.X.C.F y.+.>.w.2.7.i.u.s.6.7.N.+. .9.o.7.u.) ) 7.L.u.( C.| s.[ p. . .j.9...J.:.6.o.a.9.>.{ +.W.n X.p.+.L.N.S.7.o.3.+.V.p.2.y.9.+.S.N.u.R.B.L.` { 7.q.u...9.q.i.h.7...f.L.;.+.;.S.N.B.y.B.7.7.u.q.Z.0...I.B.p.9.:.+.;. ...X.D.B.p.u.:.O.o.Z ..f.4.4.i.;.;.N.Z.z G K B i.I.p.<.G./ O.@.' / S B.V.9.;.i.S.S.+.| >.u.9.i.i.o.C.3.f.7.3.J...>.:.p.h...6.X. .>.z.+.G. .9.y.L.N.N.N.2.C.B.9.7.8.q.B.N.p.+.9. ...2...i.8...o.3...+.L.3.o.o.a.3.L.m +.L.u.9.f.u...r.) o.o.[ ..9.L.6.9.P ..p.B ..6.s.o.o.",
"X.P 5.7.9.:.[ S.Z.H.7.7. .j n y.O.y.[ g.H +._ 9.X.J.C.h.u.6.7.9.N.....p.d.u.X.9.+.H 7.+.C y.4.8.| { 9.u.X.+.X.) o.7.>.7.+.e.7.y.u.+.p.+.9.9.( 9.@.6._ X.G o.L G | 9.7.S N.I.y.*.;.j.G F.6.p.V.7.p.i.o.A 7.9.L m R.N.~.u.:.4.~ h. .q.W.p.| u.~  .X.o.V +.K | h.n.7.9.8.u.u.o.u.g.G.H.m.X.' ' N.o.h.E i.2.:.;.h R.C.M H.L C.' ;.N.i._ i.G.M.>.e.7.+.u.y.8.o.0...3.5.0.U.h.P.B.H.L.S.J.+.i.i.u.' 9.C.;.9.S.N.) B.p.S.9.9.4.:.o.+.9.B.i.i...9.>.H.p.6.7.i.o.p.8.o.3.9.C.X.u.e.4.....E.H.O.B I.D.u.>.F.V.b.f.P +.6.6.P 7.9...u.u.a.3.",
"9.X.7.s.+.i.o.r V.m.o.) S X._ L m.) a.p._ h.) X._ d.o.i.7.@.+.3.9.J.L h.u.{ K 7.| 9.9.z.N.P 7.a.C.p.o.....P.9.I._ | 6.s.;.9.i...6.a.a.C.i.F.>.W.<.p.6.( 6.i.y.7.F.H H o.[ q.4.o.H e.h.+.7.7.8.+.y.R.S.M.i.3.) 7. .Z.Y.L.>.g.G H.0.q.n.J._ ..g.2.;.o.7.O.7.p.+.m.%.N S :.@.7.w.:.G.[ Q.u.[ C.%.V H ' [ p.H.[ :.i.a.@.!.p.s.y.G.S.S.9.H.m.2.2.+.5.o.4.o.+.3.4.P 2.5.9. .p. .U.S.C.o.o.o.S.i.i.O.G.+.N.V.L :.S.N.p.i.| 9.:.N.i.S.b.i.>.6.3.8.6.S.4.4.p.} 6.p.2.V.o.o.L.+.a.N.a.a.H +.2.p.8.B W.d.9.7.7.+.G D.I 8.| { 9.H.p.q.7./ u.",
"u.h.A.R.Y.S.C.!. .Z H H K A.l z.h.e.m.O.9.H +.X.o.o.7.+.o.u.K @.9.o.2.3.K :.G X.p.u.) o.B.J.V e.7.o.8.i.' ..Z ` C.i.( p.[ [ 7.y.H.+.>.y.3.i.>.9.S.S.| o.7.a.h ..y.5.p.H .. .I.7.p.V V +.I 9.....o.i.F.o.N.@.i.D 8.~ 1.A.V.:.g.H u.W T.q. .| | m +.X.q.( 9.| 9.8.9.@.>.7.M 4.( x O.i.7.H X.O.s L.x e.4.C.9.<.8 y.6.w.9.@.e.r ,.:.A.i.u._ ..s.H ..o.7.y.o.o.6.9.3.{ _ u.H o.:.V.i.3.7.5.:.>.;.V.V.p.,...i.;.Y.h.9.V.+. .6.8.i.V.N.9.8.q.B.+.p.} o.4.8.i.9.0.0.p.O.3.:.B.Y.N.9.C.9.9.L 9.u.u.f.T R.W :.y. .N.;.X.I g.D.7.} X.:.9.i.",
"M.C.N.1.Z.Z.W N M L P.i.C.C.V 9.2.e.( N.z l.y.p.H x B._ u.>.9.>.y.L.I.7.p.4.o.H 4.f.7.u.( a.[ 6.5.7.j.X.P.p.X.m m.W.P.i.>.+.9.p.e.+.W.4.6.u.a.R.E.T.7.o.6.u.S 6.h.8.L.N.}  .:.N.X.+.7.o.u.o.o.8.o.J.N.a.m.L u.} p.f.2.L.y.S C.h.h.A.C.Q.g.9.{ ~ 2.+.+.a N.9.y.+.+...+.u.+.p.e.u.a.u.u.h.y.;.z i. .o.!.C.W i.5.C.=.;.o.;.j z.y.o.7.u.y.,.h.2.K.7.o.7.u.o.p.H.G +.9. .+.i.[ 9.o.9.O.X.7.{ h.9.N.;.8.N.u.Q.6.T.n.g.q.d.+.C.9.P.b.9.9.9.p.q.6.3.8.4.i.>.9. .h.9.+.o.p.u.` L.S.e.+.7.9.i.B.+.a.X.d.u.d.7.p.a.z.u.H o...{ p.;.' L X.H ",
"i.C.C.M.%.N y.l.( O.S.9.J.V L.4.G u.e.} p.N.@.M  .X.P.h.9.7._ -.A.T.` [ m m S.2.n.L [ C.S.N.J.6.7.o.'  .@.s.( 2.S S.%.O.} o.a.5.5.7.4. .O.*.D >.p.o.7.5.s.B. .2.c.I.6.C. .G S K {  .+.9.q.o.X.9.o.7.q.G.C.{ d.8 Z.*.;.[ i.O.p.N.N.n.Q...c F.+.v H. .[ :.>.V 9.o.o.u.h. ._ >.6.G i.i.Y.V x  .I.z.i.V y.+.T.C.a.f.;.9.u.9.H.} } d.8.V.)  .N.e.g.6.p.3.e.u.u.B.9.9.W.W.;.| ;.+.i.J.N.+.o.O.o._ ..N.B.q.X.( B [ i.9.0.B.;.V.q.0.o.p.p.o.D.V.8.p.*. .6.8.>.6.0.7.7.+.9.p.@.V.V.' 6.q.+.q.:.6.7.7.o.u.H.D.{ _ { I.{ u.y.9.u.....u...9.",
"M.Y.A.w.+.I @.u.+.m.( ;.y.z.a.w.i.+.7.7.S.C.i.9._ n ` L.L.X.P.H.G S.i.S.F.| e.N.g.V.S.E.o.e.I o.o.{ 2.9.7._ N.~ ;.N p.9.o.+.7. .~ e.u.u.i.G  .O.{ V S a.u.V.Z C.o.C.s.5.g.u.X.S.w D.>.R.W.L...6.>.i.C.2.:.} @.~ [ 3.u.J.L.P m i.:.S.W.Q.%.N.p.>.O.O. .B.:.9.9.s.X.:.i.@.+.i.7. . .M.>.~ | <.N H.5.B.N y.Y.Y.2.V.H.V.C.+.C.C.j.m S.e.| P ( _ N.C.B.y.y.o.+.8.i.p.} 7.8.8.H C.q.h.e.a.>.i.i.( ;.9.' 9.h.7.8.9. .7.0.>.7.y.u.9.7.8.B.S.:.S.q.0.7.3.u.6.3.6.N.V.p.4.V.X._ C.O.+.7.9.o.+.{ 3.L } 5.8.s.6.H +.J.{ F.H.u.o.o.y.X.) S.Y.",
"G.A.N.e.o.y.@.X.@.+.a.X.<.n ) a.A.G a.>.J.2.p.S.a.>. ._ G a.I X.H a.I.O.+.~ 8.q.9.V.D.8.+.y.s.y.) B.C.o.6.d.I.N.H.N e.y. .u.+.h.d.5.e.g.d.+.I.V.9.+. .O.X.B.L u.6.B <.I.8...f.C.;.h.) :.O.+.g.G 7.C.i.f.4.' V.q.W.3.J.9...D.S W p.S.n.S.i.b.V.i N 9.:.B X.;.{ >.i.y.e.a.y.7.o.u.W [ +.B.V.N.2.%. .g.9.;.%. .N w. .+.X.a.M.p.A.p.u.u.f.o.3.| S B.9.v.V.N.Q.6.q.9.>.o.J p.>.' C.p.i.y.i.9.7.;.>.7.o...i.y...+.6.o.3.0.q.O.9.g.p.9.S.Y.S.0.p.9.3.o.4.3.i.2.q.| +.q.,...a.H.S.;.9.u.8.i.g.u.5.a.o.7...5.6.q.} +.} 9.3.| e.9.X.@._ S.",
"M.Z.S.O.:.O.H @.2.i.( :.N.O.;.p.S.;.B 2.( S.( G.N.X.o.5.s.y. .6.[ u.i...H.L.S.4.d.9.6.e.| O.( :.S o.7.9.9.u.G F.H.p.N.9...C. .f.p.X.S _ W G _ h.y.K.i.I.D.q.X.[ 7.4.| ..7.3.o.s.7.9.Z y.7.i.8.p.i.p.9.p.o.+.A.e.i.i p...C.+.p.>.;.n.*.F.| | s.g.N.X.i.C. .:.G p.D.+.i.+. .+.' 9.q...Z.A.U.( X.B ' 9.:.>.V.h.H p.X.7.O.u.G G ' S...+.R.:.I.8.9.{ F.+.;.V.9.q.9.o.9.B.i.7.p...S 2.<.Y.p.N.7.;.>.o.+.X.7.;.y.7.u...+.>.o.9.7.V.a.6.4.+.p.0.6.8.X.B.>.8.6.S.i.S 8.9.p.i.G.A.J.X.g.o.4.9.....o.o.7.e. .P o.q...B.a.( o.3.5.X.;.1.;.U.",
"} :.>. .+.o.7.w.I.o.,.P :.R.W.i.Z a.2.V.%.' o.X.>.O.7.X.3.o.o.H N.7.{ o.4.o.h.6.L p.0.:.o.6.9.P.H p.p.9.y.7.9.P.R.2.S +.X. .9.6._ P G a.:.s. .a.{ L 3.@.u.<.7.+. .W.5.u.x K.7.M g.u.o.D.P y.g.y.y.+.h.7.7.7.p.u.X.a.I.e.7.r.' a.[ ~.o.W.z.+.D...o.:.S.i.D.9.:.S >.y.u.<.( 6.i.:.` +.X.N.C.+.' [ B e. . .z ;.N.X.o.| T. .a.| y.Y.N.N.C.F.q.9.7.D.C.i.9.2.m.6.7.g...B.i.5.H.p.o.+. ...L 6.u.9.+.i.C.q.o.6.7.a.o.o.F.B.~ <.6. .>.0.4.9.7.3.+.u.C...g.7.9.S.7.| D.B.o.G.C.L.S.o.S 8.B.u.:.| G N.( P C.p.p.3.7.+.D H.g.4.X.L _ :.N i.",
"P 7.L >.O.O.p.( P.9.!.( B.N.i.| 9.V Y.4.4.a.B.%.S :.L G s.o.X.>.>.} _ } L o.p.J.X...H o.:.e.u.+.d.d.D.n Z H H 7.h.u.g.7.) +.I.o.P 7.g.>.:.o.,.9.' O.S.S m @.N.u.9.,.7.| Z 7.p.8.6.' X.o.W H.y.>.h.y.i.C.e.7.P u.{ D.[ V +.I.I.z.C.S.V.n.S.g.H 6.7.X.A.} N.) i.[ K.) V O.a.Z C.K.x i.5.) E.L...2.>.j a.W.2.m.O.y.~ +.Q.h.X.o.+.V.F.q.>.Q.+.o.u.>.h.i.9.C.9. ._ u.o.9.6.6.[ u.[ O.J.:.i.i.9.9.J.9.+.9.9.7.9.7.9.B.[ i.D.D.) 6.+.i.i.6.9.9.u.p.o.L 8.+.X.2.h.6.Q.B.^ S.L.A.i.p.8.S p.B.7.0.q.o.j.L.>.o.7.4.| i.f.o.S.8.3.6.o.o.V y.",
"a.h.( @.@.C.o.X.U.=.C.h.) ` 9.+.9.u.V P.9.W C.H.+.N.9.g.o.+.5.3.3.>.J.d.+.4._ i.D.o.p.+.>.i.T ( S 9.7.p.+.9.p.2.( 8.) ..{ S.S p.D.C.Z.p.2.p.7.h.J.6.+.K._ :.[ H O.} | 8.9.Z ~ h.Z f.i 8.D 5.7.P a.7.m C.o.q.4.u.u.R.g.>.H ;.B S.V.V.N.o. .! ..+. .a.+.X.:._ H.2.+.<.p.+.y.y.F.B.O.p.N I.S.6.X.y.i.u.V V.` %.S C.;.x 3.u.9.I +.S.F.V.' +.3.3.3.7.9.L.S V.6.y.7.9.9.+.6.9.X.7.o.y.W ] p.f.0.O.7.o.+.3.C.9.S.0.6.9.6.B.o.6.F.p.+.9.:.i.p.S.L.y.+.F.u.9.| +.N.y.L T.L.B.9._ i.q.*.o.C.V.7.+.+.:.C.e.7.O.i.y.9.g.X.7.L.o.4.) <.O.u.{ ",
"a.@.X.X.} V.} 9.A.} K X.i.u./ +.i.a...) V.9.i.P.J.u.9.C._ n o.H i. .p.) L | o.F.g.L i. ...z.h.` I.V ..X.V a.C.B.S.q.9.9.i.S.m >.7.[ f.>.:.N V >.;.7.7.o.O.L @.p.x 7.:.4.u.) S h.6.} I.N.p.+.7.+.H +.p.i.{  .7.7.S G.I.W.7.D...<.S.,.y.q.V...N.S.S.W.y.J.7.T O.h.V 9.g.f.7.u.P.p.:.o.7.2.Y.q.7.q.q.:.<.W.i.N.' +.+.W X.G P.) X.p.X.i.p.B.o.F.} 6.X.C.C.N.3.p.9.p.o.9.X.9.9.o.X.9.e.6.0.) { 7.~ h.7.i.N.2.6.9.@.@.N.T.6.9.9.B.X.+.0.Z.:.>.2.8.:.6.9.8.C.9.7.V.0.,.:.X.9.S i.0.V.i.9.9.7.3.o.p.B.D.0.z.V ..8.4.+.u.6.o.L +.u.2.] X.",
"y.d.X.K a.7.A._ m.+.m.X.9.V >.X.+.+...+.>.{ C.z ' 7.i.p.Z a.+.@.:.;.u.i.p.) ..i.g.9.9. .@.i.o.d.C.S.{ H 9.D ..O.9.p.7.S.G.B.R.<.n P 7._ X.6.p.+.N.7.o.C.2.O.7.>.:.:. .2.>.6.u.,.h.:.<.D.2.9.+.u.u.i.7.{ p.y.L 6.p Y.V.<.q.H H.x ..K S.N.F.;.p.i ,.2.,.C.u.9.i.N X.C.X.q.) 7.K o.>.o.%.N.Y.<.H.S.V.1.H.9.i.;.o.3.H 7.) N.( 7.o.3.o.6.H.S.9.8.6.o...i.q.V.S.h.q.{ p.6.6.8.+.q.N.+...y.u.m.H.p.>.X.u.o.G.i.+.8.>.o.;.A.q.9.I 9.6.3.6.C.4.0.+.C.9.V.9.9.u.>.7.} L.+.9. .o...K y.o.p.X.X.4.:.o.B.o.B ,.N.7.T.Y.+.8.o.y.3.y.@.7.C. .q.",
"} >.H.7.9.o.;.;.i.i.9.N.N._ ( W j.8.u.t.N.&.>.<.p.7.2.7.o...B 4.z.6.} >.S. .u.4.9.S X.m.o.i.} L F.P.~ u.p.S p.@.P.3.S.2.S.' G [ V.} ) u.8.u.>...+.Y.F.N.V.N.D 8.D.>.q.L...f.G J.9.A 9.6.) ;.X.( y.9.X. .{ o.:.3.5.&.S.W.I.p.B D.L.b.7.i.u.| ,.u.P.8.a.m ;.N.N.I.u.%.Z.| o.>.| ..W.p.u.B.+.x I.j.C.<.L.S.&.o.6.p.8.3.o.3.9.7.y.O.o.9.8.g.6.y.3.P B.S.>.9.N.O.u.7.L.u.5.X.N.p.6.| f._ h.i.W.o.E.D.>...F.p.9.u.@.:.9.Z.N.9.o.o.a.y.h.Y.C.7.i.F.e.3.6.n.q.H.9.X.%.f.D.X.;.B.X.;.o.7.7.9.P.+.} ..>.h.B.u.+.n.6.u.+.>.P.6.p..._ 3.i.N.",
">.} O.:.L.9.;.>.2.i.7.S.i.u._ E.' ) Q.p.;.S.r.[ S.o.[ 3...3.Z u. .) z.a.C.y.s.B +.N.o.} 3.G g.} V...H  .p.X.3.i m.| N.C.S.S.H.{ 7.%.( 9.:.V >.>.6.N.i.p.V.9.V.X.7.h.9.L X.o.6.q.N.L.D.q.d.0.K.y.X.m i.X.i.H +.o.6.i.V.Q.u.;.d.8.g.N f.o.8.0...n ' O. .5.g.} i.R.B.p.| C.:.+.o.+.o.B.N.y.<.y.I.A.D.N.S.+.o.7...a.7.6.8.a.d.O.+.} :.q.>. .V.L.2.D.d.S.u.N.V.Z.2.+.H.i.i.;.i.4.7.O.+.N.o._ V.H.s.D.g.h.L.N.y.9.+.H.R.@.G.h.@.4.o.9.A.T.N.S.S.Y.3.+.3.3.u.H C.X.6.O. .q.p.h.a.X.i.e.7.y.0.>.+. .v.0.0.6.q.L.8.p.| 9.V.o.3.:.i.4.D.p.",
"L | p.C.B d.' +.z.} ` q.h.' [ R. .6.%.J.i.V.F.H.v g.) ..B.{ C.,.S | e.d.X.p.9.9.J.6.J ;.a.*._ C.9.) X.o. .7.i.T.q.S.6.A L.V.2.+.~ { q.o.S.q.p.9.| } S. .P.S.V.} o.6.i.Z o.H F i.D...} 9.G z.2.! B T.' W.z.f.z.o.6.S.S.E.I.| 9.N.6.y.e.S.B.B.o.y.o.9.6.5.X.p.v.b.L.7.L y.H.| 6.+.W.F N _ +.N.>._ F.V.-.} 6.u.u.o.6.0.{ B.V.7.9.O.:.9...B.h. .S.2.[ p.N.V.C.B.o.y.>.4.d.+.U.q.3.9.+.C.| >.9.&.B.7.2.|  .9.h.p.7.6.7.i.6.>.a.O.7.9.i.m.S.N.U.N.V.o.o.8.8.a. .' 7.} X...9...1.g.h.' H.D.S.;.~ } 8.8.o.o.G Q.q.S.T.C.q.+.q.S V.4.p.g.",
"8.| >.!.J.' J.S.` p.7.>.7.F ( D.>.6.V T.L.T.h.7.~ D.R _ 8.I. .V.A.d.7.2.5.W N...V 6.D.D.8.2.W.o.f.B.o.8.O.p.S.u.e...9.H.i.S i.6.Y.D.V.N S.L...| 8.K C.+.N.S.u.o.o.i.;.N.9.9.>.O.y.| | ..E.A s _ L.B i.Z =.i.p.z. .A.;.+.) 4.' N.r.F.+.N N.!.u.s.) J.{  ...n D _ d.C.I.o.{ S.+...L.V.:.g.9.C.L.o.+.9.X.p.y.+.>.o...o...B. .1.V...N.9.S.0.:.o.9.p.:.Q.9.q.D.B.6.>.+.3.N.V.>.9.p.X.6.a.X.y.9.*.8.+.o.>.i...@.+.i.o.i.y.7.y.d.C.9.C.o.3.U.p.B.L.S.o...V.S.C.H...=.a.L.u.u.9.g.>.9.a.+.V.u.X.p.9.V.!.} 7.7.p.S.U.S.S.3.D 6.8...2.V.5.",
"| p.S.S.C.a.:.z.i.2.+.9.o.u.+.+.9._ S.U.;.6.....~ { 9.u.x R.S.3.6.o.L H S  .y.V O.B._ [ D ../ K i.y...3.p.V N.W.y.4.| V >.:.q.X.b.p.p.C.*.8.6.7.o.y.L.B.B.' I 6.p.7.>.6.C.9.o.u.| 9.p.h.9.P.~.V.N.J.f.S.g X...) _ 9.B.g.e.L Z S.S.E.8.V.2.S.P.H ..P X.A 3.p...+.O.a.!.P.o.;.7.e.p.C.>.~ >.T.W.>.S.;.y.9.+.N.9.N.7.{ q.S.7.7.C.N.>.S.N.9.L.i.Q.V.(  .+.9.+.>.+.3.7.7.q.q.9.:.3.X.W.3.>.+.X. .| 6.y.9.9.>...+.7.O.y.@.9.S.| S.7.y.V.a.o.C.Y.9.3.q.o.S.N.C.@.9.7.6.O.+.+.C.O.e.X.O.K ..8.N.+.d.S.V.+.X.H i.T.c.:.i.8.u.d.7.@.H !.3.",
"[ i.S.Y.;.X.y.i.h.x ,.8.+.N.) 9.} V.!.U.:.} B.( 0.^ y.+.B.w N.3.L 3...6.H S 7.S 7...d.i...) z o.+.N.) 6.u.+.C.j <.W ;.S ;.X.N.m.9.N.m.;.D.B B P } ` +.q.S.S.:.S i.u.P 3.7.+.9.a.9.+.0.6...B.D.P.h.<.R.i.L.;.l.>.7.H X.:.L.P.S.C.T.2.D.p.S ,.U.F.u.>.K X.7.C.j.V.H.S.G.S.D.N.2.X.f.d.S.q.V.0.<.i.>.[ >.+.L e...9.i.8.' q.6.3.2.C.N.Q.V.Z.U.} N.) 3.X.i.9.6.o.| p.7.| S.8.o.S.P.u.L.o.>...7.C.W.q.~.u.+.h.y.i.7.9.p.p.7.C.y.e.y.i.N.C.P m.9.y.5.u.6.o.q.i.i.o.;.7.G.V.a.:.N.C.d.e.9.q.q.h.;.+.<.V.E.W.V.L.S.+.B >.3.q.8.y.u...V I.",
"9.;.S.S.7.O.L i.A.J.P.>.~ 8.~ o.W.V.S.i.+...+.| :.:.T. .~ } 9.D.o.>.f.6.7.....X.' h.n V.i.x S.3.>.=.} o.7.o.!.o.[ X.W 9.{ o.d.p.D :.p.' %.D.>.K ` i.i.H.S.S.8.( g.N.o.o.7.A G m X...+.8.9.| 0.} q.7.L.6.9.J.n K P ..V.N.G 8.[ i.s.V.) z.9.o.6.p.N.b.S.F.N.W.i.S A.S.T.A.i.) 7.>.X.9.4.R.+.%.p.7.y.9.u.u.3.3.P o.u.9.o...F.6.i.+.2.S.B.[ 9.V.C.S.>.i.q.6.P 3.+.S.B.} 9.o.9.N.9.{ 7.[ 7.9.@.T.S.,.i.L.+.7.N.L.9.p.7.7.y.u.X.C.u.y.0.i.y.4.o.p.i.p.8.g.7.9.B.6.y...>.o.a...{ p.) X.i.+.+.G.y.o.V.U.q.G.( U.V.i.6.P 8.3.X.0.+.>.N.R.",
"C.p.N.q.o.+.S.u.:.[ 7.i.6.+.a.a.$.Q.L.F.p.L.+.N.N._ Q.u.| >.( L.+.9.S 9.9.S.V.9.B i.+.P.J.~ ' B.o.[ [ +.u.2.W K.+.q.:.o.i.' 6.~ u.o...C.V.V.9.L.H B.F.X.N.A.0.9.Z 6.P o.8.o.o.| P a.9.+.B.F.:.i.5.7.9.L +.e.B.S.S.B.V.V.S.C.P.9.N.p.3...2.u.o.| K ( ) v.W.p.8.} ,.m.Y.Y.9.4.N.o.X.i.S.L.o.:.C.+.C.7.>.9.9...o.+.L 6.6. .N.V...} 9.V.,. .u.S.S.[ g.S.N.8.3.7.D.B.3.K 9.9.N.V.h.9.4.u.P.@.C.a.G.' i.>.C.i.>.P.u.i.9.u.9.o.y.7.o.4.5.9.p.6.9.o.L.u.N.Y.Q.a.C.i.B.y.o.6.a.u.C.@.+.a.a.8...C.| i.A.b.<.U.8.i..._ | 6.3.g.p.o.u.+.V.I.",
"U.>.%.:.4.F.| 6.L C.>.P o.P G.C.J.h R W.S.C.i.p.h.>.U.Y.h._ 6.H :. .K.C.O. .p.J.2.+.p.p.D.) S.2.L x e.} H I.K l o.J.Q.<.7.y.~ 3.S r o.B.T.;.z. .6.S.D.P.V.S.S.2._ 7.3.3.7.L | P P B.s.| |  .B.N.B.b.E.s.4.C.V.S.G.i.S.S.V.C.C.@.O.9.L u.L <.B.u.h.9. .K :.Q.8.) Q.2.Q.S.>.D.S.+.u.|  . .h.q.L.C.[ N.i.' D.o.7.9.7.| | p.:.A.u.P +.y.9. .F.V.S.p.V.i.7.| 3.9.9.D.3.{ p.2.p.V.Q.u.7.o.o.a.9.e.H.S.C.B.<.S.>.N.7.8.u.9.p.7.+.6.o.6.F.B.y.9.6.+.T.S.S.U.V.T.p.C.i.6.o.C.V.9.{ >.u.+.] o.o.q.Y.m.J.I.C.W u.@.L u.4.7.+.i.{ i.g.u.L.A.",
"q.%.o.6.:.q.) 6.6.h.o.7.7.H +.L.N.q.H._ A.A.P.2.%.B.S.S.:.o.+._ S N.;.g.:.7.e.3.W +.q.h.g.W 2.9.7.i.z a.>.i.7.u.S :.;.p.>.K y.:.u.W X.4.b.9.I.N.o.S.9.I.d.S.S.S.C.i.>.o.8.9.9.+.>.^ Z a ..| D.:.9.G.Y.7.+.u.K.p.i. .I.S.C.B.C.H.3.o.S.6...7.9.4.{ X.o.X. .U.d.9.X.V.;.+.p.p.G.S.X.S.i.4._ i.V.h.V.F.V.R.u.p.+.9.q.a.i.E.B.A.8.6.p.6.H B.9.i.a.7.y.B.9.3...9.C.V.8.i.8.b.B.S.V.%.,.p.3.p.~ h.7.>.g.>.4.8.U.q.p.9.@.C.G.o.o.5.e.2.o.8.3.3.6.R.S.A.Y.V.C.N.V.i.9.7.a.i.@.Q.' i.7.@.>.L J.i.Q.X.+.@.f.e.X.....7.q.+.W Q.r.S.' u.V.@.",
"p.6.P q.3.q.N.o.o.( 9.R.:._ _ T.p.>...-.h.U.I.N.N.S.N.;.+.p.6.+.u.9.i.:. .^ +.N.j q.:.S.7.s S.2.>.' R C.[ p.m p.L  .:.X.>.+.K o.7.%.H >.R.W.D...7.;.b.m.i.S.S.S.S.S.3.+.s.5.7.h.+...| { i.B 2.9.>.H L 7.e.7.G D.S.H.+.B.9.q...3.4.9.| | 8.o.a.o.>.7.9.y.d.S Q.V.V.9.O.q.7.+.y.V.B.;.X.9.>.q.6.B.y.C.2.9.Y.p.+.9.7.q.N...q.S.u.9.u.C.9.2.p.+.7.6.9.8.0.o.7.L.n.2.7.o.b.F.[ X.o.0.+.a.X.6.g.p.B.X.9.o.7.i.p.y.i.o.o.3.+.7.9.7.7.7.3.P.C.4.X.<.L.F.V.U.2.q.+.9.3.Q.G.A.S.u.p.) D.} G.u.6.:.m.7.i.h.V N.O.~ 7._ X.N...p.6...i. .W.~ ",
"p.h.T.o.4.S.B.| <.i.G S.H.D H n C.>.S D  .p.2.[ ;.o.N.:...{ ..3._ | } ( *.8.a.N.[ 3.9.V 6.,.T h N.L O.V [ b. .X.Z >.o.D ) G 7.O.o.S.I p.( u.I.8.o.X.b.Q.u.S.S.S.B.s.>.3.7.o.N.i.V.Y.T.+.8.| { 9.+.7.9.o.o.H H i.F.a.p.7.o.o.) M y.7.8.6.7.o.o.6.u.X.N.o.o.B v.:.X.J.D.+.8.p.i.F.a.7.y.y.p.:.>.' p.q.6.9.N.g.2.N. .i.N.V.9.D.:.3.o.o.p. .h.o.>.6.9.9.p.6.3.3.r.K.6.+.e.>.N.S.H.6.V.d.i.e.7.u.i.C.y.7.o.0.p.q.J i.i.9.3.3.3.9.6.X.9.o.8.3.3.3.T.S.9.3.3.6.6.q.p.Y.G.N.+.=.S.' :.+.L.9.N.1.9.O.I.V +.p.C.| 7.9.p.+.F.9.6.j.N.L.B.[ ",
"Q...3.| 0.6.+.o.m...i.{ S.I.H.O.H.<.2.D.V 7.| V.d.f.y.L.b. .8.d.P.>.>. .B o.o.o.m e.i.V B 8.J.[ y.F.N.y.u.' u.X.X.' 5.J.p.5.D.R e.S.| V.y.O.{ P 9.+.S A.H.K F.S.S F.u.o.o.y.s.8.V.C 9.g.9.} q.F.S.L.N.9.p.:.R.B.+.o.L o.o.f.S.p.h.3.6.9.g.e.e.i.2.N.V.i.| i.Y.h.9.9.+...7.i.9.B.q.y.z.;.q.i.m.f.d.:.i.q...h.9.V.T.S.i.u.N.:.0.S.q.N.3.:.u.3.6.9.y.B.N.h.u.V.O.+.7.u.9.p.p.u.+.h.b.!.h.o.;.7.h.V.L | o.9.9.y.N.V.7.+.9.:.7.7.o.X.o.7.y.i.i.3. .C.0.5.3.N.p.9.8.o.9.V.[ y.a.) C.:.Y.i.A.@.:.o.O.G u.9. .u.F u.C.( 9.V.C.o.8.i.S.H ",
">.p.9.9.6..._ :.4.%.C.<.L %.N N.N u.X.I.[ p.+.P %.0 V.C.q.+.M. ._ 9.X...+.o.h.o.o.S.i._ R._ 8.i.m z.o.9.p.o.S.2.@.( p.X.A.S.+. .p.*.S } a.N.[ _ 9.>.y.=.C.u.z.i.o.' D.9.i.d.;.) p.g.o.[ 6.V.0.S.2.) [ 7.4.d.7.u.<.6.+.o.+.h.S.9.! B } i.H q.O.>.N.a.S.u.) A.N.u.7.o.7.2.7.3.e.i.6.+.7.p.X.{ 8.( p.i.D.p.7.3.p.K N.:.D.S.9.g.i.p.N.C.9.S.7.B.p.B.+.9.9.i.C.p.9.9.C.y.q.L o.o.3.D.7.6.@.:.g.[ @.L.C.9.X.h.6.u._ X.6.8.9.C.9.C.9.i.o.o.5.C.p.3.o.9.y.u.q.9.7.y.7.o.7.X.;.S.S.F.X.P.X.C.N.4.H J.6.N 7.y.o.e.3.7.+. .T.~ 8.i.>.V.F.%.",
"..p.a.&.| i.C. .9.2.A.q.W.G n H.r ( i.2.G.y.y.p.5.4.N S L.q.e.y.} +.8.+.6.6.9.o.3.q.) F.7.O.) V } ' ( i.X.@.5...6.u.( 1.M 2...>.) I.7.S >. . .R...:.3.:.i.m.m.p.*...8.} >.8.9.n S { ~ :.E.0.P q.B.y._ +.L H @.l.R.9.X.8.o.y.S.:.h.q.i.>.9.9.G.S.C.q.| 9.+.i.i.6.3.8.9.h.+.p.o.:.o.i.h.o.9.H I.N.o.J.[ i.+.u.0.y.y.u.O.+.9.i.B.N.n.i...i.o.y.9.9.3.7.4.o.9.D.D.V.s.o.o.e.3.o.o.y.y.a.h.6. .X.9.9.3.g.9.9.3.6.;.O.7.B.9.9.>.8.p.C.B.7.6.3.u.g.u.B.p.9.9.>.i.B.p.6.3.C.2.A.i.V.W R.i.P...+.o.W.7. .+.i.o.o.6.7.H.....C.N C.q.N.u.&.",
"W.9.%.8.3.[ [ J.O.S.A.p.+.[ G / N X.q._ S.B.y.9.4.0.K.{ 8.9.B.F.3.:. ...u.0.o...7.*.p.P.D ..8.o.7.} 9.9.q...} H I ;.+.h.6.e.C.{ 6.Q.u.3.6.` %.S.p.+.o.>.N.V.;.7...S L S.N.S.i.z.3.u.D.4.d...s.J.2.q.B } 4.u.a.+.9.{ 6.+.6.9.I.V.V.F.q.N.9.9.z.N.S.' o.q.V.I.q.J.i.6.6.7.3.6.D.9.5.>.L.4.i.p.B.C.>.;.>.F.V.u.u.o.7.9.7.9.F.y.| 0.6.9.V.2.i.9.7.3.P D.P.+.6.L.S.N.y.7.i.o.p.9.O.K q.:.+.Y.I I 5.i.7.9.o.8.o.F.E.X.4.7.B.0.i.} 9.C.C.+.7.7.a.+.:.i.I.L.i.9.;.a.0.D.g.C.I.[ L.} :.B...L.;.G.e.L :.7.i.7.o.7.+.9.V.2.h.q.o.S.T.( d.W ",
"' N.W P.:.W.+.F.9.G S.S.q.;.m f.3.Y.J.;.!.Q.&.e.4.o.!.~.W._ 9.g.:.F.p...3.6...} ) V.) o.L.[ H.>.m 2.5.S.>.3.9. .,.V B.C.;.N.7.y.o.b.O.9.) u.@.p T.H.d.5.2.p.g.>.9.q.:.+.h.e.i.T S ..+. .3.6.x H 2.N.V.D 3.O.S.u.j.;.u.3.3.9.X.9.L.:.T.+.9.7.7.C.<.3.7.G ;.Y.S.i.9.i.6.+.y.F.0.h.B.u.o.5...h.B.0.p.o.>.p.9.:.X.h.+.y.q.5.>.p.C.B.9.q.2.*.6.p.4...N.T.T.Y.V.q.C.L.p.| ..S.8.q.S.>.L  .o.9.~.8.j.g.u.8.+.6.y.) p.C.+.e.5.q.9.p.B.p.B.3.5.8.9.9.o.9.4.6.>.B.i.L.;.b.C.S.o.N.u.;.p.V.3.F.V...F.8.o.4.r.3.a.8.+.p.:.6.o.:.e.X.( 1.W.h.",
"H.C.e.P.>.~ o.7.S.o.i _ g.B.h.;.R.G [ N ~ B ) x V ~ 7.S.W.9.+.N.>.B |  .X...8.D.7.[ p.=.3.@...p.>.x <.>.o.p.7.g.H.9.*.i.u.o.7.8.3.D.4.7.>.+.3.o.X.+...V 2.u.f.D.C. .*.{ h S v v ! E.( ' 9.! K.7.S.H.B.| 6.:.b.a.} L.3.9.g. .} D B.S.N.u.P | u.C.+.o. .+.<.Y.G.f.u.y.g.g.6.g...9.S.6.8.y...6...9.D.2.P.h.+.D.p.y.h.H.F.6.o.a.9.T.B.q.S.6.4.3.7.p.i.S.Q.p.9.F.T.q.+.J.B.9.V.S.8.p.9.q.| o. .V.W.F.q.D.F.J.9.C.7.S.o...o.g.S.9.u.p.p.9.3.B.T.S.S.V.q.9.6.g.3.p.:.8.[ N.a. . .[ B.E.8.C.V.O.p.9.X.+.' @.| I.L u.o.:.7.u.' a.' p.( C.",
"<.+.3.) :. .+.u.h.7.H.8...3.| N ;.+. .L.p.9...d.N.J.( ( U.q.o.' 6.q. .) u.9.9.;.J.) { S V 7._ X.S.B.{ 8.+.8.~ n ..>.X...9.5...o...+.8.+.@.S H L 9.u.7.7.e.i.7.N.v...+.| o.K q.9.9.L._ _ K.' S.H.m.~ u.9.) D B B.7.J.3.p...D.j.I. .C.S.;.3.3.o.S.i.r._ i.L.Z.Q.Y.L.u.+.i.o.d.+.p.q.0.p.9.y.9.>.N.d.6.W T.+.+.i.9.C.B.y.9.>.p.o.B.S.| *.p.q.N.S.L.i.N.S.V.>.V.V.i.2.N.q.y.I.q.p.S.C.9.8...9.P.A.3...B...;.>.F.B.o.6.8.7.1.3.g.7.p.6.0.0.S.C.9.8.8.8.7.N.:.+.' 8.} u.[ q.B.( N  .U.i.W.g.9.....B. .C.) g.6.6.@.u.>.g.4.;.1.2.7.W.!.",
"W.i.F.[ D.y.8.+.p.8.3.u.r.o.o.9.N.+.%.+.0.6.6.S q.i.L.O.n.Z.X.8.;.~ o.F.6.C.:.h.7.7...Z @.+.K u.H.| P.J.L _ X...&.,.N H.u.@.+.7.6.D.@.H.:.y.a.7.p.9.+.:.p.:.N.[ 6.>.;.9.8.8.} K.V S.H H 6.o.b.L.+.;.9.u._ p.y...d.p.6.p.+.b.( ( L.P.J.2.e.o.o.7.C.;.h.+.;.S.S.Y.E.L.p.7.| D.6.0.D.9.u.6.+.@...A.7.>.) o.D.9.C.y.C.S.7.6.5.:.6.>.T.;.:.W.O...*.i.T.N.n.+.o.L.*.e.8.B.N.6.o.9.S.I.y.N.L.H...;.N.+.h.9.D.i.9.9.o.3.o.8.i.9.3.7.0.V.9.6.8.S.o.8.:.o.{ N.+.y.6.q.P.9.K p.q.~.P._ [ 3.I.Q.N.6.X.8.>.s u.e.X.+.+.} 4.L d.u.C.X.S.3.@.F.",
"i.>.:.{ N.9.7.+.8.0.8.) ) 0.L D.a.H P.;.6.} W.9.P.q.<.9.} p...O.) N...N.[ h.q.:.| G 5.[ { _ P p.e.) [ ) .._ p.V G V :.{ 9.7.o.7.F u.' u.o.+.u.K.o.{ 6.+.7.u.4._ 9.F.I.8.6.7.o.( [ W I.L 9.o.,.S.9.+.H :.>.6.} H 9.7.9.a.,. .B.h.X.i.6.<.>.u.L.D.u.G h.:.7.1.=.N.S...V.i.7.u.8.} i.p.3.4. .L B.7.h.:.8.%.( ' ..S.0.T.>.o.o.9.0.9.9.:.2.b.q.v.[ 2.9.n.p.i.X.} i.2.T.+.T.I.I.S.' 7.X.[ S.S.B.S >.8.i.y.p.W.F.R.C.O.6.B.+.+.4.u.S.8.8.6.S.T.+.C.p.q.N.L o.C.W.u.N.F.6.o.9.( 3.9.2.+.+.) 9.} 6.X.p.g.i.H @.g.p.6.6.L.K.I.+.:.U.L.H.o.",
":.u.W.H Y.P o.>.y.~ ^ p.8.o.2.C.p.d...3.L...u.9.<.:.L.D.B.X.p.| [ v J.~ B b.` B P i.+.i. .K.z O.B G g.X.( { ) [ | @.L s.H.G.G +.;.C.K.u.p.{ [  .o.a.H.;.H 7.e.i...' :.y.+.u.e.*.X.Z.7.6.8.( p.{ +.X.y.u.N S 6.8.X.D.9.<.u.8.u.>.C.p.6.K e.+.B.F.>.o.7.C.2.;.9.b.X.V.+.6.V.o.7.9.V.:.i.g.o.i.>.0.9.P.i.p.L.( I.G 9.i.6.y.p.3.6.0.;.B.[  .D.i.8.9.g.p.C.V.q.p.( ;.9.} T.S.V.+.6.+.L +.9.<.8.6.4.0.P.,.<.i.%.I.| 9.D.p.N.q.p.4.3.3.7.4.V.F.6.8.B.5.B.9.V.V.b.C.q.U.X.u.o.+.8.+...g...~ +.7.F S.+.6.@.W o.p.w.y._ G X.u.9.9.W i.;.+.",
"i.,._ K S.+.O.n ..>.U.O.g.+.[ K 9.} ..4.' S S.6.K W. .C.9.3.H q.+.*.C.0.o.8.8.+.H.O.o.+.i.s H.S a.I.>.@.+.,.o.+.+.M J.+.:. .:.6.p.) p.m.m >.>.u.7.a.o.y.9.u.O.7.:.,.+. .) >.G  ._ i.S ' ~ 9.u.u.g.L.d.+.K o.B.D.6.C.' o.6.9.9.:.V.7.+.9.7.;.i.i.p.u.h.C.S.C.H o...0.f.+.:.8.A C.9.6.B.' ;.O.7.5.8.y.9.p.2.P.T.N.S.p.9.u.>.8.o.6.h.9.s.M.L.>.F. .>.N.i.' ( D.+.9.5.U.` +.+.K L } B.V.p.y.6.3.7.;.e.@.u.7.e.G a.( 9.C.V.9.} p.9.i.4.o...L.8.3.6.T.y.7.S.U...o.9.C...Y.e.m.' [ { 9.,.' :.D.j.q. .9.o.' o.6.7.+.y.6.>.L.o.L.L.:.S.[ ",
"[ y.+.G.&.;.6.q.i.<.>.X.T q.q.W.C.L Z o.p.3.>.&.} P.I.h._ S.+.:.g._ *.| ..} g.{ d.S.O.7.e.G X.>.X.P +.n ..) 7.{ u.p.} 4._ 7.u.+.C.u.@.4.u.>.O.;.g.X.y.6.6._ D. .V i.L. .:.9.y.V S.S.n.V <.u.) ) i.N.3.i.9.( y.K.Q.i.o.8.;.) ..S.:.y.H ( 9.p.u.d.7.7.!.s.S.y.E.a.u.V.g.q.:.v.8.v q...8.6.6.p.h.z.D.o.9.X.J.y.T.B.S.9.8.p.3.9.+.i.p.L.:. ...V. .J.;.C.R.p.s.i.} N.Y.' +.8.>.>.B.B.S.8.o.H 3.X.3.q.7.+. .O.y.u.g.:.L W.7.0.S.0.D.9.8.S.u.p.n.9.C.q.9.C.9.+.q.o.>.8.u.p.' J.7.,.L.S.p.p...8.o.p.9.X.y.2.H.o.o.9.h.K.F.%.i.u.G S.W.N.",
",.z 9.=.o.8.8.8...| :.S u.} } 9.N.D J._ H.o.L 2.K.` V D.l.N.R.7...Z.Y.y.p.C.+.N.,.G D.j.:.>.9.a.B ..e ..D.o.+.K o.3...7...7.| g.o.B 8.{ 7.o.u.9.o.| ' +.' o.7.@.0 C.W ' ~ :.K.J.B 2.+.7.9.8.9.8...C.d.F.u.7.9.;.E.J 7.+.8.g.o.S.6.6.u.h.u.;.+.o.7.N.9.o.C.D.4.P p.+.V.p.K +.i.5.O.9.6. .J.P.R.D.V.d.C.0.h.~.L.i.Q.3.o.9.9.>.6.+.9.| 8.B.6.D...A.6.G.S.:.{ z.S.*.F.e.i.D.D.P.Q.B.} 3.7.9.{ p.L.N.a.G.X.C.9.:.i.:.7.Q.p.9.Y.9.4.8.0.S. .u.q.{ G.S.9.S.8.N.3.B.+.8.o.X.q.;.9.8.b.i.y.8.H.} X.8.u.X.{ } 6...9.F.Q.S.W.4.+...S.m.S.[ ",
"6.H.W ) ..2.p.:. .<.y.P i.e.| o.1.y.i.O.>.+...4.N.s.3.Y.] G.m.>.| 2.W.+.o.i.+.o._ a.7.Z L.>.4.&.5.P R.X.p.o.h.9. .w.V o... .+.o.} C.V._ o.7.u.a.:.[ X...B.o.y.f.o.>.p.7.D.y.y.....9.&.+.6.+.7.o.} S J.V.) ;.X.[ 2.B.D.J.g.9.[ R.9.7.H z.( q.u.g.[ 9.O.L.9.9.+.L <.p.,.H.G.[ B.3.0.9.W  .p.2.7.W._ 9.9.1.E.} F.8.F.q.y.0.9.8.4.3.3.9.p.N...L.| ;.;.9.8.7.5.o.) p.1.T.s.E.4.q.g.3.6.7.p.X.L 3.+.;.C.{ h.a.C...o.X.V.9.a.+.{ 0.9.0.8.0.S.S.+.h. .V.L.+.d.a.6.o.9.7.N.9.6.+.| |  .p.!.8.G z.8.g.7.[ u...5.H 9.b.E.O.9.7.D.2.7.p.} C.",
"~ 6.+. .L.m h.8.F *.6.} 6.3.o.9.D B.:...) q.e.6.4.L.<.>.9.2.2.2.+.K ' +. .h...2.2.i.2.) :.p.e.H I.g N P.u.{ f._ I.W 7._ ) C. .y.u.:.o.} I.+.(  .A .. .7.B.o.*.) [ H %...D.o.{ >.9.D.9.:.9.i.p.+... ._ W.S.S.N.7.6. .9.L.b.b.) T.>.) X. .p.I.( i.H :.o.y.h.L.y.@.( >.p.7.' u.d.9.>.;.V.G N.:.p.Y.[ I.+.i.o.8.V.q.p.u.8.9.8.9.0.9.p.+.A.9.:.;.a.8.} o.p.o.+.C.W.<.i.S ' B.B.6.d.9.X.i.o.o.7.o.a.( L.+.Y.7.A.G 6.9.b.p.:.H.0.2.9.9.8.8.F.:.9.9.[ U.S.+.+.C.o.d.9.p.y.i.l V.U.D.>.N.S.T.y...6.q.8...i.F p...H Y.Q.X.X.@.9.+.3.y.L F.",
"D.) +.' N.6.Z p.G q.u.u.7.g.d.h.[ 9.o.' 9.7.8.( 9.( 9.B.W.p.m.<.p.I.z.H.i.X.C.G.( i.L.h...+.9.X.s 9.9.S b. .p.1.o.9.e.9.S.>.H p.o.F.2.V.G.+.7.+.9.L u.i.L D ..X...{ o._ K } 9.' +.>.i...7.8.4.6.D.9.[ g.} q.u.N ..|  .Z.9.*.` F.V.C.C.V 6.X.w.8.N.i...Y.N.b.h.m.o.o.B.o.4.D.u.5.+.i.C.p.q. ._ [ R S.) J.6.9.S.9.L.D.h.:.+.7.7.o.7.+...p.B._ R.X.6.y.8.u.;.o.B D.i.i.u.u.N.q.o.6.>.5.u.3.o.9.7.8.N 9.' 1.S.9.O.2.B.T.+.Z.E.q.4.V...u.0.T.} o.>.C.Y.p.6.U.4.7.y.| p. .z.7.) 8.0.v N.2.V.y.7.N.0...[ 8.>.6.3.N.S...H 9.G X.7.4.g.9.",
"q.3.6.R.N #.h.d.o.( 8.o.5.;.K p.( L.8.V.[ S.h.f.V.:.+.<.S 6.m O.N ( ! C.9.h.d.J.p.9.W.N.p.o.7.y.9.7.g.X.9.! A.+.+.u.2.3.J.7.9.+.u.6...d.B.H a.+.S.;.' H ..i.i.i.B.V.V.C.N. .A o.8.)  .9.X...3.u.} 9.K. .p.P 7.S.6.p.S V.W.i.S.W.D.h.D.C.} { 8.>.C.D.9.N.<.y.u.a.9.:.o.3.7.3.o.8.>.F.2.9.N.;.W N.' T 9.b.L.S.F.p.S.R.i.B.9.9.u.8.9.i.y.i.q.i.3.( :.p.J.u...,.9. .z.9...{ K J.B.E.u.a.y.7.S P.e.L p.! G g.7.9.o.[ _ 9.@.' 2.5.+.S.9.8.7.u.C.C.9.R.9.J.+.F...>.| 7.D >.9.C.0.o.N.L.S.y.7.9.e.p.7.o.s.H F.8.o.:.h.H o.H.' J.8...B.:.",
"+.3.X.e.6.j C.' 7.S.o.X.o.u.) F.q.S.X.v.f.W S | P.7.p.T.O.o.C.C.p.T.L.6.+.9.` 5 ' 2.!.g.C.+.o.o...[ N.q.7.9.X.K O.g.3.H o.3.>.6.B.0.8.} o.D _ u.C.C.S...o.J.B.C.T.S.S.S.L.p.i.N.N.e.@.s.s.u.o.g.( J.p.7.9.+.g.S.o.8.L.X.~ J...S.N.C.F.g.T. .A.T.6.u.+.+.>.a.y.P.7.9.h.s.:.e.q.L.C.S.Y.9.q.N.| +.2.L. .W.0.D.y.L.U.Q.L.h. .6.p.y.D.F.B.i.B.q.a._ <.+.>.C.L.y.N.X.y.C.N.p.J.^ g.o.<.p.o. .u.;.W W d.u.G.) <.X.8.W S.X.o.u.} H.P E...9.8.+.C.6.9.S.h.F.} o.+.6.7...+...9.P.9.0.U.~.Y.R.a.G.) y.7.7.7...{ C.I } ) :.7.6.D.G } 9.V.S.",
" .+.g.) a.W.7.u.D.y.9.| 8.} 7.u.} L.o.u.X.g.y.B.<.' K.C.L.V.R.i.i.L.P J.o.C.2.I.W.S.m.K S.P 9.4.@.) ;.O.| F._ V W.[ 7.o.7.X.p.o.>.} 3.2.X.g.X.y.u.p.u.+.+.g.R.o.u.o.7.+.z.J.S.F.B.8.S g.X.q.S g.q.9.6.9.+.q.p.0.8.7.+.o...&.Y.1.S.S.>.T.p.+.9.W.S.A.H.u.C.@.y.} N.G Z n J.8.y.) S.9.n.9.^ P.S.6.p.T.i.' T.i.B.C.U.Q.L.T.S.7...+.| C.i.5.6.C.p.D.+...6.o.P X.i.G 9.H.V.p.q.8.o.o.{ >.6.5.6.a.N.i.[ p.T.6.i.X.9.] N.2.8.8.q.9.I.H.D.' y.y.h.9.q.L.C.p.J.9.3.q.9.D ....A.o...+.T.[ Z.S.G.S.g.m q.7.9.g.>.B.7.u.q.X.7.o.g.7.6.o.+.C.",
"H.9.e.u.{ 7.y.h.) 7.7.L.D o.i.I.' H.6.9.i.i.K.i.b.} S.g.7.I.I.C.2.<.q.S H.p.S.D s ( o.C.7.+.9.g...0.+.B.H ' 9.p.;.p.p.N.9.{ +.;.>.3.>.C.' } H h.8.7.8.H >.7.u.d.7.o.:...| u.I.N.y.9.u.V.a.8.3.......o.6.+.9.B._ o.y.} S.N.+.2.e 5 :.F.O.9.+.i.;.[ | &.Y.L.L.L.I.d.y.B.+.P B  .h.L.9.N.D.3.+.o.m Q.:.*.9.V.>.W.Y.Y.S.V.8.V.B.F.9.9.B.B.o.o.S.V.N.q.+.o.| 7.u.h.q.V.>.N.+...9.K o.H g.u. .!.y.I.9.i.<.p.R.a.i.2.G.D.9.9.9.+.o.2.V.6.B.>.s.+.[ 7.q.S.y.Z.3.8.o.7.o.X.o.:.8.9.A.N.q.;.S.S.R.p.K.a.O.H +.o.o.9.q.) 4.7.8.p.o.3.3.+.e.",
">.| >.4.5.}  .N.7.P z.y...L { q.+. .I.u.S.m p.p.H.D.>.~ o.L S U.k.T.S.[ O.N.N.P V.L.H.9.9...[ y.+...9.g.u.o.C.:.C.u.<.e.S.S.S.S.N...i.y.S.G.K u.3.9.3.} } 8.i.D.9.p.g.3.i.p.o.7.9.L.F.;.[ ..i.7.4.7.@.8.O.5.G.C.9.o.p.y.u.p.y.:.X.V 2.m.I.B.p.!.I.3.6.` A.Q.Y.S.I.X.o.6.q.5.6.o.I.Y.L i.u.q.C.9.T.} g.K.H.7.) p.+.n.L.6.g.P C.C.7.7.D.i.N.i.Y.B.6.>.@.L 7.T.d.C.C.J.( +.h.9.p.7...N.B.S.A.V.) J.J.>.*.p.D.8.9.2.B.X.L 7.9.6.L.p.@.+.O.H.u.p.*.p.C.a.N.z.7.{ 7.{ O.B.p.0.U.i.A.E.B.N.S.T.O.S.y.F.p.7.{ H X.9.o.B e.u.W.J.u.H.<.+.",
"( 0.u.6.g.8.+.| >.V.4.9.X.4.7.9.m F.p.6.h.S.B u.| 7.| 9.+. .i...H f.d.:. .H.m.G.y.9.f.i.l.X.I.| :.m.h.X.} ] 2.h.O.>.u.~ :.I.m.W.S.S.q.>.5.q.X.N B.) L u.X.s.u.3.3.P.8.H 9.6.9.s.S.+.5.~ V.p. .f.B.2.N.+.>.7.V.N.o.o.N.>.p.N.K.h...} u.x 2.N.S.L.Q.h.) 3.V &.Y.S.Y.p.f.p.N.;.W.y.>.u.V S o.N.9._ B.:.u.9.,.Y.Y.N.p.q.0.a.G u.5.7.y.S.e.>.Y.S.O...9.4.S 0.6.N.+. .9.9.2.:.F.9.K 8.H.) ( ;.Y.C.9.<.R.J.} _ 9.B.F.N.7.} o.H.i.3._ 8.h.7._ S.f.h.S.C.2.G e.;.;.8.L +.+.o.>._ L.0.+.2.1.S.U.S.>.S.W.X.0.J.I.9.7.g.9.8.o.u.V.S.7.d.I.i.",
"N.G.,.V.2.C.o.) K V.+.3.>.4.9.L O.m...3.e.f.i.>.:.O.S.i.C.G.u.u.F ;.h.K.X.@.G.X.1.g.Q.g.! ,.L.O.7.@.y.>.l.P 3.+.J.O.p.u.y.G l.o.C.S.L.K u.D.y.} :.<...J.>.x 9.5.9.:.K.7.3.| V 9.W 0.a.6.W S.8.S.G.m.R.+.i.7.L.X.o.5.C./ C.v.N.( 7.h.+.7.N.L Z.V.B.i.h.7.[ o.b.2.Q.A.U.!.S.G...{ C.+.9.9.0.V.i.u.C.8.9.8.>.V. .p.4.N.Y.s.o.2.X.C.>.7.[ o.2.R.g.i.7.u.>.>.o.:.| 7.F.e.+...y.p.9.3.G y...;._ y.L L 7.<.B._ :.>.( 9.D.B.W B.a.d.u.7.{ i.H.H L.X.7.L.L.G.;.O.L.7.@.i.S.!.S ;.T.7.p.[ S.L.Q.C.R.L.S.8.B.Q.N.{ e.V. .p.4.i.' I.r W q.W.",
"V.2.3.2.:.>.I.| 6.q.b.+.d.>.9.:.O.q.9.7.7.X.e.+.<.g.9.E.A.S.:.N.H C W.2.N.p.H E.x !.M.M.C.V.O.o.I :.X.>.b.m } G m.m.N.2.J.o.V y.~.L.9.H.+.H ( +.m.S.P.F B.i.F.9.|  .i.a.| L I.@.q.S.>.d.G :.( ;.T D L.3.:.u.C.I 3.7.S 9.>.@.O.s.6.P 9. .>.m.F.M.Q.I. .q.f.N.[ ..$.%.T.Z...2.+.| B.T.X.p.I.a.d.B.X.6.3.V.7.7.[ o.X...Q.L.Q.i.8.+.p.S.o.X.7.u.N.7.8.7.+.+.| +.@.7.Q.p.a.:.g.o.o.9.O.P.{ a.i.o.o.6.+...) >.h.L.C.>...S.H.i.5.3.V 8.e.y.7.b.i.C.S.| +.p.S.L.i.+.L z.J.S.) +.S.i.' 4.b.S.Z.b.U.N.p.Q.L.S.o.!.6.' K.6.7.H L m._ 7.b p ",
"p.7.;.+.u.o.S.P X.a.p. .D l.H.s.m.x X.i.i.1.E.6.u.+.5.H J.p.N.u.G.H N. .Z.J._ N.o.' +.q.S.S.L.7.7.6.I | 7.J.o.z R.;.u.8.m y.e.o.( ,.+.4.S.9.F.T ~ ( $.} 9.S 9.X.P ) o.J.u.9.9.7.+.7.i.[ u.9.7.@.e.>.o.6.7.p.q.4.7.} q.+...a.C.i.3.o.u.} +.| h.J.D +.7.I.' 6.6.y.2.h.] :.+.u.p.9.;. .h X.>.>.( ' ` B ;.S.) p.0.N.9.F.N.:.P.9.B.6.i.9.+.9.H ) ..+.2.9.3.o.o.i.2.U.Q._ X.y.7.<.z.| D.o.+.$.u.7.3...P >.B...+...) } X.+.X.J.C.R.K.p.D %.u.z.u.H.p.F.i.L.D.7.4.4.:.S.m.y.a.y.2.S.;.x V.S.m.>.i.7./ L...T.+.i.X.g.o...@.{ S 6.u.7.7.9.",
"7.H { K o.o.6.X.( S.C.>.-.G e._ 4.L l.{ S.Y.( H m.+.o.>.7.N.i.>.i.:.Z S 6.B.p.6.J.D.L.q.p.9.F.X.y.5.K 3. .6.9.u.+.7.G P ..P.i.e.9.P.:.%.7...} u.!.{ F z R } ` p.+.o.+.@.X. .X.+.h.7.>.p.7.e.y.4.p.e.7.o.o.9.9.7.9.N.i.7.p.C.h.l.6.s.i.3.9.9.i.+.3.d.6.3.9.A 9.:.e.g D N u.S.Q.+.y.:.K.X.7.*.C.K.d.6.y. .p.p.F.4.7.8.S.9.C.3.9.C.3.6.i.q.6.N.3.7.9.6.D 3.o.i.V.Q.V. .+.6.6.X.N.9.p.>.y.{ >.7.7.y.2._ N.;.>.6.8.X.6.V.<.m D o.B L.i.L C.' Q.h.7.s.9.O.} g...) +.Q.W.S.m.! 2.1.y.D.q S.W.| o.9.) ;.7.!.m y.X.9.9.5.o.{ +.e.u.7.+.i.",
"S.+.9.O.o.J...7.i.7.o.4.3.S.o.{ o.C.I.o.%.4.O.h.' 3...o.e.H.6.s.C.C.e.W.z.>.S.7.N.u.o.8.a.6.N.:.S.4.s.7.o.4.+.6.a.A.u.O...u.9.D.8.{ +.q.+.7...;.) q.9.J.p.6.S.7.7.o.o.h.7.h.o.u.} 9.o.6.i.} 7.9. .+.;.} 9.u.o.3.3.L.6.H ' >.d.F...o.i.y.g.p.3.y.y.+.| 9.8.n.o.e.+.9.o.9.S.2.` 9.a.>.+.....N.C.L.u.e.e.>.[ K X.| X.O.N.Y.0.6.+.p.4.3.C.+.6.C.7.8.o.} J.P p.B.V.N.;.i.O.3.o.q.9.+.P i.y.M z.7.6.{ C.+.a.i.y.o.Z :.F.3.N.C.W.>.N.p.R.N.N { f.B ;.~ 3.' H N.L. .&.E g N { M m _ e.p.V.c.N.N.9.7.o.:.C.2.) X.h.8.o.S.| u.L.3.+.8.i.K.",
"f.S.O.} 9.) 7.;.7.7.6.e.+.H.h.s | ( ;.L 5.} y.R 7.3.7.r.y.} r. . .| +.9. .y.9.7.u.8.5.7.6.C.C.<.:.H.6.3.L g.L 7.q.o.8.G +.3.~ N.X.p.} [ O.p.!.9.+.C.S.N.U.~  .Z +.{ +.o.o.>.9.F X.9.o.9.9.i.2.i.O.X.i.u.@.i.+.X.X.+.p.3.6.q.9.J.S O.S.%.` J.h.} >.+.7.3.6.3.8.J.S f.o.O.N.N.} m q.u.s.u.+.;.%.F.V.V.V.5.H.C.| i.F. .h.V.C.9.s.D.p.7.+.S.C.:...| C.9.p.X.>.C.o.[ ' ..8.o.3.| 9.V 6.9.p.( C.o.e.o.K.C.i.>.3.S.N.| 7.N.9.7.3.C.T +.N.S.>.d.x +.x u.{ X.L :.U.[ F.T.;.p.H.r.} H S S i.S.Z S.C.i.q.T.V ' { O.P.<.8.H.a.7.S 3.o.u.2.+.",
"o.g.p.7.+...p.F.7.3.p.| { d.P.7.o.u.P.>.G 5.G P.2.4.| +.7.} @.3.+.y.w.L.C.X.>.L o.7.6.7.4.8.6.J.%...) ) | V 7.3.h.o.N.I.W.!.S.Y.D.J.[ 7.p.K Q.g.N.p.<.S K >.q.u.3.8.8.o.| 3.8.u.7.7.+.i.T.C.P.E.C.i.+.+.u.H.u.a.i.+.a.C.;.3.L b W %.9.u.K.g 1.9. .H i.8.o.7.H 7.>.O.+.>.G.e.N...O.+.0.e.p.) { F.B.C.h T.j.o._ Z.I.p.L.+.7.4.N.y.i.9.K C.s.+.p.:.L.i.X.| 9.h.9.7.P 3.p.a.a.H | S.o.u.p.' R.5.o.5.>.h.I.2.o.B.L.;.p.C.3.N.o.L.J.P.9.j.~ u.S g.J.;.o.+.{ O.i.N.9.) X.o.>.h.N.e.I.S.W.A.N.2.8.+.o.9.6. .W.N.%.^ N.G H.6.X.a.e.4.;.7.",
"C.y.y.8.>.7.o.u.6.+.o.P 4.y.S.=.u.) ) [ o.4.7.8.| +.o.X.L o.>.h.a.9.9.H.B.g.h.7.o.L P 5.D.D.s...Z.N.W.+.u.5.a.7.H.7.u.6.2.S.Q.T.Q...9.i. .} Q.d.9.9.I.i.X.!.u.h.X.7...9.6.3.o.L >.+.q.,.3.o.7.| 7.V.N.V.i.i.L 9.9.3.o.9.7.o.u.C.,. .u.V.V  .` q.o.( u.W ) ( +.*.9.+.S.A.X.:.C.X.7.p.9...3.C.A.>.L.a.u.>.( S.3.3...2.N...3.C.B.4.o.| u.7.i.7.' 3.7.9.+.:.9.7.+.+.9.' :.4.S u.u.H.X.@.i.b.2.u.;.C.8.2.N.7.u.9.a.B.+.i.)  .u.i.J.9.S 7.5...@.S.y.:.@.O.b.z.T.V.o.G.m.} W.C.u.H [ 2.;.Z.' @.+.y.8...h.N.;.y.o.o.u.;.o.u.i.S H @.O.O.",
">.H :...L 7.N.U.5.e.o.5.7.9.S.i.9.u.u.V.6.@.Y.p.g.u.+.e.4.+.i.S.Y.e.+.A.E.| 9.7.3.L 9.T.S.S.h.s.9.N.h.6.5.o.e.~ ..7.+.N _ S.2.F.X.;.X. .r.{ <.6.3.3...| K 9.o.+.H 5.5.>.7.6.o.S.S.S.L.S.S.p.d.8.>.B.S.G.u.2.p.o.4.| 3.K 3.I +.7.L N.L X.i.F.P.) ) o.| :.N.9.' 9.| ;.i.:.S.N.u.s.D.7.X.8.o.>. .h.{ D 3.N.H.' | P.7.9.N H.X.N.p.9.3.3.6._ p.C.I.| N.7.>.X.N.>.9.8.9.W.o.N.9.I O.>.| i.%.[ z.6...C.9.V 2.Y.L +.W.3.p.:.+.u.@.>.p.6.S.S :.H.p.o.9.q.6.X.T.K.>.X.) T.N.2.<.[ 7.F.W.G.' 9.C.+.C.a.'  .G E.S.L.7.6.` o.@.e.y.K 7.7.C...",
">.3.9.p.| 9.G ,.<.d.6.X.u.<.i.V u.i.C.r.7.h.D ( m.a.o.| e.2.m.S.F.L.B.$.i.i.} 7.o...U.N.9.m.p.f.a.i.H...e.u.7.e.o.:.R.7.>.+.u._ ' 9.| | 8.7.p.6.9.u.7.o.q.p.y.} O.7...8.o.i.u.u.p.e.u.p.S.{ S.*.y.N.F.2.B.S.V.4.9.7.T.D.F.) i.C.S.,.o.p.{ 2.n.H.R.0.D.{ X.} 9.+._ C.V.8.V.i.G 7.i.5.8.p.o.u.V o.u.G C.m.9.X.+.o.8.3.6.N.+.p.o.I o.I  .R i.C.9.>.9.6.V.9.C.B.+.:.3.o.9.q.o.>.H.;.6.+.+.} D.h.u.+.>.9.V _ ' ..V.....H 4.o.X.:.U...7.u.T.,.6.( {  .>.i.N.=.7.;.y...y.+.) P.G.9./ S.1.U.+.i.i.[  . .O.N.S.R.g.q.9.u.4.u.7.p.| 7.p.+.",
"7.i.;.~ L o.} 9.7.S.8.u.a.a.2.C.:.e.a.X.+.W ;.L e. .b.g.:.O.:. .>.3.g.r.7.3.+.3.g.F.7.W.!.Y.T.d.+.o.N.A.y.m :.9.h.a.p.u.J.o.u G C.7.7.u.+...p.u.8.D.7.U.V.O.p.3.7.p.X.6.9.9.+.e.8.3.8.8.6.6.q.C.V.S.C.S.i.<.) } :.i. .} ..u.g.@.S.G.V.6.B R r.S R.b.Q.8.z.A.o._ A.S.X...u.e.s.6.B.3.9.+.8.L.7.~ 7.O.y.T.6.o.V.[ 7.i.N.y.9.9.o.o.6.E.P )  .4...:.7. .O.i.6.[ S.5.o...X.H u.V +...7.>.a.7.R._ [ +.p.>.+.3.P 9.N.h.+.8.y.>.o.;. .p.i.L.;. .:.[ o.y.;.>.L.>.@.) i._ S.7.u.C.m._ S.2.V.;.u.F.X.} P d.o.>.:.m.Y.8.3.I 7.6.f.9._ A.F.u.",
":.X.+.a.L.b.g.P | K ..6.[ X.[ 7.X.6.y.p.C.;.u.W.L.G m.>.+.+.6.;.6.7.5.7.8.3.3.i.:...V.b.T.2.p.2.C...W W.G e.3.+.S.{ _ @.I.W.( 9.u.8.N.~ o.| K.6.S.m.b.9. .S.V.y.V.S.V.B.+.7.9.G >.q.7.o.o.4.7.S.C.N.e.i.S.7.g.| +.y. .8.| L 9.+.9.P.P.*. .;.J.V.~.S N.B.I.I.h.T.%.+.) 9.+.u.' a...8.9.8.7.) Y.+.d.G S.U.o.u.6. .+.u. .u.N.o.9.{ 9.9.7.7.8.L p...s.;.o.X.7.i.V.7.J.h.h.+.D.+.:.| F.J.F.b.A. .3. .G.S.X.L u.p. .@...2.' 9.C...S.D.T.o.i.7.X.[ i.+.2.5.7.[ O.e.+.2...<.G.C.p.w.V.[ _ u.p.N.p...y.i.h.q.P.R T.i. .7.....+.9.N.I.u.o.",
"_ q.X.O.,.q.L.u.+.9.6.| o.i.' h.s.) S.I.+.o.o.3.) B.| +.P 3.o.3.6.7.h.9.3.7.o.9.p.S.W.S.Q.B.3.3.e.N.7.i.i.F +.S 9.9.B ;. .T H K [ ) { +.o.d.h.V.S.q.} g.p.F.S.i.C.S.q.7.C.q.:.E.L.{ 9.s.7.K X.S.p.>.{ N.y.o.....:.f.p.B.>.y.o.9.9.>.u.3.h.S <.1.L.9.C.H...:.1. .7.p.u.+.8.g.4.;.C.y.p.p.a.9.!.5.o.i.N.( o.o.C.I.[ G ` 7.o.3.S.4.i.9.+.6.o.q.h.7.N.9.h.+.L X.p.B.+.o.b.G.o.e.8.6.[ } T.9.7.X.B.g.p.o. .L 6.9.7.C.X.7.8.V.L.B.b.S.T.6.3.9.+.C.o.q.o.L 7.W 9.u #.| +.o.X.7.o.V.6.+.O.p.i.B.a.o.8.{ L.q.S.A.W.h.e.+.!.7.8.u.W.Z } 7.",
"i...2.i.1.S.S.Y.5.L o.6.7.y.u.h.2.( i.4.) 3.o.6.u.M X.G I.y.4.L.W.Y.W.C.| | 6.o.S m.N...N.E.8.A +.N.@.P C.q.' ' p.G | ..@.6.N.9.9.} 7.i.) ..] 7.V.L.h.X.9.S.{ L.S.V.D.u.' >.;...q.7.3.3.y.V.p.S.i.L.C.p.9.e. .{ >.{ u.5.u.+.5.z.6.p.o.3...:.n p.q.*.%.} ..y.q.X.<.9.q.} D 7.3.3.3.} X.b.9.G 8.a.a.i.m.4.6.3.N._ 7.D.' @.L } 9.L.p.7.7.4.G p.D.B.9.9.+.+.| 5.>.W.9.7.>.a.9.7.J.o.6.N.9.S.7.H S.| +.h.X.q.i.p.g.,.p.o.I.) H F.e...9.6.+.u.C.9.S 9.G.9.C.e.X.L.N.K.>.u.9.o.4. .u.B 9.[ F.8.>.d.e.' _ {  .d.E  .{ 3.:.u.K N.~ p.i.X.",
"u.p.7.a.A.<.2.;.H.u.u.l.p.) <.C.u.S.y.3.3.o.L i.S.x 7.3.V.b.b.9.b.U.Y.W.:.6.o._ 9.D n.U.T.b.7.S.S.V.e.7.h.3.7.} ..K 9.) p.[ <.i.u.P 7.B.| 9.D.8.q.C.C.R.L.l.i.N.p.V.B.o.A.6.2.7.i.J.9.5...C.S.:.N.9.7.u.o.9._ 8.p.o.y.7.p.J.H :.:.n.0.6.e.9.D._ n V.N.~ +.p.C.>.q.9.a.H.H +.o.7.7.8.7.o.6.u.Z.S.2.q.7.| ..9.u.+.p.m.,.[ 8.:.V.3.+.@.u...+.+.B.p.B.p.9.6.7.} L.Q.+.+.X.N.a.V.;.b.,.S.7.X.u.M T.8.6.7.N.H.9.2.@.a.9.9.N.3.H.g L.V.i.u.:...N.p.+.<.i.%.L o...e.y.( 9.7.3.| e.u.f.G S.i.9.i.g.9.S.3. .7.+.Y Y.y.K u.L.u.;.o.o.g.F...",
"i.Q.o.>.' s.[ 3.2.+.H 6.9.2.O.>.4.2.e.o.o.5.>.C.G.N...g.9.p.p.p.S.S.A.Y.J.9.3.p.s.| { ' q.V.S.N.S.N.6.d.o.p.o.<.8.s.o.%.+.N i.Y.R.d.>.0.y.:.P +.} A.N.<.9.5.T.B.C.B.B.B.Z.C.p.i.>.<.K 7.o.@.F.S.F.o.3.y.9.L ) 7.| I.{ _ S y.f.o.o.' o.8.3.f.F.3.p.B ~.~.:.8.%.i.q. .9.} g.8.3.7.p.9.5.6.e.o.,.,.P.i.p.O.i.N.p.X.T.y.} @.9.| 6.u.X.+.9.9.>.+.X.O.C.9.H L.p.:.V.P.9.{ S.H q.N.y.....{ u.u.6.:.2.L 7.y.7.O.y.+.:...u. .9.9...n S.C.i._ o.>.Q.7.p.p.;.7.7.z. .( G.S.P 9.B.X.9.2.a._ V.S.9.p.V.i...7.D ' a.+.W C.h +.+.A.C.+.6.P.y.o.",
"U.c.s.9.X.s...| o.d.C.' ) ) B.{ 7.C.i.o.| L +.A.9.9.2.o.[ G N.B.Z.;.P.2.E.6.9.o.8.X.:.+.S.| V.X.L.W.V 5.X.X.i.6.o.U. .6._ >.q.6.;.( Z 5...9.9.g. .+.8.H 7.:.L.B.S.P.6.} ;.N.:.H.' 9.N.A. .o.o.d.9.D.p.2.f.o. .i.>.:.R.W.N.C.) +.9.} u.p.H  ._ 6.q.:.<.;.J u.} :.h.0.9.| 9.7.6.X.6.7.e.+.' q.G J.G.] 9.o.>.2.:.G A.9.) ..C.6.9.3.@.7.a.+.7.9.' i.| 0.' ' >.| } Z.8.+.o.B.u.9.u.6.u.7.V.o.s.X.C.>.:.N.Y.p.H X.y.L.7.y.u.u.| ' A.J.7.>.o.D R p.m e.h.H a.V.A.S.O.y.5.H.C.2.W L.( 9.N.9.7.' 7.B.7.o.X.] p.3.S >.9.O.h.N.@.X.) ] X.6.",
"+.3.Y.e.K  .G 8.8.i.S.<.2.N.F.L 3.q.i.P o.7.+.h 9.o.S.p.e.+.C.9.q.p.X.` q.q.p.8.9.p.P...L.o.B.K.r.+.y.9.@.3.+.+.a 1.) ) D 8.4.| y.@. .y.o.} m F ~.7.7.>. .u.7.G.n.9.6...| i.C.&.[ 3.%.I.>.B.+.9.A ) p.V.N.s.W.m.9...B.L.N.q.} g.8.7.p.A 2.X.| u.:.p.%.o.p.H.} .. .} +.6.o.o.+.4.6.o.u.7.p.[ Y.9.:.<.p.y.9.9.N.a...d.>.H.:.X.p.>.8.7.7.%.} C.O.+. .p.u.q.C.{ +.C.d.2.y.3.o. .o.S 5.H [ D H 7.D.p.u.2.Y.N.+.9.S >.) y.+.2.p.F.;.J.e.( i.+.N._ G u.o.S S.N.o.V.{ R.o.a.S.S.N.n [ a.:.N.B.H | o.8.X.6.6.} P I i.W.) T.<.F.d.i.+.7.P ",
"o.C.E.y.6.8.0.H.L C.9.V.9.s b.' Z B _ H.p.u.X.>.6.X.p.C.y.9.i.y.:._ X.p.8.0.| 9.q.J.0.N.F.m Q.i.,.g.o.} +.| h.g.+.5.g.r.o.} F.9.y.} { } >.7...g.3.u.P H.>.u.u.C.2. .X.H.h.2.D.6.:. .h.>.L.i.9.H 6.u.9.}  .+.I.+.%.a.| ] i.f.S X.N.B.f.;...p.9.2.p.u.y.G i.7.>.u.o.y.@.4.+.[ { W E.C.P.9.6.X.5.@.2.C.5.9.S.9.h.y.u.9.3.i.6.i.9.i.+.B.B.2.,.b.+.9.<.p.{ O.9.;.| y.q.s.o.N.[ 9.o.u.i.[ g.C.j.6.0.q.A.n E.C.o.7.@.G +.y.>.R +.F.) 7.7.R.,.e.a.O.a.S.>.4.L.o.g.Y.o.W.} ' B.W.@.R.( a.6.) p.p.7.4.p.:.>.e.i.N.+.o.>.i.C.>.u.7.u.m.u.y.",
"9.S.S.i...9.C :.L.%.L.N.H.d.%.B V 9.%. .p.H o.9.7.G q.p.p.X.q.p.:.f.u.G m o.o.>.| ..S 9.p...N.7.L.W :.L >.o.+.i.u.u.S } 6.h.o.>.l.a.y.o.9.p.o.X.{  .D | } +.K.F.I.C.9.+.p.i.+.u.q.o.>.9.4.a.u.7.} o.P F.F.>.U.X.L.V.a. .i.m...y.) :.y.,...L.q :.+.9.D.9.o.+.I.3.7.o.7.o.+.a.J.a.7.{ x L.+.e.P.>.p.>.0.+.E...7.u.6.+.} L.7.B.:.>.:.7.+.' ( o._ { h.K H.C.7.p.( j | G X._ 4.8.@.7.+.9. .N.N...q.N.} a.G.H.@.e.7.H 9.S J.o.8.) z %.g.u.V u.| ..I.( >.' ;.u._ W.<.+.o.H.h.h.L.G.S.i.o.o._ o.u.e.3.z.+.h.y.8.C.C.u.p.C.;.4.o.) +.G H.",
"@.G.Z.C.u.o.9.#.W.p.6.&.+.F.z.F.z._ I.' 9.L i.L...o.p.B.p.7.L ' y.p.X.S.%.r.u.7.+.3. .1.I.;.[ 3.6.7.2.y.S ( N.N.>.>.g.S z.3.u.p.H.e.V d.u.z.J.| 9.B.N.X.u.X.9.9.8.V.p.p. .9.o.h.3.7.y.u.X.U.L.>.B.u.y...o.} 6.9._ T.h. .6.i.0.~ q.} p.L.H S P.s.s.L.h.9.6.9.Q.D.P H e.i.u.+.W.f.y.| C.s h.y.H.9.h.V.m.@.9.[  .X.&.+.L.i.| 9.9.{ 8._ .._ o.9...R  . .>.} z.8.m o.W F.9.7.G ` u.5.8.S...| B.u.8.:...Z V w.y.i.7.o.q L.N.N.D Z B Y.H.7.*.+.i.H...V.N D +.o.Z S.@.:.o.u.B B.9.s.1.h.9.3.) 6.a.u.V } K +.o.o.@.o.S ' / ;.:.i.+. .N.7.",
"o.P  .N.*.X.I.S.>.H i.>.S L.7.p.x J.i...q.s.d.C.D.7.%.{ ) p.} K o.} 7.z.J.7.+.H 6.q.H.;.0 ~ B.| X.e.>.+... .L.z.+.+.s.2.| y.X.g._ 6.7.7.3.) 5.a.H.L.S.N.;.8.| y.B.( { ) I.f._ { X.X.L.N.C.7.P.G.8.X.X.B.>.p.p.9.C.y.9.o.y._ W.0.S a.| B.z.n 5.6.o.[ o.X.u.2.z.6.e.u.3.6.| 9.@.Q.K.<.N.;.1.H.h.U.z.N a.2.V.9.2.( >.q.P.;. .p.D.| p.o.6.9.B.0.' [ D O.y.>.+.:.b.9.a.9.h.7.S.) 9.I.T.+... .i.6.H.B.C.i.y.( m &.X.7.J.u.3.g.e. .p.m.O.y.9.7.D.@.5.C._ 2.~.6.y.W.L.X.5.L q.2.N.<.G.n p.8.....a.9.7.S.E.L.H u.a.l.L @.F H.5.7. .9.7.o.",
"4.o.X.7.W ;. .p.6.H.p.u.o.;.9.o.>.V K.D.K.F.' N.S.7.o.5.[ d.2.u.7.) u...B.3.I I y...7.p.7.5.o.a.7.r.C.:.F  .V.X.X.o.>.X.y.u.o.7.6.p.( 9.H.i.>.3.9.S.F.q.N.9.9.C.S.;.o.7...( 2.q.R.g.p.p.p.>.:.8.i.E.N.V.N.} 3.4.i.9.i.H +.) Y.o.h.i...H [ W.2.( V X.+.y.L.T.7.B.h.e.| +.B p.S S B P.N.q.2.n ' N.2.9.V.0.+.i.9.S.I.2.I.} i...B.u.u.o.u.9.O... .o.q.C.9.) N.X.6.B.8.o.a.o.S.9...n.%.j.o.S.;.y.q.g.F.i.2.B.S.W.g.} { 7.i.2.g.7.F.H.| i.9.2.i.o.3.L.h ` !.S.V.H.P...3.F.S 9.{ S.U.S.;.u.u.g.+.9.@.e.N.X.{ 2.;.I._ ) +.G J.N._ 7.| | ",
"{ 6.[ G.p.7.) o.u.B.O.u.D.9.+.y.{ e.B D n S M.g.N.p.o.7.i.i.7.V X.r.X.O.>.+.o._ e.5.L d.6.e.6.6.u.P <.L } S %.i.d.i.I.o.i.y.o.4.4.+.( u.| G @.X.) C.S.L.F.U.J.N.F.i.9.p.i.) 8.m :.+.9.8.d.X.p.E.u.8.d.L.N.) +.9.+.2.D.7.7.o.l.+.9.n.0.D.u.n H.J.9.f.9.Y.' [ [ 9.g.h.u.X.*.} { u.N.h.R.N.S.S.S.:.V.J.{ >.J.S.L.G.Q.h.S.R.D.+.;.7.o.g.5.S.J.+.| 7.u.A.i.y.p.H a.9.) %.H a.V.9.{ B.n.L.) 8.>.9.9.B.P.J.h.+._ ;.f.O.O.} X.7.) S.S ;.o.u.F.3.+.} f.7.C.S ,.m.;.N.2.u.9.| 5.Q.2.S.L.i.L 6.G p.C.7.C.7.C.V.9. .+.>.N ~ 1.` 7.u.V.i.V.p.",
">.9.2.&.u.u.7.+.9...+.:...9.7.3.H.H I.R.N.+.B a.3.S.3.G.9.V.| d.>.o.P 7._ e.y.2.T.a.3...u.o.4.3.3.7.9.9.8...+.!.7.( a.p.u ;.S :.~ H.7.L +.u.C.7.o.C.S.i.C...p.u.g.i. .6.| a.e. .:.E 7.6.y.0.D U.L.S.S.S.H.B.>.P +.H.9.) _ ..Z.:.6.i.4.q.F.8.6.' D n >.Y.i.P.7.| 8.:.G D C.H.+.L :.y.p.h.@.p.,.S.s.L.p.J.[ Q.C.N.N.i.0 u.Z.,.7.9.q.3.+.O.;.o.( o.y.T.i.>.:.9.i._ i.>.|  ._ +.| N.A.N.8.o.P.[ 9.' S.N.R n 9.[ J.7.g.>.9.u.o.' 9.5.u.i.y.W.N.o.+.e.d.V.C p.9.o.....i.3.[ ] J.S.S.S.o.L.>.O.+.H 7.p.S.R.:.| o.q.6.D.o.g.e.H.C.S.' _ ",
"C.R.w.s.X.o.X.B.h.>.>.q.@.9.9.} 3.) ;.2.I.E.N.P.6.n.e.:.d.V 6.9.} +...| +.o.+.X.Q.Z.K.e.I 9.o.o.8.8.>.9.6.~ >.:.L | >.I.V  .g S B.[ z.6...:.<.7.{ a.G.S.:.~ G g.e.h.F.p.7.u.+.B.T.L.X.y.X.9.+.Q.Y.W.N.C.9.6.>.o.a.4.) a.X.V.V 4.o.p.9.:.8.) 3.C V a.I._ 0.9.S >.p.C.T.S.( X.C.7.) Q.u.2.y.o.V.S.i.Y.T.F.V.Y.N.i.N.Y.8._ ;.' O.+.C.L.Y.<.H  .;.7.P 7.H.C.X.C.a.q.p.p.N._ 3.8.3.X.v.q.6.} 3.q...i.A i.W.i._ 8.[ 9._ i.C.+.N.:.[ v._ o.0.S L.d.P.F.5.:.~ ..S N 7.E.T.2.N.S.q.S.q.9.9.T.i.W.R.H.) a.p.i.i.3.e.C.b.>.-.,.J.>.+.( C.H.",
";.q.T.9.7.8.S.:.5.D.p.X.e.G.N.7.a.H.q.9.L.X.:.3.o.+.p.o.} V.u.S.W.J.g.l.J.p.y.<.=.` N.J.d.o.u.7.3.6.B 3.{ ) i 4.f.@.u.x I.6 u.u 2.y.] ( | 7.y.u. .d.S.C.~ >.J.( ) ) Q.S.*.:.:.q.&.p.D | 4.o.i.T.T.T.L.C.o.p.C.| u._ K.R.i.i.2.K.i.+.u.C...9.+.7.d.o.' e.) f.o.B.S.q.0.V.( o.6.9.3.{ 9.y.N i.i.V V.V.V.0.{ F.U.!.S.O.o.P.H.5.<.S.[ ..9.C.q.C.C.o.X.+.6.C.;.V N a.;.[ X.J.h.>.0.6.p.V.9.9.X.:.9.0.y.( H +.G :.' z.~ B.+.D X.' 9.j.u...5.3.} S ~ V.N.F.B.L.S.X.V.9.K.J.p.p.H.L.9.| C.u.p.>.p.O.y.V >.i.o.3.2.A.i.y.a.i.:.{ X.C.u.S.",
"+.+. .7.C.u.( >.7.X.6.9.7.B.+.u.C.S.Y.S.;.:.y.7.9.L.L.D.4.4.+.g...A.) !.1.W W.G.5.z.) -.y.u.@.u.{ N.:.3.' Z y.+.( <.y.H u l.f ;.+.o.( o.7.y.7.o.y.3.E.S.] } Q.e.5.:.C.( 7.6.+.N. .*.D.~ d.} 8.U.Y.V. .S.9.y.i.y.+.+.,.( p.7.P.) +.@.F C.m 7.6.I e.o.H &.u.i.u.S.G.N.S.p.9.' o.| 6.K | g.9.I.C.F.W.B.T.F.,.#.+.' F.9.6.7.8.6.' +.{ 9.>.>.h.K C.C.9.) +.L.~ a.y.| 7.y.n j.B.8.0.9.X.6.X.p.o.) O.p.H 8.8.) S C.s.N.+.N.7.V.+. .B.7.o.7.+.7.9.>.7.{ H.;.N O.8.H D.3. .9.o.7.p.x o.9.9.p.o.u.p.C.C.H.L. .J.7.B W.>.C.o.i.:.S.a.>...7.",
"7.} +.p.f.' a.:.o.d.a.;.) f.L.N.S.B p.z.;.I N.2.D.+.i.W.[ g.9.F.H.2.u.Z.( N V +.m.L @.X.g.5.K +.9.) ' 7.2.2.) X.O.u l 9.>.x ;.F N G i.@.o.X.X.u.| { B.' H.S N.>.y.H ;.%.t.( 3.F.i.Q.T.D.9.N.L.y.X.y.q.>.9.C.d.y.e.+.S.@.e.o.A.I.h.l.9.B 7.| e.) } | p.H 9.g.i.a.L.L.6. .Z H.{ o.3.u.+.9.+.x ;._ N.v.E.H 2.:.G O.[  .>.C.2.@.G.h.9.L.>.:.2.7.9.C.9.e.} T.9.l.o.u.I a.9.x K.' Q.K.R.%.u.p.~ d.R ) 6.S q.J.G L.h.S ) _ :.9.7.S +.F.D.g.4.7.:.( :.B.X.y.3.o.X.;.u.3.7.>.8.:.9...T.F.7.M :.o.8.P.V.s.J.+.2.P.7.2.W.H.N.S.<.C.9.7.7.y.",
"F.9.+.p.:.} q.0.} @.<.C.p.Y.A.) y.u.>.p.o.| L.7.o.Y.H q.z.) i...+.;.H.[ H.i.S G o.u.f.B +.h.f.k.S.b.:.G N. .>...D T -.y.+...d.n V 7.+.H p.) f.L b.i.q.X.6.+.o.b.S.| { ) Q.;.z.6.^ 2.S.F.7.q.3.8.p.+.;.S.' ~ ;.h.8.u.[ 4.5._ ( [ N.S.( ..J.p.7.f.Y.:. .8.9.6.P 5.D.2.4.( L.S.I...y.4.4.L.+.7.{ ..p.L n.L.V...>.W. .I.y.a.O.V ;.7.7.4.i._ 7.9.X...x p.+.G.P.z 8._ +.4.X.| v.( N.S o.9.+.2.C.N.h N.l n.h.,.p.[ b.+.P.<.X.+.9.+.y.K.y.X.u.4.G V 5.h.9.L I.>.+.n 9.y.7.h.S [ 6.q.>.3.3.C.r.| >.N.D.m o.G ,.N.9.p.Y.I.9.V.C.S.e.X.y.] ",
"<.P.+.3.9.B.f.[ J.g.C.X.f.Y.Q.I.G i.:.+.4.2.V.7.7.7.y.H @.S H.D.p.i.C.q.U.J.B.L.P.3.o.7.o.I.R x s N.V.S.R.C.[ g.m ! [ [ >.n >.H.h._ +.4.J.d.9.+.P.L.~ H y.S d.8._ 9.D 9.V.S.[ i. .6.;.i.~.;.y.>.| 8.8.T.u.J.V h.a...@.2.N.;.n ! / 9.o.a.L S.0.N.V.' Q.7.p.7.>.9.+.i.b.9.7.N._ i.K ' +.8.o.) A.W.z 1.9.L.9.o. .T.X.>.+.W.y.7.y.( +.L.X.| C.;.g...S.u.u.N.T.H.h.L +.B.q.} 6.a._ 7.f.+.+.W.S.S.V.N.2.( ~ F.I. .O.+.A.>.H  .i.Z z.W p ( z 3.p.7.O.m @.~ 9.o.m C.g ( W @.@.e.y.p.p.V.B.S.h.G.G.F.[ G +...p.b.L.3.T.>.S.V.N.S.8.) D.F.",
"Y.i.z. .p.8.9.X.C.D 6.4.p.S.Z.,. .p.5.o.3.M i.9.C.+.2.9.5.@.X.S.2.<.N.B.S.p.2...L 9.o.e._ >.z.u.~ N z.I.u.j.C.K ) } q.u.y.) V z ~.u.9.8.a.N.i.p.9.,.) o.X.9.( | _ ) J.N._ A.R.H.4.X.C.W E.>.l.5.8.3.V :.:.E.p.7.) I.G _ N._ H <.o.+.C._ 9.q.D.I.S.2.F.S ..+...P y.o.0 p.B.N.p.i.g.Z X.o.X. .f.7.I.' L.>.K.m 9.P.S S.<.1.>...X.i.{ C.) 9.9.>.9.7._ u.:.S.Y.P.' 2.q.K.3.p.) o.8.( :.p.9.o.9.C.i.S.G p.q. .9.{ U.V D.~.{ +.;.+.[ N.;.q P.y.7.+.w.Z i.X.@...J.) %.i.P.K.' >.h.+.e.P.y.5.+.V.y.4.H L.W.V.a.Q.R.X.n I.F.S. .+.D...V.V.",
"b.a.+.q.G X.S.:.F.o.I m.{ F.$.9.a.:.7.g.e.y._ p._ u.a.>.| >.i.9.D.9.+.[ X.0.7.u.P } 4.G C U.>.~ 1.N.p._ F i n z.o.y.f.Z F p.X.j.X.o._ p.+.;.q.q.C.S.i X.+.h.o.( +.+.~ ..p.;.y.6.;.h.a.m ;.} i.g ] q.a.+.;.H.6.C.u.%.!.[ x i.N.X.q.' ` h.[ U.n 7.K.D N.S 7.8.H ..7.8. .G. .i._ i.>.p.H.z.<.f.Y.| b...B I.2.+.5.m.z.T.D 9.7.o.9.X.S.9.I.i.;.N.p.N.5.>.) 9.G.V.X.G 9.( p.P P o.z.7.:.C...W D.S.+.C.>.&.O.} g.9.C.( 7.2.:.B Z >.p.C.N.[ _ h.d.N.' i.q.9.6.7.m u.h.z.l._ Z  ._ 9.| 6.+. .L.T.[ +.o.[ 9.u.( N.d.6.N.V.P.T.8.g.>.q.y.A.",
"a.i.>.3.B.u.D.I.y.p.3.| u.L ' o.>.+.7.o.e.I 7.u.G y.u.L ..,.X.q.N.B.) +.| P P P L L 7.N.b. .+.o.) B.N.>.a.u...J.S 7.S H 8.X.~ V H X.d.I 4.8.9.z.D.S.8.a.G  .p.{ h.D._ H.y.s.4.Y.:.N.6.L.B A.O.p.p.X.f.;.4.;...i.7.( ( _ { G.i.N.U.+.+.V.:.b.[ 7.D.N.:.L.L F.o.| y.7.H ;.S.L ;.B.2.I.{ 9.Y.!.7.Z.S...F.6.K.2.y.R.W.S.g.u.5.+.X.o.i.V.{ C.V.C.q.B X.y.K | O.F.+...&.p.B.6.7.i.( V.C.N.@.9.7.8.u.2.F o.D.{ 2.2.e.S.;.N.) 9.8.+.N.{ W.W.+.i.h._ | o...7.L.E.z.3.) N.} 6.J.G.+.X.7.u.p.a.a.h.g.a.9.A o.9.y.7.i.o.>.u.8.+.{ E. .<.4.i.",
"N.>.4.7.O.i.N.H :.p.p.3.7.+.7.6.@.4.+.I.e.o.B.3.o.@.9.L.o.5.@.2.O. .3.d.3.o.o.+.{ 9.p.C.H F.H 9.o.0 ' P 3.L ( 3.o.Z +.+.:.e.8.+.P H O.e.s L (  .7.I.2.o.F.W.u.o.D i. .o...;.q.S ;.9.o.>.i. .p.i.i.9.a.a.l.:.7.9.:.V.p.z. .V.;.P.d.j V.Q.@.Z ( L 9.~.D _ p._ i | o. ._ ..n o.D C.p.=.f.@.Y.Q.U. .8.+.#.l q. .K G.N.[ h.~ 4.+.2.[ X.[ N.N.y.9.B.B.E.S e.+.u.S 8.8.D.L.9.+.o.p.i.z.i.7.p.9.| i.{ y.S._ u.>.P 9.;.Y.7.q.o.i.E.L.h.| 2. .+.9.+.9.i.R y.Z S.v.V.^...L +.p.H W.x o.d.5.J.K.9.A.a.o.F.{ o.9.5.+.X.P.a.7.+.i.3.9.g.3.{ S.",
"h.>.6.7.y.S.C.H.[ | 6.3.o.| 6.:.i.7.>.S.3.o.O.d.u.] I.+.o.>.G.i._ q.!.3.{ ) u.} 7.A U.' G ..L 0.N.>.e.W @.g.` 2.H H o.9.H o.z.K K a.u.H.4.X.L X.) g.J.N.F.F.F.9.a.( y.i.| Z  .[ N.9.+.y.p.2. .o.7.a.Q.>.q.N.>.4.8.V.q.L w.u. .2.N.b.U.>.B.F.) +.7.y.D. .q.T.;.J.W 9.s.V.9.4.y.C.i.2.>.| C p.A.:.v.6.h.:.2.I.s.B T.u.R 7._ +.7.O.O.( C.[ 7...D.C.B.o.+.X.9.a.| S.Q.2.W.q.i.T.) >.+.q.9.u.| y.H.G.} o.p.B.+.:.W.( :.G.+.D ) >.;.' S.9...L u.4.o.5.o.O.7.' S.S.a.7.g.y.>.9.L.p.V.&.V.Q.2.V p.Q.7.K p.+.C.o.9.9.L.9.S.( O.9.:.u.D.X.",
">.+.i.9.o.9.:.z.u.o.y.+.;.o.2.+.i.+...| 7.y.+._ +.2.9.X.o.H +.+.2.) U.L N.%.J.d.u.T.9.) J.*...[ 9.{ W.9.J.2.| a z.u.9.} o...+.Z P o.( 7 n D.M Z d.) 9.p.V.2.0.9...L [ ..G 9.%.' ;.+.+. .C.7.>.+.} ) C.O.9.g.4.} ..:.} u.z C. .9.;.+.O.o.q.( I.9.o.3.o.[ 6.q.B n.B.L.f.[ P +.X.( ;.;.9.3.S [ :.6.B.q.9.0.B.W.D u.x } ;.S N.3.:.O.p.B.J.` i.! z.>.L d.a.L +.f.:.i.g.' h I.p.9.:.| B.5.7.+.>.7.S.~ 9.:.S.;.*.{ } V B.) h.7.u.u.) c.q.B L 7.X.i.:.A.>.+.6.m m.S.9.y.) Q.A C.o.x N.d.! >.>.P.i ' p.6.L p.9.7.7.<.!.d.9.S.2.F.g.9.g.9.",
"F ..p.L _ 6.C.1.o.6.6.3.7.9.D.C.+...O.a.| 8.+.4.[ +.7.u.4.L +.9.L O.o.S.+.+.0.D.b.V.K.{ _ G h.5.S T.N.P.i.9.8.u.V S.W.Z u.+.P D V u.z.' 7.V h.y.) f ..D.S S ;.0.s. .b.p.p.( ..| 9.e.5.4.6.[ h.y.;. .y.a.7.3.S.L.B.2.i.G 9.7.e.d.+.:.q.7.*.N.;.I.d.8.A.:.{ } = Z.[ S.N.o._ d.E.o.N.N._ o.| O.b.i.Y.~ I...E.L.3.N.5.i.i.' N.e.i.7.N.S.i.9.P.>.7.G %.6.7.N.:.) G.<.G 3.6.X.d.+...D.>.X.o.u.B.A.R.W W.C.C.%.6.X.H S.Z u.F.8.{ { y.I.i.) >.+.W.p._ @.7.3.4.) Y.S.9...S.S. .~ o.7.~.I.I.N.L._ 9.+.G u.K +.y.p.V W.N.I.J.V.A.V.N.2.~ u.",
"D.>.>.g.o.3.9.p.3.9.7.7.H.7.L.@.6.6.g.q.+...g.4.I.p.X.L ) S m i.W.N.+.H H o.| ..w b.N.X.X.} S d.9.S.T W...D... .Z.Q.W ` ..+.6.p.{ S x 2.G 5.g.V z +.H H.H.*.c.d.W 2.i.2.u.a.+.>.[ p.n L +.q. .} | B.H o.7.g.i.R.W.L.C.p.B.} ~ 9.o.) I.A G i.>.S u.| 9. .B.R.i.;. .:.E o.C.C O.+._ S.` L o...A.N. ...w V.I.O.Q.6.g.e.f.=.2.2.m L.y.i.e.4.O.e.S.I.%.+.i.f.g. .:.:.| 7.u.A I.+.:.A S.H o.7.G.S.9.h.) W i. .o.7.X.{ h.L.~ B.7.G { f.y.o.I.S.1.g.e.7.6.K | u.) Y.L.Y.N.` W.o.J.i.i.N.A.L.i.d.f.J.W.:.6... .a.S U.B.b.K.R.| _ p.W.J.S ",
"J.9.d.S.9.p.F.q.3.g.:.C.O._ G.2.+.X.o.u.N.J.+.p.y.X.6.Z :.<.u...o...) +.J.u.D.p. .9.F @.i.[ %.+.Z.;.:.i.B.b.B x * Z.F.F.C F.H 7.3.K p I.i.S C._ 6.*.B.5 W.A *.C.2.7.d.q.a.i.G.C.+.Z S.I.u.+.7.o.@.e.>.e. .i.+.+.9.p.u.u.L.D.L.O.u.S T B.2.u.T.L.<.a.+.g m ) 6.e T.2...2.H. .q.+.>.I.S. .} y.y.D.9.:.0.u.2.h.B.} N.g.X.' ( :.B.S.p.) 7.u.7.7.+...@.,.S.E N.e.L.n [ i.>.q.( L.B.J.H. .u.o.I.T.o.7.5.2.:.y.p.+.0.y.p.] J.3.S.z.3.L o.;.X.i.7.X.y.9.B.L.3.P.T.c.E.n.R U.G.V.V.,.~.V.) L. .9.} 5.d.K.( | 3.>._ Q.X. .) J.S.i.o.6.8.( ",
"L.N T.S.p.%.9.o.3.+.O.:.Q.| y.V.7.W %.O.4.W.3.6.3.| O.A.+.z.p.u.9.3.9. .2.F.a.y.@.W.O.>.3.>.:.a.R.>.U.} S +.Z.K  .9.~ ~ ,.z.p.o.i.o.[ Y.I.E.O. .Z K ~ W.[  .0.:.S +.+.f.2.S.C.H L.F.N.a.i.<.>.9.o.9.9.+.[ q.4.H u.+.8.u.+.y.B.7.S S s B h V.3.K ;.a.) ..m 9.i.J.N.7.+.9.m S.p.;.Z <.D.j.6.a.7.:.} ;...{ N.y.' a.( i.O.+.{ ( 9. .6.L 7.9.e.d.7.'  .S._ y.o.y.V N ;.g C.U.[ f.u.e.i.S.>.W.C.R.( N. .p.[ N.o.u.X.>.i.+.g =.{ 6.D.8.m 2.e.v.a.f.g.O.2.@.2.1.B.S m.u.L R m.U.W.p.W W.K T.u.u.8.9.+.u.N.G ..) ;.[ +.5._ H.q.9.p.>.o.o.",
"h.D.:.~ q.7.5.7.+.6.7.+.N.B.a.4.| e.8.q.+.b.:.f.D.N.+.3.9. .+.:.S...[ g.n 6.N.d.X. .f.o.o.[ b.G :.Y.q.{ :.V U.2.T  .} F R w 9.7.S o.o.N.f...m m L.3.Z B.9.J 8.J z.u.o.X.7.i.<.p.i.C.u.y...P._ _  .u.:.D.X.;.S 6.s.| p.3.3.o.7.I.N.9.y.S.q.q.:.8.=.L  .J.7.S.W I.>.7.5.P.a.9.X.h.p.+.G o.o.:.;.6.r.4.8.6.X.g.o.0.' u.6.G. .I.;.@.+.f.| [ Y.L | ' ) [ c.B @.+. .} B o.g R.` ' D.9.9.i.9.[ O.) y.u.o.8.9.g [ >.D.g.P.7.9.%.+.X.p.f.u.u.;.;.;.L G ;.o.G b.9.d.:.N.o.5.e.) z Q.q.j.L.m 2.F.7.7.} 9.:.S.@.f.W.F.' +...+.h.q.x o.5.u.8.",
"p.' h.;.8.} 9.N.9.| 7. .<.y.o.o.3.o.o.u.j.p.0.C.9.a.9.K ..@.p.q.G.[ 9.T.p.p.N.H.P.h.+.o.;.N.o.6.} &.T.g.~.7 V.C.| _ ' :.R.6.6.C 7.Z V o.+.+.6.i D F L T S 9.) 3.2.B | s.d.C.L. .V.S 9.7...i.V +.4.+.6.2.X.P.e.s.+.o.G S 3.' 7.o.+.0.8.0.8.L.N.8.y.o.} ~.G.u i.W.N.+.u.g.h.9.<.x :.( :.u.} X.7.4.L 4.6.o.8.+.o.9.S.9.S.O.7.( @.m u.) +.V.w.h.L.p.a._ C.x V { i...o.Z P.( H.D | @.N.>.y.C.7.) 9.6.| +.p.u.q.>.g.z.u. .j.z H q.B.7.e.n _ o.>.H ;.i.+.L A.W.D.v.o.{ y.| u.' i.N.b.Q.d.S.D.s.+.p.6.F.+.0.y.6.y.P.,.+.N.D.V.S.+.8.>.8.",
"..o.0.7.8.9.:.:.i.9.7.+.9.o.o.6.o.7.9.N.S.S.u.T.C.9.7.o.N.u.i.8.C.[ 9.7.u.8.>.S.q.u.[ H n N.7.C g.m N.~.[ B.l 4.s.O.x q 6.) 6.&.o.6.X.) +...7.x 3.s.| ..K.N.S K u._ o.B.o.p.{ I.C.S.i.) Z y.W.W.N s  .` o.H.B o.F >.f.d.@.B.{ 5.8.| 7.8...r.V.p.y.Z E ~.u.o.7.N.2.B.<.9.L.X.+.G +.V.S.u.G H P o._ :.7.3.+.| e.3. .J.%.X.l.o._ 9.+.u. .S.E.E.u.g.H ..) f._ >.( :._ | y.x h I.;.[ ..4.g.o.u.C.Q.:.+...B.i.>.u.2.W.u.B B.a R.9.2.K.H _ a.N.y.S.X.W.7.j u.&.N.} o.D :.! _ N.} *.~ U.~.H F.J...i.| h.G S 9.m 9.8.9.9.S.R.h.N.o.B.S.p.",
"7...6.) 7.o.i.D.!.6.2.G.N.| o._ C.q.p.M i.C.0.9.q.E.H _ L u.4.7.4.>.N.) o.y.N F.C.L.D.B [ p.u.y.) 0.9.Q._ F.8.6.0.0.J.N.S C.) V.| 5.L f 5.C.| o.n ;.g.V. .1.B.q.a.+.3.e.H o.J.@.C.G...u.+.I.u.+.N %.[ g.' u._ o.u.j ' o.7.4.o.{ 5.9.L o.n X.B.9.X.{ z S.' I.C.G.>.H.0.I.F.+.| C.:.F.S.9.2.z.{  .H 3.| e.p.s.7.7.o._ _ =.C.@.A.@.| 9.>.%.%.U.a.+.H...J.+._ u.| e.S X...h.h.N K.2.L.y.6.| J.i.<.J._ 8.+.z.Y.2.q.W u.:.A >.C.N :.p./ u.9.:.y.{ D.N S ' v 9.3.J.h.D.f.i.p.F.2.J h ,.W.D.<.p.+.e.p.6.q.9.q.j.J ..B.O.N.!.g.7.Q.J.,.) ",
"0.>.+.d.>.' N.S W.9.u.i.S.:.H g.y.p.y.5.M V B.| ' E.s.y.u.+.A G } a.W.V.F a.N.9.2. .S x ;.H.<.J.9.L.S ~.o.V.J s.W.S ' g.S.L.C.q.S.S.q.L } +.5.e.G o.o.s.5.~ H S ;.z.X.i.a.+.G @.S.N.H | 2.i.P.y.0 I.S.:.6.9.D.M l.e.V d.3.a.5.o.F F.o...9.S.q.b.+.) w J.p.' G.!.O.i.B.B.i.W >.;.u.N.X.R.S.F.>.e.u.>.+.q.4.H u.7.o.Z h.5.) J.B.N D :.s 9.3.O.p.3.X.( C.X.o.L.I.y [ p.+.+.` p.=.;.j i.L.;.f.3.7.H 7.V.0.F...~ 3.B P.3.[ 8.G 9._ p. .g.~ >.L i.2.S.` [ M m 9.i G.$.J.S } :.S.F.S.~ &.~.x i.y.F.K.9.p...N.8.S.>.i.b.F.) { b.F.[ +.' ",
"O.p._ 7.6.h.C.X.A.8.6.G.S.C.S.i.@.u.4.+.C.S.;.y.8.q.S.E.u.A 8.9.p.o.u.P.V.S 0.p.n 7.u.K N.9.| u.6.2.^ T.Z p.Z H 1.Z.m.Y.L.V.S.S.V.N.S.B :.{ 3.3.3.u.9...~ d.X.F.' W.n  .6.4.>.H.9.>.+.B D.&.u.( G p.J.} q.p.;.J.i 6.C...[  .W.o.o.:.} p.9.C.N.b.7.h.O.) z 2.S.2.O.:.p.:.@.I.9.+.a.o.o.o.i...6.d.7.L +.7.p.p.} u.P ..] l.4.o.G s.G.S.u.7 9.7.{ 4.| C.C.B.{ C.R.W.s.>.s.6.>.u.7.e.O.N.>.W X.8.g.0.o...&.+. .} q.B V.y...} O._ ~.|  .L.V 9.V.F.N.S.2.q.q.&.X.+.S.S.A.A.7.D.Y.2.S.G [ L.7 L.S.b.N.Y.d.D.P T.S.V.B A.Y.X.>.7.~.+.q.u.",
"+.d.o...i.u.%.Y.o.9.C.S.G.N.G.<.G.N.N.S.G.E.H.:.S N.` B :. .o.X.} p.| p.S.B V.+...{ J.| 2.B.D.s. .d.;.V.3. .+.s O.X.7.C.h.S.S.T.N.C.q.:.o. .A >.;.8.P y.q.2.+.j.H.z H.o.o.d.i.|  .8.+.S o...~ N.( g J.2.D.B.K m p.N 8.K._ i.;.o.3.B.8.7.q.9.C.C.X.+.T S.L.A.m.C.:.9.L.N.N.[ h.C.e.+.2.p.) 5.<.T.f.6.p.+.X.i.u.L 5.p.G ) f.@.g.D | D 6.a.7.8.X.o.3.O.+.F 9.( Z.L.J.;.u.} e.2.| C.+.e.L.N...g.H.7.{ p.I.} L.J.q.6.T.p.d.) u.G ` W.d.` S 9.S.:.V.F.2.9.9 Z H.9.n P.u * N.:.7.f.C.S.B !.e.G s V N.L P F.7.h.C.a.p.' L.S.9._ N.o.H.{ ",
"h.a.i.>.Y.` ( i.9.C...p.C.S.:.P.Y.$.C.5.g.}  .S.L.} 2.H } n 8.S p.d.} } S.R  .B.u.} >.S 8 3 !.Q.V.h.U.9.d.i.7.:.N.3.T.j.;.C.S.E.L.Q.V.C...L K Z ( V 9.:.o.>.) :.O.B.! p.O.m._ l.p.| o.9.x ) X.d.4.g.[ ;.;.| 7.j.M p.z.X.a.q.V.4.D } | 9.a.C.y.[ 2.i.S.S <.,.p.L.} 7.+.>.u.<. .J.| k.x V u.>.X.G.E.a.9.a.2.t.S.7.3.9.o.F y.i.+.z.>.} o.>.4.K.C.y.4.o.G q.Z | ] 8.p _ l.+.L 7.u.+.N.o.C.` ;.@.m.X.1.%.S. .<. .+.%.9.( ;.2.{ ( F.W N.>.j T.L.F.S.F.' g.a.;.D [ W +.S. .i.i.C.W.t.y.F.2.s.u.>.>.O.<.z.W.S p.~ 4.8.p.T.+.P.n N.y.u.+.",
"O.o.:.i.e.9.i.i.} u.V.y.P.G. .1.V V.b.+.a.6.D.p.S.V.S.D u.| Q.W.S K _ D.W.6.~.v 9.9.>.7 g.z.n 7 S.,.V.3.C.8.| z.S G N Q.L.N.N.6.N.S.C.F.S.~.~.8.u.d...i.y | | P o.H.h D.i.)  .} H j u ;.u.' O...e.L :.6.Y.o.o.o.y.9.H X.X.N.u.9.9.4.4.7.9.>.:.T L >.S ) [ :.<.Z.i.V.2.y.7.7.| S.+.) u.7.( S.T.A.G.y.h.a.H >.a.6.| 7.8.5.i.L.i.u.j.=.h._ { i.L.p.9.u.5.X.3.p.F.E.( a.} L 9.a.H u.>.i.F.%.{ e.K o.L.p.u.i.V Z.P._ | d.6.S.L.a.u.h.2.S.j I.8.W _ K.H W G / H H I.B H.R.9.N.H.( ) E.L.;.y.o.o.o.) 5.8.6.d.5.U.9.9.p.X.7.6.D.F.i.y.C.",
"N.+.O.m.C.h.5.S.S.y.C.n X.S ..+.H.R.i.} | X.+.| F.f.0.9.3...S.S.D.B.L.8.X. .N D _ 9.C.D.q.i.N.C.K V.^.I.:.i.D.M ) J.o.Z.i.S.S.S N.C.;.7.S ` S.h.S N X.+. .8.7.a.N.q.D.J.F.} >.' ' ( i C.9.q.7.p.o._ @.G.:.u.>.u.3.o.D _ o.0.p.D.a.u.6.y.O.9.V o.>.G e.+.i.N.u.<.b.q.;.9.6.3.>.D.u.+.W.9.O.V.T.p.i.i.e.7.e.i.W.+.X.[ 3.8.4.C. .E...@.@.C.+.O.>.V.[ 3.9.p.0...7.p.e.X.e.@._ h D.p.z g R.( ' P.L 8.Y.7.G a.N._ A.I.X.p.+.z N.5.( A.K R.z.J.;.F.o. .i.H.A.H.C.| C.W.v :.e.u G S.~ 5 T.%.{ d.:.| L.&.R.6...G.L.7.o.6.S.S.u.i.S.+.9.F.",
"o.{ o.m.S.9.o.S.p.2.u.S.9.y.) i.:.9.S.:. .7.h.c.S.u.6.6.7.N.%.A.g.T.V.' :.B.S.C.x  .6.{  .~.S.N.q.,.U.W.+.z.! C.F.w.X.1.I.l.W.N.D.b.7.p.X.g.v ` H...o.H.9.i.7.~ L i.u.y.O.O.( o.I.W.9.' B._ g.} 7.2.) [ 5.+.y.P >.H. . .2.+.,.Z ) 9.a.S.7._ ) %.p. .o.V.' m.2.y.7.>.Z.P.9.4.C.C.i.G.n V p.7.Y.C.a.2.) _ ;.w.y.) i.o.9.6.+.{ +.O.[  .7.i :.a.6.y.) x ..f.s.3.D o.V _ +.4.@.+.h.n I.n y.j d.o.J.q.u.u.C.9.>.V.B  .} z.7.7.w.u.m W.o._ 9.y.y.~ ,.( } N.;.| <.B C.2.S a.C.C.K.p.+.6.C I.N :.+.8.2.S.+.o.i.p.9.C.9.N.S.!.+.O.L.p.:.D.",
"o.@.a.+.E.a.u.N.p.a.7.o.N.} u...o.u.7.C.:.) g.u.2.g.d.{ q.X.X.9.{ ..8.9.V.%.A u J.u.~.~.f b.` B o.N.Y.U.T 2.I.+.2.+.{ 2.T.!.x.9.%.u.u.e.7.9.+.[ d.i.7.i.C.;.G H.' 9.@.+.( 6.@.' ' | W.) ..C B A P a.i.o.i.' o.9.+.O.{ o.6.e.q.N.N.9.y.X.R } S.+.y.a.m Q.I.m.C.9.>.| +.,.>.>.C.q.2.N.C.5.@.L @.;.L 2.C.@.a.4.i.9.W.L.6.L 9.| 9. .C.i.H.+.} 7.S.@.+.F.W.J.D u.H L a.+.O.X.) p.F u.;.O.C.) A.P z.+.9.W 7.:.>.~...6.9.7.P n e  .2.o.| ( F.' ;.d.H.g.S @.p.y.` | e. .o.g.o.g.H G W.I.W V j a.u.o.9.C.3.8.9.>.>.J.L.R.M.V.7.G S.7.) 8.",
"2.X.Z.L.S.V.s.u.>.7.o.9.h.D.{ 9.+.9.I.[ B.9.N.S.M.>.V B 8.B.B.q.u.0.S 2.o.` u.N.h S  .n z [ <.a.+.m.d.5.6.%.S.+.S  .9.[ E Y.u.+.5.2.7.i.J.8.p.5 0...y...7.e.s.;.+.@.) n @.4.C.@.4.o.e._ ) p.8.4.3.p.X.7.n P u.k.;. .a...g.2.) >.7.:.o.} ..o.V.L C.7.| ;.W.a.C.H :...X.[ N.C.9.K.G.4.o.H | S n ) N.a.S._ o.@.e./ +.u.P 6.G P a.h.z.>.q.+.u.c.T.y.l.S P.q.[ 0.4.3.s.H >.+.L / 7.=._ 9.W.i.W.9.7.N.>.6.o.u.p.g...V.9. .9.u.6.H.2.o.e.e f.| H.o.7.7 9.o.W.i.G 7.I.9.y.V +.9.S.F.m.Z  .:.S N.s z.' o.8.+.S y.d.9.l S.L.! 6.:.W.+.9.+.",
"8.o.a.S.Q.9.| 4.B.y.y.6.S.W.0.9.| 7...:.C.A.S.m.i.H.L X.( X.o.N.F.} ~ 0.| 3.a.V.R.b._ 9.e.( W.o.{ ..' ) >.y ~.| 9 3.J.L Z >.7.u.o.f.m >. .o.j.S.s.9.N.F | H X.3. .6.W S  .[ ..{ | r.u.d.u.P 4.8.o.o.P >.( m.V M.7.'  .%.p.W.F.2.o.4.Z y.9.u.S...} _ u.9.:.,.S.b.0.c 9.G i p.9.%.,.y.o.7.p.S.G.N.N.C.A.( o.6.4.C.o.9.9.5.@.>.S u.V.>.[ o.+.y.N.G.+.L ~.B :.d.{ E.y.X.u.7.+.M D.C.X.H J.q.D.o.Z N.H +.u.+.7.C.' X.+.o.X.N.N.1.7.3.K d.8...R * 8 S.N.Z { z.J.F n.K.H ;.( T T.S.P.X.g.{ h.W .. .s.f.7.H Q.o.9.7.i.{ E.7.5.:.H.G.y.9.",
"g.9.D b.C.9.+.6.B.o.7.) G N.9.9.o.6.P.:.Y.V.:.>.u.X.g.L.I.N.q.>.:.d.6.o.p. .W.S.S.w.;.4.:.V n X.9.f.:.+.S i.g 9.] y.o.o.u._ S L.@.o.3.O.@.o.h.N.L.X.} S ..u.{  .o.C m 7.9.S H.*.p.y.5.g.4.9.d.9.@.e.o.o.S w.V ' P H.y.J.m F +.N.I P u.i.y.:.S.n | L i.;.>.+.L.2.3.J.;.G %.} .._ i.%.o.7.e.G.A.C.S.S.G.K y.6.I o.>.+.<.6.B.y.+.C.<.C.Y.w.S :.( Q.} H S.S 8.H ;.%.y.y.F F y.o.' X.:.i :.+.I.' +.+.+.u.X.3.9.V.S H T.4.2.W / ~.e.K.u.[ +.H B.x h.j ` ..Z u.g.u.F ' ( G 3.$.T.F.W.+.C.x X.7 G o.i.X.E...M.6.o.b.f.G 7.+.7.C.h.u.+.+.",
"5.7.O.o.Z.e.D.>.C.G.p.S.D.3.| 8.@.+.P :.<.i.o.D.7.9._ | 9.O._ [ ~.p.o.J.( M I.E.a.G.) P 9.7.7.I.o.{ } 7.~ [ ..u.v.[ 7.o.7.| +.F S.9. .7.6.V C.&. .6.p.0.d.y.H ~ p.y.2.{ l.H 5 o.P u.u.o.X.u.G +.7.+.F.f ;.X.S [ 3.a.9.' a.P +.L.o...d.o.9.I.E.S.} 6.a.i.y.;.X.d.y.d.R.m D.W.V 7.G X.p.X.+.p.G.S.S.S.S.X.u.u.K 7.x 9.i.9.C.L.( i.D.S.V W a.e.Z n y.X.B { >.3.n V S.>.p.<.o.u.h e.S ~ ( 9.+.9.>.j.L.7.>.B.+.G.H.' ' h...D K N g ' W.. e 0 G.q.# 3 Q.A.V ) i y G +.A { 6.+.n ! A.p.I.*.H X.9.3.X.C.2.C +.H.u.u G...i.7.Q.B.+.y.9.} ",
"p.h.z.G.C.7.3.p.D.C.e.C.O.p.+.9.C. .C.@.F.o.6.6.{ ) m { S v >.W.3 :.{ N.z.;.:.a.I.2.S u.D L o.~ B.>.3.6.Z +.9.j.= R.B.3.e.u.O.i.Z.W.h.H K.} T.J.;.6.o.8.p.S X.' %.i.>.m } N.y.3.o.+.>.6.7...+.7.I P z.e.:.7.X. .L p.X.7.9.5.H >.o.7.x m 8.u.;.V.+.P @._ B.` 7.y.S.B.C.j.7.7.o.' d.D H J.| z.C.+.3.G.S.3.;.e.L @.P ` X.r.L.X._ S H G.C.O.e.o.7.S G 8.~ 7.:. .|  .H.Z :.P.O.@.7.y.A a.X.u.9.a.;.N | ~.z.o.@.y.B o.7.9.B.| f.H +. .h I.2.m } d. .r.* h j 7.p.d.X.u.p.G.O.B.6.+.2.i. .9.7.4.9.Z d.2.H h.G Y.X.Z L.3.+.9. .!.J.L.S.S.",
"L.S.7.L 8.7.i.{ i.C.2.p.P.F.i.D.y.:.+.N.b.z.p.X.o.~ ..H.o.>.| H d.7.z G !.o.8.o.o.7.o.6.q.P.n H.o.a.8 _ f.2.7.o.) V.P.[ ~ +.7.N.N.] N N.i.4.9.{ D.} Z _ G | o.n p.R.8.B 3.K P | d.H { 3.7.e.9.9.@.H 3.o.4.o.2.m.| o.p.1.9.5.o.9.;.>.B 9.| N C.V.{ o.B G | o.o.:.m 9.9.x L.9.8.| 9.7.7.m 5.C.P.H <.S.;. .;.e.7.6.I v >.3.2.m H 9.o.+.7.p.V ..X.u.[ ;.+...a.9.y.q.7.a.u.e.<.L _ p.i.[ ;.+.|  .) 9...:.H p.L.S.9...S.p.7.' S u.X._ j.~ 0 C.D.q.1.C.h._ v B...4.i.z h 9.p. .C.o.+.( ~ m 7.4.o.H ..( y.n { <.o.s.7.>.8.0.H u.q X.V i.",
"H } @.+.u.S.S.( C.>.:.o.O.{ u...O.9.i.O.M.J.e.p.P G ,.g ' L X.S D.p.( J.z ;.u.f._ o.' B | O.4.G.;.H.Z J.A 9.X.X.g F.%.2.V.A.Z.D i.L.p.L._ q.D.| f.G.q.q.3.3.7.X.o.q.5.S u.3.e.| 3.J.6.} u.I q.+.P L u.H 4.6.=.6.m u.p.' H.:.F.V.B.O.6.} | [ x E.G.o.+.} H i.V ' 6.d.9.) $.' 7.:.P.R H H O.+.7.5.I.W.N.7.6.L.9.o.u.m [ [ N._ e.@.o.3...H.C.B.) L.q.p.:.<.e.h.i.9.9.>.+.2.z._ [ u.7.9.=.a.6.7.a.+.L L 7.L u.` 2...O.y.>.F J.z b.( m  .i. .i.o.W L._ K I.$ G.Z w. .) +.J.B.y.+.~ p.9.n e B g 7._ ( g.C.7.a.H.z.s.7.i.X.u.a.7.F...+.",
"+.@.i.W.+.R.G.i.<.u.3.! S j.>.>...e.2.i.) W l.X.>.S. .D.+.Z +.H.S.o.&.i.i.N S P ..o.+.i.3.5.P a.L.B.4.g ..| ..I.V.Q.8.Z [ g N.i.:.;.; m.=.W.9.+.<.2.i._ _ P 9.+.o.u.) 9.o.O.>.i >.| u.>.P u.4.9.s.+.>.o.7.) o.I._ :.} 9.2.L.m i.C.q.j._ P } +.>.u._ +.@.( D.| D 2.o.f.z.' ..H.H X.;...o.p.| +.2.y.y.u.o.7.:.3.7._ _ H.S.B.N.X.S 4.I a. .+.h.) 8.` } 9.o. .p.| 7.6.d.o.;.;.S.6.G 7.z.i.~ 6.r.o.4.o.o.u.3...:.S | | 3.e.h.u.X.) +.o.B K >.g z.0 @.:.h.g.y.b.d.B.p f.) S.j y.) | L u.+.5.9.y.J.p...o.O.;.V.q.P.X.+...f.;.2.X.J.9.7.",
"7.H  .;.s.e. .I.I.p.o. .J.A.>. .i._ e.y.7.7.e. .N.j 2.:.l.7.6.X.p.7.e.O.5._ m @.u.<.h.H o.;.o.4.3.W s.i ..+.x D.y.` Q.q.N.9.L.i.I.L.9.N O.C.L.:.S.O.9.Z j.s.>.h J.9.+.o.o.p.H B.P.o.F _ ) u.y.n p 9.@.y.2.) ;.9.p.>.o.9.o.G f.G.y.>.4.8.4.7.' ~ d.;.i.e.V.o.D m 9.S L S f.) >.@.m 2.6.( { >.u.+...X.7.>.o.+.u.X.;.O.3.q.i.g.G.n y.3.6._ p.+.p.N...9.e.o.:.%.q.( _ S.3.y.y.2.h.7.T.C.7.V.y.9.o...o.X.I.>.+.N.I.D.+.3.7.o.C.N.>.| | 7.+.+.( h.N K.9.i.:.&.G.Z S W I.w N z.| X.L +.| [ +.X.m z.H C.p.i.C.N o.9.m V.R.( u.~ ..p.o.J.",
"@.S.S.u.X.C.( B.7.+.p.h.+.F.6.i._ X.7.o.{  .9.9.s.8.3.L _ { +.e.X.d.4.7.z.e.o.p.7.4.i.X.X.Z.L 2.C.7.u S S ,.X.L.D...%.I.V.( U.a.S.S ) K e B.m.D.H.+.>. .} D } >.S.p.8.^ D.7.9.[ x L.f.L.S O.L H 0.p.G q.p.7...9.s.9.y.u.g.W.o.I.' i.y.H 4.o.o.V.H N i.H ;.2.Y.9.o.) o.o.S.u.H i.2.o.{ 7.7.} o.3.| 5.o.3.3.6.X.S S  .+.C.S. .i.S.W 7.5.8.u u.7.y.6.p.8.Y.@.V i.g.e.%.=...7.h.G u.G m.G.h.) H.| 7.6.%.;.N W.h.>.{ z.K B.p.N.S.2.3.3.Z o.( >.W z.9  ...V h.( D.;._ A.[ b.A.{ A o.a.o.K 7.o.C.3 W.K.g.m.J.N.=.G g.0 3 +.;.B X.W o.O.",
"[ C.7.| w.>.i.>.@.l.u.i.9.i.p.i.+.L | X.9.X...) ( n ,.p.D h.>.I H D d.X.o.L ) o.o.o.;.>.u A.S J.X.@.o.G i.o._ ;.L.| Z #.S.S.%.E.9.y.u.o.p.x Y.+.8.[ g.>.*.8.{ i.c.p.%.i.j.S ' C.y.S.R.:.R.o.7.6.o.7.o.( +.) 9.V.o.p...3.S.:...y.7.L.S.C.D 6.7.S.W.m >.K.' J.u.o.L 5.| _ 7.2.) ;.9.K X.o.9.u.+.' R.>.u.d.i.o...7.>.i.B.p.L.S.L.>.%...@.r.N.S _ @.| +.+.m.9.m.;.2.>.@.G B.7.9.| o.3.I 7.@.2.G.K._ ..;.h. .n &.p.o.;.` H B.N.O.[ ..6.z.G B.R.w o.2.6 ~.G O.J.S +.;.G.<.n _ +.z.} o.e.+.(  .:. .S >.<.j C.` 7.u.5.@.u.C.:.L :.>.N.C.",
"I.N.N z.+.+.N.P.C.9.J.H.D %.+.a.6.D.a.p.9.:.) <.h.o.e.z.N.} G K ..+.7.P [ J. .} ..M C.m a.7.P  .l.V +._ f.*.[ O.L.H.V C.i.=.;.R 7.>.o.7.5.B S.3.B.L.u.i.V.S +.| ) p.7.o.+.7.+.3.G 6.u.u.) 7.q.L 3.3.L _ o.7.:.q.o.<.o.L n W S.d.8.{ 7.K.} i.o.,.d.~ C.o.9.h +.C.7.o.6.R. .O.u.|  .7.+.{ X.7.N.u.} o.+.+.| +.:.9.o.h.>.C.:.C.i.H.+.+.s.7.e.H.p. .5.o.i.2.W.:.o.7.4.+.X.L o.I >.P +.3.C.H.[ [ N.K.%.+.0.L.q.) ) %.A.| 3.i.,.D.V.S.X.2.9.b. .u 2.B.=.=.L X.h.a.i.^ S e.I.;.x f Z 6.7.h.@.9.H.n V n p.i.@.t.7.6.L @.X.F.9.' k.L.:.L.",
"2.{ H ' a.( C.,.o.+.[ ) ( N.B.6.+.+.4.y.L.+.>.| O.7.7.i.u.m.+.7.n _ ' F.n u.( z.u.6.y.;. .4.4.a.X.4.z.F x / W.I.z  .D.e b.+.;.F.8.K 6.X.o.' 9.p.p.B.+.o.V.N.h.9.V u.D ..3.;.J.C.6.o.o.K @.g.o.u.3.7.4.i.} u.9.J.} A.W.u.o.p.8.a.X.D 7.u.i.~ _ u A.L.e h.>.( +.L._ 6.{ S.+.+.9.>.a. .p.+.y.i.[  .+.{ S.H.i.e.N.,.O.+.C.i.N.>.>.i.V <.i.L.7.d.N.H S 6.| 7.A.J.W 4.o.9.+.o.o...o.K o.@.S.,.N.S.G.C.o. .o.o.C.| N.s.,.8.F.K ..'  .{ b.>.i.n ~ ' j I...= P.| V ( p.) s.u 7 o.I.a.@.o.w u.A.C.u.[ S i.o.+.o.L | e.u.k.,.B.( +.u.C.;.;.",
"P C.b.} l.R.j K 7.C.+.R.;.>.7.O.y.N.N.p.C.a.i.X.+.9.T S _ 2.>.7.+.G p.u.t H.V 6.B o.D.6.m e.' ;.H o.i.o.9.:. .e T.j.G.1.N.4.3.~ ..} 4.i.8.i D.f.u.I.A p.u.d.A | ..>.p.7.9.p.p.C.I 9.| j.8.q.| 3.7.3.N.H +.) { >.q.y.N...5.4.7.) i.S.N.H ( X.P.f.) 7.z.g 9.u.) +.o.y.N.7...a.H W o.+.2.+.:.4.7.d.9.p.0.C.>.b.I. .i.9.l.G.N.a.L.C.' S F.i.| 9.z.i.9.i.H | 2.W.z.p.o...3.P.+.7.q.~.+.o.R.L.n i.C.S.7.+.3.6.) 3.0. . .| ` +.| S +.} q.W.| y V H.:.'  .y.! y.m W.+.i.>.2.G H.u L.7.X.2.N.<.A.C.i.7.p.i.9.| o.=.G m R i.h.>.@.l.G.V.i.",
"9.i. .( u.k.H.a.;.m.i.| 6.:.a.A.a.S.| { i.3.o.e.y.} ;.L.C.B.( } @.o.X.H >.V.W.u.V S  .9.p.6.f ..| X.a.+.S.S.Y.u.C x O.S O.u.o.) i.7.| o.o.9.D.X.| i.[ v.[ N.G u.6.+.S.7.p.9.*.D 3.8.8.[ P C.o.3.o.9.q.;.W.>.6.p.y.E.o.} 7.7.3.>.d.J.9.p.u.o.F ) C.n +.+.B.o.X.9.7.W +.H +.N.B P ;.F X.H L i.u. .O.K.9.B.X.S.H  .9.Z i...C.Y.9.y.} P.o.+.{ P y.p.I.b.f o.2.0.@.g.3.o.6.[ 7.6.b...i.;.y.+.p.7.V i.+.0.H F.8.| V.9.1.D.X.x u.o.:.O.2.A.L.~ J.0 u.m { +.;.>.&.;.q.( ;.W.J.;.m u.>.+.O.=.<.N.7.f.n G z.a.H.H 5 u.N.E W.I.C._ s.C.f.i.",
"L q.V.o./ H.+.H.p.y.+.X.L y.A.A.2.o.o.o.L 8.A _ e.) B.n.S.V. .a.e.6.N.L ! -.G.7.C ) Z z.m s.X.y.P +.O.X.i.S.F.2.S.G.S.;.z.L | G ( 7.B.i.4.7.=.u.J.a.+.I.D.3.H.+.F { C.H | L.o...H H +.6.o.<.3.7.q.+.W.m Y...V.+.9. .A I.I.L 9.N.9.N.X.7.i.h.N.d.9.[ p.p.p.{ 9.i.B V O.A.L.i.u.L o.9.X.e.H g.p.:.8.9.O.| i.2.' :.i J.,.s.:.i.9.h.9.M >.( 7.K e.+.q.I.6.d.x 5.D.y.P +.p.{ X.u.o.3.,.l.7._ T.7.S.P.+.A 4.~.d.B T.p.y.6.X.g.n ..F.X.9.[ E.> e.O.O...n P.  N.J.u H.m N.N.p.r.7.D 9 H.i./ L M R K.9.Z.S.C.h 7.g.R.q.{ E X.0 [ p F.N.m.",
"3.3.9.N.B.7.i.T._ y.7.6.7.@.2.N.f.3.o.5.g.B.A 7.>.Z ;.C.7.L +.) :.2.;.6...H C.L ;.y.H 7.6.u.o.+.z.o.A f.0.S.S.N.S.L.S.w.9.o.L H W 2.;.i.| y...N.i.C.7.N.8.b.S 9.7.@.o.8.X...p.N H.y.} o.8.0.8.8.d.9.~ ;.q.9.K.) 9.+.:.| X.~.h.o.V.C.7.| _ u.C.9.3.%.} >.F.X.d.J.u.9. .H m.F.9.q.@.+.| { e.+.L _ ..q.7.9.>.7.( 9.e.;.H._ ( | { r.L.C.p.N.X.p.I.I.) } 9.i.3.m.L.u.( F F.' P.C.8.o.X.B.z.X.9.7.o.u.B.p...U.y.>.q.R.I.i.h.N.o.:.{ I.7.>.[ 3.V.x ;.9.p.J.B.m X.1.~ n #.[ y.+.C.} ..6 C.o.n 1.7.n A.V.` D.x z o.$.u.o.e.9.5.>.9.C.e.m.",
"u.3.J.s.N.9.) _ J.3.C.o.+.a.e.+.y.i.y.o.6.9.7.o.L X.6.| C.1.7.&.X.( a. .3.7.R.R.I.+.7.m o.9.X...X. .S o.7.D.G.S.N.B.S.2.9.6.+.8.p.p.P.a.a.9.A.7.>.o.9.+.7.J.I.{ p.d.o.>.6.o.~ a.6.o.3.s.8.o.9.) O.[ K.5.H.i.;.' z.D q.6.7.m C.( i.i.[ 7.i Y.~.e.0.q.:...2...2.1.Z.W W.e.p.v i.y.J.9.3.9.d.7.6.V >.i.7.o.:.s.C.N ;.9.y.6.D.s.L.I.f.h. .+.;. .S.C.H i.7.| +.G.i.N.T  .H.G.;.u.C.6._ A.S.i.| 7.| +...r.B S.L.| o.o.%.9.b.J.7.L +.3.} e.s h.b.S.4 W } i.H.{ A.V.e.L | m 9.7.C.:.9.g.*  .G.G.z u & 7.n 7.W.S.J.i.Z H o.+.( @.<.%.I.4.",
"| n.>.B.d.p.9.8.o.@. .9.9.+.9.@.o.D.5.5.s.X.o.7.8.p.+.n !.{ +.9.a.H u.a.9.X.T S.i.-.i.C.+.+.:.9.7.{ 9.;.a.p.S.p.d.y.S.9.7.3.y.T.{ +.7...L.i.S.y.+.>.7.P @. .T.I.Z i.i.3.| o.4.n u.o.3.| 4.9.2.S.L.:.!.S Z.V.m >.2.x O...9.h.i.n { :.N.I.' 9.( 4 e.p.' } N.+.m.O.i <.i.:.F.p.) u.i.>.B q.N.O.V 7.7.| o.f.L D.3.F.P.+.| >.2.m.y.>.m.y.7.y.f.;.N.H.o.h.9.Z o. .S.<.o.y.9.o.' 7.L.u.N.S.L.o.+.B.o.:.8.6.{ +.!.P 3.0.K o.D !.4.A.L.p.H o.K ) ,.} | o.9.( 9.3 V.T.8.B.B.h.T.b.! V a.y.z 9.B.C.C.0 7.z o.' i.g j 0.F.I.%.9. .F N m N.e.",
",.p.6.7.B.j.g.3.3.o.e.y.T.a.1.S.d.' 9.3.x m +.9.~ | } J. .>.f.~ { X.a.| i.6.m  .P.C.<.n W.{ A e.+.S ;.5.H C.{ y.b.+.C.} )  .q.V.o.) p.N.>.f.m.a.o.L o.@.+.i.V :. .N.N.H F S 7.N.5.3.H 7.:.D.3.1._ B.A.T i.S.p.' :.L S g.+.1.%.>._ r.g.m n _ | 6.p.[ ] ( +.o.i.;.( 1.F.2.N.:.u.Y.9.L +.6.+.:.i.3.u.o.4.+.p.g.X.>.{ | 6.o.>.A.i.C.>.7.i.p._ +.V.X.s +.) q.| | +.F.7.6.o.R.>.:.6.h.W.B.+.y.I X.u.S u.6.} V.9.7.L p.D.e.o.Q.H b.1.7.) F 7.} N >.S b.i.H p.K.;.1.Q.s O.S.,.g F.7.j o.S.p.N.2.Z C.+.K.I.L.7.R.K.i.2.S.2.S 7.:.7.u.j H.",
"[ h.7.L.E.Q.a.u.4.>.) ( ) h i._ S.d.+.H ) p.S.2.O.X.2.>.b.N.X.d.C.2.q.U 9.O.>.%.e.y.<.e.D D._ Z o.~ T.u.N.w.C.9.N.y.+. .G S.S.9...8.} K 2.7.4.S.2.:.C.C.J.p.:.+.0.L.p.;.a.o.S.X...i.B.9.+.F.0.j.:. .V.D.V.:.9.N 8.<...9.a.5 O.a.e.P.C.W. .i.:.3. .S u.;.u.b.S.a.q.:.E.` } { ;.8.y.| +.>.i.l.9.o.D.y...F.e. .[ p.| +.} o.y.i.W.>.7.9.>.I.{ C._ >.C.X.V.u.p.H +.4.L 9.[ 9.;.+.N 2.Y.6.7.p.7.u.3.7.5.9.2.y.S.<...A.N.f.[ R.4./ L 7.3.} D.u.J.S.8.| >.u.o.N.D.` V.S.,.W !.d.B.T.U 9.J.2.d.N.| m.o.D N v.!.2.:.S x g.D :.N.K :.7._ { ",
"y.<.V.,.A.T.H.u.9.C.2.C.y.u.S.O.[ 9.P A.S.@.h.W.L.T.b.V O.+.9.>.C.>.N.9.9.G N 1.L.g } 2.x w.s.I y.q G.J.x :.@.j ~.h. .d.d.H >.9.8.6.9.g.:.:.a.7.I. .*.<.o.4.6.3.8.N.a.z.u.H S.8.q.X.7.r.) O.| N.+.N.L.N.V.'  .N v g.H.N z.D.[ J.:.Q.A.W.C.7.S.) u.S +.B ;.%.>.~.:.S.V.J.~ R.9.6._ { y.9.N.i.C.a.m.C.p.2.9._ H.N 7.y.V L N.C.T.+.9.9.G | 7.N.L d.C.+.2.7.i.p.o.u.2.u.3.3.+.f.3.o.U.y.5. .i.+.3.6.6.N.p.( i.u.H N.y.B.i.i.A.e.5.| { S F.G A.N.+.:.K  .+.m I.X.' ;.a.>.:.e.B W.>.i.z i.[ y.S 7.9.y K m G.C.o.p.+.T.z C.X.P 8.A M ' ",
"W.,.%.D. .W.;.S.W  .[ J.7.L.E.R.%.y.$.b.7.u.6.H [ _ u.h | a.| 9.L.i.+.I.C.B.8._ D.p.S +.>.V e.k.{ <.S.L.B u.u.~ H.I.;.P +.O.X.a.3.o.K *.p.:.7.7.X.| | K 6.3.o.s.| 3.X.} e.L.1.d.D.~ :.r.d J.5.y.) L.S.Q.W.T.S 3.B w h.] L G F n *.%.U.b.` p.m...9.V D.d.H i.p.2.N.V.q.;.+.n 8.L 7.3.y.h.>.p.B.6. .+.O.X.4.;.T.N C.6.4.F A.-.%.o.7.y.} 6.o.H.@.2.V.q.;.q.~ | +.3.6.6.u.>.C.S.<.o.u.N h.7.| 7.9.7.X.L.X.f.N.B.j.P 3.F.S.s._ H.| 7.>.K i.K.v L Z q. .9.:.y.J.G G u.K ..9.G D 2.*.S. .g.W.I.2._ T.9.{ 7.O.G.i.o.o.2.>.L.) d.u.J.:.C.",
"B 3.3.o.) 2.( ` } >.o.7.+.7.3.4.K.p.6.N N.| X.{ o.d.h.=.| O.9.+.o.H m.O.s.y.X.o.V >.( _ V I.z m <.+.T.H 0 J.g _ ( X.H.2.) } ) } ..{ 9.K.' e.D 6.D.7.| 9.7.g.7. .B R.o.o.7.2.>.o.7.7.) 3.9.Z o.9.8.N V.;.T.S.H.3.J.:.S.N.7.+.D.o.L | o.V r _ z ` 9.' P.m ( y.d.y.8.F i.b.C.a.8.} e.e.| 6.9.7.7.>.~ L +.y.9.i.:.i.M C.D L p.'  .7.9.9.f.8.7.4.y.u.i._ L.h.I.3.e.g.u.H u.C.C.2.N.P.s.o.B J.e.P 3.o.G O.D.9.u.;.a.o.5.!.N.S.G b.| | r.} } _ 8.H h +.7.9.o.H 1.z.{ X.H u.V  .m.V.^ B q T.o.T.[ j.~ ( 2.G.i.n y.C.` [ } A.n V B [ -.l ",
"g.0.o.} o.9.G 6.C p.H.>.p.>.H 0 ' D.8.X.N.C.p.m.p.G.L q.>.h.7.F.o.7.B.g E.;.e.S O.u.o.C.X.B  .C.i.i.N.S.S.%.I.z S ' e.g.D 0 H C.4.} 6.N.V.9.7.6.i.H o.| ..| h.J.+.N N.4.6.o.n o.~ ..>.L s.J.8.d.p.e ( &.S.S f u.j.F.z N.} o...X.) 9...+.S ( 9.X.S.9.O.7.H.[ C.y.9.+.9.*.| +.>.P 3.K Z q.7.A 4.N } V q.6.<.O.L h.C.+.o.=.C.f.o.K 9.9.0.u.p.7.I.d.F.L.C.A.:.O.h.p.a.;._ e.d.:.C.T.T.3.C.} g J.+.h.+.2.S.u.o.i.p.N.b.H.;.>.2.9.J.g.o.9.+.~ S v.#.o.9.6.I.i.=.G.F.X.9.L 7.h.F.K.S.i.>.3 ;.6.9.} I.@ M.9.) B.Z. .:.9.x V I.O.:.I.G.{ ",
" .7.o...0.) X.*.d.H.,.7.+.X.K.G 6.,.H.;.N.c.Y.7.O.o.( 2.>.+.A.i.| | C.u.< :.2. .a.3.7.| 6.z.n #.I.e.z.S.&.m f D.9.i V.8._ p.' a _ u.K X.9.8.3.8.K 6.N C.a.j.:.+.9.C.j G ~  .S L R.X.8.o.} +.} A.q.N.~ 9.~.m 9.2.L...( N.j h.' R H h.A 8._ p.o.:.V. .B.B m.+.N.P.H.p.B.o.9...9.9.o.a.;.>.B.z.o.>.y.h.3 ' ( w.u.X.9.d.' S.L.a.e.P 7.7.| 7.g.9.9.7.y.u.J.F.R.q.8.h.h.7.6.F.T.W.-.X.:.q.:.g.L n C.D.p.L.;.7.G.B.a.C.N.C.o.%.V o.X.+.3.8.V X.8.5.} A.+.7.7.8.P ) V.J.6.F.q.i.J.S V.2.F.z p.9.g.L._ >.N.E.K.o.N.2.+.g.{ 5.I.s T.T.o.J.",
"+.e >.L.9.h.6.7.) o. ._ z.| I.u.O.a.) ] h.C.n y.H.p.:.z.9.o.N.9.o.u.H u.6.&.>.T | 3.3.g.;.B +.J.W D j W.L.N.8.9.y.3.y h.L.{ x  .I.u.X.9.p.o.L.p.9.C.S } H p.C.C.9.o.i.H.p.d.X.S o.n g.X.7.H.Y.S.F.L.P.` =.3.>.) C.C.K p.:.} J.i.9.+.W. .| | ..2.m.:.W.n A.+.>.| [ C.3.p.y.9.>.p.u.u.C.y.V V.f.4.2.X.I.p.i.u.G.( A.y.G  .B.I.L.u.H I.7.7.9.:.W.F.3.3.D { 3.' i.Q.W.+.q.i.i.V.2.;.n.S.D.;.z.y.q.i / L.o.y.9.L. .i.V.9.S S.e.7.+.o.) P.o.+.i.F.3.e T.A.,.' ( >.&.A.b.W i...p.N.+.S.g.;.b.9.p.D.I.s V 6 N.u.i.[ s D.| 4.g.9 T.2.A f.",
"S.) s.! H.F i.7.| L @.u. .i.7.p.a.H ;.e.+.@.@.i.Y.7.G.E.' ) O.;.o.} 8...+.9.7.F X.h...7.{ 7.X.B [ 5 y.u.7.N.j ` A 0.b.S I.<.B.d :.' S.2.H. .{ 3.e.h.9.o.9.7.p.S.o.o.6.q.S.i.g.6.e.p.{ q.i.[ N.A.I.V ;.m } J.S G A.p.5 P.N.| A J.>.| } B G S +.9.#. .S.;.N.h.[ P 3.N.9.s.7.X.+.@.A.V.;.] 5.9.) u.7...+.y.W ;.J.V Q.e.2.i.u g p.H.H O.+.i.p._ o.o.3.3.o.G 9.:.N.L.L.b.[ 0.{ s.7.9.+.N.} ;.:.&.d.' S.;.9.L.G.H.C.S.N.4.7.X.R.b.8.4.K N d.9... .O.| 3.d.I.p.i.:.7.[ o.*.7.[ H d.p. .3.D.W.9.q.7.u.J.s.:.p <.J.L.m ....N.) | 5 7.' i.",
"t.{ .. .S.2.a.u.p. .h.( 7.2.) 4.3. .| i.2.G Y.A.S._ T.G.S.N.( N >.e.Q.o.4.| 9.C.+.0.6.N.R.g.8.3.L u ..6 p.~ f.2.B.g.8 ..y.2.9.o.B X.O.@. .N J.V.Z 6.o.6.X.p.C.C.5.8.o.i.2.i.| +.+.9.M 6.p.<.2.X.i p.d.I.F n z.( ` h.9.[ h.V.S :.y.i.f.{ C.W.o.N.` ..[ y E.6.7.| | 9.F.0.2.8.u.>.p.[ q.D.O.C.i.X.D._ 7.H.y.>.( I.S 7.l.N.a.( 2.S.+.>.p.g.9.9.o.6.8.| g.6.F B.,.9...p.i...V.4.T S.S.F.9.s 1...h.z.h.9.B.2.( ( B.C.H.9.u.S.V.2.S.G.9...+.8.;.H H.5.{ H.x V.S | f | | o.8.N.h.8.+.8.8. .i B h.7.H ' i.u.{ n V.Q.p.,.} V.o.>...S +...",
"7. .E.S.V.S.:.{ L 4.e.o.e.D +.y.d.{ H.X.:.7.T.F._ y.S.X.S i.*.' ..y.T.a.3.o.o.V...S A.W.T S.d.o.( o._ a.H.W %.b.2.>.R.7.+.S.6.p.L d.O. .i.N. .:.s.y.+.f.X.C.B.| ..o.3.| P.9.7.S ..2.X.:...7.C.9.7.i ( 7.| x.%.x 9.H B y.;.p.s >.G } ..S u ;.m 9.' o.) e C.%.C.e.o.m ~ P.i.4.>.S.N.<.A.I.@.L.d.X.+.n @.+.g.9.) 2.X.m 3.q.y.D V.C.o.o.+.T.a.i.>.u.8.8.2.r.+.P.3.9.S.( i.:.9.S.S.} A v.V.9.H C.S.V.C.y.o.+.9.N.J.j i.C.C.H *.y.H.J.o...| I +.[ ..2.<.b.3.N.>.H.I.8.1.d.0.0.B.p.8.o.6.F.L.p.S.6.e.o._ e.X.7.( G.I.S +.9.{ K | b. .p.",
";.N { i.N.p.g.9.a.' ) L.C._ ;.>.<.J. .V.+.:.O.9.6.V.o.3.} m U.+. .X.) R.9.} ( o.P.) S.T e.u.W.9.| +.5.8.P S.3 P.m.P.e 2.p.;.f.e.9.5.5.H.~.[ i...e.u.i.3.H i.S.e.5.I 7.7.C.i.u.8.o.' 9.7.9.' b.%.j N | D e.z.<.q.3.L.X.9.9 %.9.m K g.9.>.L.9. .y.N.~ H.W  .p.6.) J.9.p.S.u.9.*.q.] u._ j V.w.a.e.} 5.L 7._ S.G.C.( O.p.D. .>.T.9...o.B 2.9.D.h.p.0.0.9.:.| K ..9. .J.i.+.8.S.' F.F.S.B.o.p.L.;.p.E.z.u.o.o.' o.p.G g D.*.H a.A.Y.8.>.o.o.y.| 8.y.>.o...2.S.W.~.( | 0.2.N.o.9.o.f.6.i.p.j g ;.6.d.o.g.o.d.G m.A.>.I.C.f.o.m ) 7.>.",
"| 7.I.S.` B.V.q.4.( H o.W O.( i.L.E.V b. .S G p._ E.o.a.s ;.:.+.+.N.I...+.Q.[ p.i.:.[ G S.S.A.9.5.9.f.u H +.} W.I.g H.%.i.L K.J.1.L %.A.R.E.7.N.b.3.e.{ r.X.p.7.+.8.9.X.S.i.9.{ p.o.:.A.W.2.n.6. .L F X.) f.H.3.J.I.S. .} +.H.f.6.L +.S B C :.5.S...p.S >.d.+.9.9.9.d.8._ S i.2.+.e.e.7.Z :.5.C.I X.( ;.i.m V z.[ x >.9.K.o.S.+.+.N.7.9.:.9.>.o.y.u.} 7.9.K 8.3.+.E.a.7.7.F.{ 7.P >.p...9.:.T.S.p.>.L I 9.4.9.e.5.s.~ g.2.| 7.A.g.3.8.I 7.7.5.d.L.6.i.7.0 S.F.3.u.<.:.p.8.8.H u.h.A.q.V.C.z ~.P.f.7.+.X.H.V Y.I.2.7.i...u 6.q.( ",
"u.7.N b.I.u.9.<.2.+.+.W >.u.d.9.D.;.+._ ( O.6.K.p.i.) o.{ I.+.j.L 6.y.N.` 9.*.G +.N q ' A.O.O.N.u.+.n ~ p.G ' d.C.;.>.+.l D G.+.S i.p.A.h 9.G L.>.i.o...5.+.S.D.8.8.{ m ;.} u.6.u. .) m B v W.F._ o...o.x } 2.e.} A 9.>.B.P.x 9.s >.7.K.q.S G h.G.%.+.Z +. .+.7.3.g._ o.y.m F +.{ 9.7.h.5.o.<.H y.i.A.y.2.S.S.3.B.~ d.( ) B L.u.i.9.} o.9.h.S.T.I.7.D.d.D...q.7...1.[ S E.S.0.I.u.>.+...9.y.1.F.7.o.u.7.H.o.K S.9.Q.+.N.p.S.} &.W.8.3.W.8.d.) 6.p.X...X.L D.S 6.;.i.>.x } ) C.*.J.d.B.P.H.i.R ' %.T.=.u.) w.G F.E.S C... .&.+.8.",
"F.B 2.) 2./ ' [ o.D 2.X.z.6.N.o.>.u.>.i.g.d.d.7.o.A.z.o.| W.} ~ o.M H o.B.9.P i.) 9.` s h.+.>.;.3.9...| 9.s.S.' o z.q.R.C.Q.R.N.C.S.&. .p.) 2.y.M 7.4.o.N.m S N.O.9.;.d.u.:.+.o.{  .o.o.9.D.A S S 7.o.g.9.' 7.o.B.f.S 3.W F.I.N 6 i.Z L.J.( o.P ~.2.P ~ H.h.) P p.:.>.S.S.H.G | o.o._ ( 9.e.Z @.) o.S | f.s.W.2.{ F B.e.H.m q.L y.P.X.9.S 3.8...{ ( y.B j.i.O.u.6.9.o.| a.9.X.>.;.7...7.K 8.g W.D.i.o.7.o.9.+.7.| V.i.+.) H. .H Q.W.B...E.<.&.8.C V.( #.%.h.>.h.V.:.D.6.g.9.i.i.[ K.H.L d.p.p.S W N.W.q.u.8.;.Z u.H C.N J.A ' h ",
"e.O.G.( m.a./ | O._ S ;.} 7.L D C.p.;.C.n ( z 2.B.g.S.V. .C...L.H.o.p.+.9.{ | u.h.} } r P.9...| +.;.g.j. .x H.S.V.5 S.L.( V.! B.L.:.S.o.y.>.T.J.o.o.o.u.P...N.S V.u.i.y.N.j.o.9.q.S b.V...g.| C G Z Z m s.' u.8.w ~.L d.K.S [ ` B.w u.d.e J.N.2. .+.z.) N.W.e.i.F.+.J.B.9.Z ..K D S.P.C.H 9.o.@.H.2.N.) d.o.@.o.*.L.+.y.p.>.;.e.9.7.X.} q...~ ..>.3.u.a.G 5.:.D.| { I 4.| e.B 6.o.X.d.q.o.p. .1.G.F.p.g.I o.6.L o.b.' y.O.S.Q.L %.v.c.L.q.d.9.F +.C.f.C.>.' %.3.| Q.o.2.9.+.:.p.:.N.f.o.@.o.;.9.:.2.S.Q.H.o.g z.( h.N W.;.H.%.e.",
"s.f.7.4.j @.+.>.d.( O.@.X.( V S ) | O...4.+.p.q.:.L.` o.o.) _ L.P.4.Z G z _ 4.H 9.X.9._  .' f G [ ' C.o.X.n.1 K.I.W.& +.b.A.} J.u.C J.T.>.i.o...7.o.o.u.+.7.o.i.B.9...1.S.i.F i.<.:.Q. .+.~ 6.L I.+.3.| e P.| A q j.B +.) y.u.s p.;.K B 9. .I.y.+.2.6.y.O.S G L K.C 9.D.+.+.o.>.L.a.q.i.+._ ' r.u.e...o.o.g.9.{ e.+.A o.o.*.C.q.;.6...i.L I.F.N.S.i.+.J.p.3.| 9.6.G.6.+.+.@.9.o.} y.i.p.9. .s i.A.Z.F.C.C.F.s.p.H ;.9.4.+.( ;.f.o.6.| q.~.+.C.} ) y.8.y.>.6.m +.e.;.p...X.L.y.o.B.C.L.g.o.o.6.C.*.S.S.~.X.p.y. .>.H.~.X.X.S G.e.",
"X._ @._ 2.O.[ C.R.9.i.;.) +. .2.@.| 4.L.H.9.5.9. .[ 3.y.4.>.7.( C.o.{ D o.a.V L ..8.[ +. .7.h.p.B C.>.5.C J.9.X / ~.b.B.Y.W V u.| >.o.L.7.8.6.:.4.7.@.S.i.o.4.u.C ..| _ A.7...D.~ S.S.E.<.9.u.i...9.G h.i.9.g N.j c.e g.x 9.+.J.- I.W.Q.4 _ m H ) !.y.O. .e.{ d.0.( ' 8.u.) d i.6.+.S.o.P o.O.H n >.X.V.V ] P.| G ) [ 9.e.9.T.X.o.o.9...i.5.p.T.S.V.:.o.p.3.g.H 5.C.{ e.H ( 2.>.e.L H | A ..H.+.:.,.i.S ..S 2.H.o.S.N.9. .G.x S. .8.o.Q.2.s.C.O.m b.| s ;.N.u.>.>.i.7.:.p.F I...9.>.V.X.{ w.V C.*.U.Q.N.h.:.o.9.4.n b.M...( >.i.",
"h.;.J.X.H h.h...L.@.b.;.h.N.i.' ) X.:.W.E.T.e.@.7.( 7.7.3.7.o.i.6.6.C.m e.o.i._ ) +.N._ X.8.;.W p.N p.9.I.z.6.K W._ O E.R <.i.K 9.} >.+.A.N.z.@.o.@.O.' y.o.D.u.u.h.y.7.[ g.N.7. . .D.Q.J.B. .9.i...+.K.Z e.i.u p.W j.} 7.L 7...x L.;.C.P.S.H D. .N O.K X.| 3.R W p.[ o.S R.9.e.;.;.i.u.p.2.6.S.u.N.+.;.u.M D.H _ Z F.| :.L.+.2.3.C.K a.o.3.D.n.F.N.4.9.8.i.U.N.h.0.X.m.V L.7.>.y.y.5.o.6.p.a.p.g.) S +...+.o.2.A.;.] 2.i.D.a.N.h.} S.S.i.u.a.f.N.e...N.L C.| C.p.9.C.N.B.4.3.L o.m 7...N.W.H._ S S.U.Q.Y.L ;.P V ( S.A.M...V m ",
"p.n w.N O.' o.y.i.;.i.@.{ _ S :.y.7.2.' 2.M.7.o.G 9.! u.J.9.2.+.p.y.+.} @.4.7.@.*...p.H S ' 2.X.+.u.4 :.N.~ v = 7.p.9.9.W.V.+.H y.B.H.V.U.G.V.>.P L +.L 7.9.R.o.9.!.g.g.:.L.:.{ D.{ 1.^ ~.m 7.X.5.f.d.y.7.S.n j ' N.9.) 8.7.| 9.6.B >.7. .&.:.P X.H u.V.C.L.V X.y.p.j C.i.9.C.a.S.o. .+.5._ 7.9.7.>.6.7.9. .) @.>.5.z.] 9.{ y.p.>.{ 6.i.3.8.g.0.H.S.} :.+.V.F.T.P.3.9.9.D.G C.g.} n.g.3.} { 9.X.2.:.9.9.V.9.| ( 2. .y.( u.7.>.N.L.6.2.Q.D.p.u.5.i.>.X.D.B.m >.] C.+.m O.P.L.7.L J.X.5.J.S n.T.g.;.L.V.T.Q.p.L H 3._ B S i.m J.z ",
"e.d.f.u.6.W...} <.S.p.y.7.7.@._ @.M >.S.S.O.} a.u.9. .+.p.h.a.7.o.3.8.+.K o.| W V S o.*. .` o.) } +...~ N.F g 9.x h N 7.*.I.R.;.N.%.<.N.Y.%.y.W :.J.6.4.4.9. .3.+.z _ !.2.C.} P V.q.6.S.S.~.~.+.;.' n +. .p.L.g i X.f.+.{ 9.y.9.u. .7 B.7.C.X.C.I +._ +.d.e.W.C.N.L.H.I._ [ g O.2.C.9.5.Z W n X.o.o.;.+.2.;.[ | ..i.o.7.N. .9.) D.9.7.S 6.B.s.9.q.D.%.+.D.;.p.!.V.o...0.D.V.b.9.6.8.{ q.3.3.P 9.6.9.9.X.9.@.9.R ( ) | ;.y.o.G.Q.C.+.2.Q.C.S.2.P.u.K _ j.H O.J.y...q.N.S ` N.6.} P e.X.V.p.,.S.~.Y.V.W.V a._ 2.~.I.l.W.W.g.P.i ] ",
"N @.-.m.o.H +. .C.i.i.C.@.i.u.o.X. .=.7.q.o.4.Z.G.y.7.o.+.H i.8.| 6.+.L p.5.| >.h.N } 2.9.+.~ ) S m 9 O.i.q.y.o.G u.M H.H 9.) A.Z.G.~.N.S.L.o.Q.:.D.o.D.7.o.o.f.y.8.} S ,.u.9.i.V.p.H #.<.S.;.X.u.V.S s.[ N.+.L.i +.F.y.} 8 h.D 2.;.+.u.y.N.i.4.6.| u.+.9.0 4.L G N u.;.S.u.2.N.;.+.+.+.>.2.{ g...y.I.[ H :.e.@.B.| o.o.+.o.F.y...9.9.) K 7.0.4.q.F.*.V.o...2.i.8.3.L.g.V.I.9.` u.H Z u.| D.[ 8.o.P u.9.i.h.6.L.H p.i.u.u.o.S.&.U.9.%.2.!.;.+.9.7.3.o.7.d.| b.9.{ W 9.G 8...5.o.7.9.H 9.i.:.V.&.S.,.N.g.V q.n C.>.i.g.f.o.h.f.a."
};
