/* XPM */
static char *map6[] = {
/* columns rows colors chars-per-pixel */
"256 256 256 2 ",
"   c #36281D",
".  c #2C221A",
"X  c #392C23",
"o  c #3C3029",
"O  c #221914",
"+  c #4C3A2D",
"@  c #463528",
"#  c #533D2B",
"$  c #543C28",
"%  c #4B3C32",
"&  c #513E32",
"*  c #412F21",
"=  c #422F1F",
"-  c #5B432D",
";  c #56402D",
":  c #554134",
">  c #5C4533",
",  c #5B4639",
"<  c #5D493C",
"1  c #56453A",
"2  c #4E4239",
"3  c #644A34",
"4  c #6A4E35",
"5  c #634C3C",
"6  c #664C37",
"7  c #6C523C",
"8  c #6C5038",
"9  c #73553B",
"0  c #7B5A3E",
"q  c #76573C",
"w  c #61472F",
"e  c #5B4C42",
"r  c #5C4F48",
"t  c #644E41",
"y  c #684F41",
"u  c #655144",
"i  c #6C5444",
"p  c #6A574A",
"a  c #715644",
"s  c #755944",
"d  c #7C5D43",
"f  c #745B4B",
"g  c #7A5E4C",
"h  c #715748",
"j  c #745E51",
"k  c #6C5C52",
"l  c #7D614D",
"z  c #7C6048",
"x  c #7C6352",
"c  c #796558",
"v  c #6F6258",
"b  c #7C6C62",
"n  c #815E3E",
"m  c #85603F",
"M  c #815F41",
"N  c #805F48",
"B  c #846244",
"V  c #8A6545",
"C  c #8E6846",
"Z  c #83644B",
"A  c #8A674A",
"S  c #8D6A4C",
"D  c #86684E",
"F  c #936D4B",
"G  c #946C48",
"H  c #9B724D",
"J  c #96704E",
"K  c #836553",
"L  c #856955",
"P  c #8B6B54",
"I  c #846B5B",
"U  c #8B6D5A",
"Y  c #846755",
"T  c #926E52",
"R  c #906F5A",
"E  c #8D715C",
"W  c #8D7057",
"Q  c #957154",
"!  c #9C7553",
"~  c #94735C",
"^  c #9B765A",
"/  c #9D795C",
"(  c #9D7857",
")  c #A2764E",
"_  c #A17752",
"`  c #A47A54",
"'  c #AA7D55",
"]  c #A47C5B",
"[  c #A97E5A",
"{  c #B07F54",
"}  c #856E61",
"|  c #8C7363",
" . c #897568",
".. c #937563",
"X. c #957964",
"o. c #9C7B64",
"O. c #947B6B",
"+. c #9B7D6A",
"@. c #987662",
"#. c #927E71",
"$. c #A37E63",
"%. c #A37F67",
"&. c #AE8057",
"*. c #AD815C",
"=. c #A6805E",
"-. c #B18256",
";. c #B3855B",
":. c #B9875B",
">. c #B6885E",
",. c #BC8A5D",
"<. c #B88456",
"1. c #9D816C",
"2. c #9F8167",
"3. c #9D8372",
"4. c #998476",
"5. c #A58164",
"6. c #AC8463",
"7. c #A4836B",
"8. c #AB866B",
"9. c #AD8A6C",
"0. c #AC8967",
"q. c #B28662",
"w. c #B48964",
"e. c #BC8C63",
"r. c #B48C6B",
"t. c #BA8E6A",
"y. c #B18768",
"u. c #BE9166",
"i. c #BC926C",
"p. c #B7926D",
"a. c #A38573",
"s. c #AC8B74",
"d. c #AB8D7A",
"f. c #A58977",
"g. c #B28E72",
"h. c #B38E77",
"j. c #AE917C",
"k. c #B59274",
"l. c #BB9473",
"z. c #B4937B",
"x. c #BB967B",
"c. c #BD997B",
"v. c #BC9A76",
"b. c #BDA27C",
"n. c #C18E5F",
"m. c #C5905F",
"M. c #C18F61",
"N. c #C08F69",
"B. c #C49263",
"V. c #CA9565",
"C. c #CE9867",
"Z. c #C3956B",
"A. c #CA9669",
"S. c #C5996D",
"D. c #CC9A6C",
"F. c #D19967",
"G. c #D39C6A",
"H. c #D89F6B",
"J. c #D29865",
"K. c #C29672",
"L. c #C49A73",
"P. c #CB9D73",
"I. c #C49C7B",
"U. c #CA9E7A",
"Y. c #C2977A",
"T. c #D29E72",
"R. c #D5A16E",
"E. c #DBA26D",
"W. c #CDA174",
"Q. c #CCA37B",
"!. c #C8A57B",
"~. c #D3A374",
"^. c #DBA573",
"/. c #DCA976",
"(. c #D3A57B",
"). c #D5AA7C",
"_. c #DBAC7C",
"`. c #D8A779",
"'. c #DDB17E",
"]. c #CFA06F",
"[. c #E1A56E",
"{. c #E2A671",
"}. c #E4AA74",
"|. c #EAAD75",
" X c #E2AD7B",
".X c #EAAE79",
"XX c #E4B17D",
"oX c #EBB37C",
"OX c #EEB077",
"+X c #F3B47A",
"@X c #FCBA7D",
"#X c #F5B57A",
"$X c #F1AF77",
"%X c #AD9383",
"&X c #BB9A84",
"*X c #B79885",
"=X c #A58E81",
"-X c #BDA28F",
";X c #C39E83",
":X c #CCA483",
">X c #C7A588",
",X c #D5AB83",
"<X c #DBAD83",
"1X c #D4AC8B",
"2X c #D5A985",
"3X c #DDB284",
"4X c #DCB38B",
"5X c #D8B689",
"6X c #C9A994",
"7X c #DAB496",
"8X c #D1AF90",
"9X c #E3B483",
"0X c #E4B986",
"qX c #EBBA85",
"wX c #E3B58B",
"eX c #E4BB8B",
"rX c #EBBC8B",
"tX c #EAB684",
"yX c #F6BC84",
"uX c #E4BB93",
"iX c #EBBD93",
"pX c #E4B997",
"aX c #E5B287",
"sX c #D8B7A3",
"dX c #E4BDA4",
"fX c #ECC18D",
"gX c #E5C18D",
"hX c #FEC284",
"jX c #F3C38C",
"kX c #FCC78B",
"lX c #ECC393",
"zX c #EAC798",
"xX c #F3C493",
"cX c #F4CA95",
"vX c #FCCC94",
"bX c #F3CC9B",
"nX c #FBCC9B",
"mX c #F5C599",
"MX c #FDD39C",
"NX c #FBD59A",
"BX c #F1D299",
"VX c #F7CBA4",
"CX c #FDD4A3",
"ZX c #FEDBA4",
"AX c #FEDCAB",
"SX c #F7D5A6",
"DX c #F1CFAA",
"FX c #FEE3AC",
"GX c #FFE6A8",
"HX c #FFE9B4",
"JX c #FFF4BA",
"KX c #FBEEAD",
"LX c #E0C896",
"PX c #FFFCC6",
"IX c #FFFAD2",
"UX c #FFF1DB",
/* pixels */
"1Xi hXX.U r.q.-.xXl V.H G.p.k.!.l.` ` s (.).i.P...! E.>.] I l.rXGXi.[ <Xt + B.] ] XX:XI -X7XmXPX5 n G .XE.hX_.u.6 S.HX+.*.h * f.O.&.}.F &.&.H :.D.5.c zXPXVXx R h ` K %...U.e.T.~.'.).k.zXHXHXSXZ.y.) &.` 0.[ ( ! M.C.' :.&.B.` t.1XSXHXO.:XL / _.(.:X#XoX1XM.M.n.W.E.zX+.K +.g g f T ' S M A.;.H.:.d g j ! * @ V.fXA.C.^.NXJXs : s.CXZXw q.qXFX%.,Xw., ! _.K.`.E.z e.B.qX3XB.A.+X&.&.u.^.z...D 9 B w.3XB.&.Z D g P Z.D H -.g X.y N.V.e.A ) . g ! e.[ d ^ 1X%.B.x...@.x.K ^ @.} i f 7 e.C.m.G.E.G.|.R.9X;XK Z 0XP 6 : u.Z.sXx.: ",
"P c @X .x ^ >.~.|.H.A J 5.A.t.t.t.S [ $ V.;.-.V.T.Y F R U ] y.>.;.>.F tXe.H 4X0 H hX9X: f L cX*.M _ L.W.gXNX<.~.=.qXjX,XS.6.e.f 6 ) B.|.;.u.*.E.e.g.h i.8.X.DXPX7XT f o y [ S.~.~.0XgX!.*XiX+.;.k.e.,.q P.w.F.$XJ C.B.C.B.V.! f bXSX,XcX8.0.4XQ D GXk.-.OXeXm.H 5X3.@X8X+.Y U Y K f K q.^.M.e.A.#XA s B.>.F % ^ B.-.G.`.u.B.MXAXE bXq.).FX_.4Xn.F kXGX6Xh.t.V.M.F Z V W.V.G.V.R.|.e.4 e.E.=.r.6.8.Z E.&X! 6.5 l x i ) G.{.U $.M.M.B 8 s h ] 4 g.h [ q.Z s T g i d.*X} y ~ 7XZ.6X#.c U ! :.V.C.R.[.-.H jX9Xc.H `._.[ B }.kXDXc.E ",
"x 5.C.JX@ P F.3XS.V.FXA Z.,.N.` |.A.[ ; ' T *.,.M.[ K.L.V.H.9 F.R g w.;.$XB.` F ( :.E.H , U aXNXbX:.A.D.&.+XzX! V V.XXKX>.z H.A.V [ B.A.~.|.u.R.yXo.rX@ }.H.F l.6XsXUXdXiXFXT Z.L.7XHXHXsXz.I.nXE >.G.[ ( *.' B.M.>.W.!.M.Z.f S.xXiXFXbX7.0.<X>X5.6.x u [  X4XSXSXg G LXO.g U P R y g K H.&.G ` +X^.,.,.&.Z.& - H.- ,.B. X<XE.G.^.J ~.e. XA.V.cX<XeXfXQ.N ..[ {.~.C ` S.e.V.A.V.}.B.V :.) E.].@Xy.u ,.jXe.@Xf ,.t.6.] < ' :.' M U / i < & f Z e.X.* G : h e.K ..O.8X%X=XO.N y.O.a.c } O.: B F.C.F.H.FX:Xj.p l *.B.+XZ F w.zXlXX.",
"J y.i._.Q D - x M.H.W.< S.>.$ > ' e.] ! w C  X! V.*.H.V._.XXq & P s q $ ^ yXr.P ;.=.}.M.5.I g.zXt.~.^.e.e.V.hXAXC ) ' G CXT 0.` > H :.E.B.V.S.B.G.T.VX6X:. X6 i h ' ) {.HXPXUXAXJXSX7X}.6X} *Xh.9 G /.A.T 4 n G.`.lX,XoXZX2Xp.u.7X>XBXlX:X3.c O.X.~ &XO.Q <XZX-.#X3.&XfXL.*X/ R U o.U P tXQ.B.~.S.^.! ` ,.}.q 1 H 9 G ` J >.:.E.V.F 0 e.,.-.[ &.,.e.B.E.6X!.I NXyX&.V V.Z.:.,.V..X&.m.C.B.R.D.).G.W :.fX5X&.|.V.#XOXXX*XD.L.O.e I.i.&.;.g U g ' yXU ^ i d N.R ..d.>X7X*Xa.*X2X&XO.c a.I.I.> -.&.A.lXeXZXc.6.1 7.$.T U 7 >.4X<XwX",
"P.XXj (.NX.X9XV W.n.KXX T.^.B 6 C e.6.! + + 0 ` T ,.V.B.oX>.s.v [ H.V 6   q ` m q ! E.kXS ZXz.eX5XW.S._.S.p.&.A.vXV._.*.! >.z a vXzXwX4XA.].R.`. XtXSX2.1X_.x | *.C.C.H.A.M.e.D e.fX~.G.g.6X$.U X H B D.A &.` K.bXwXwXZ.lX:XJXMXP.[ CXVX-X8Xf.} ~ K K %XR $.;.`.9X:XiXy. XM.$.U P P 5.T _.gXS.Z.<XA.~.B.C e.:.e.P T 9 f w.` :.Z./.F.:.,.e.e.[ ' [ ^ :.D.V.@.j ' V.@X:.C.V.C.C J ,.S E.' V.R.R.F.G.R.Q 9XzXG.M.B.V.9XkXz.<Xf.%X9.y.5.w z ] 5 K ! OXkXF W.C ` O.d.s.O.7.s.*X*XpX7X*X>Xa.L. XZ.A 9 eXZX~.tXt.e.t I.U.U.R + T f Z T ",
"D.=.<Xl.w.A.+X` Z.S.NXk T e.u.L B A A t.4 4 (.vX` B.,.,.E.7X7.! ' B.` [ ( [ J M.u.X G &.i.|.SXeXSXgX9XcXfXXXjXfX0.Q.cX3X[ (.! M.q 0 D.e.3XZ.w.i.~.^.3X| i.o.j ! ,.B.B.,.M.M.` f f ,.G.H.yXtXr.Y , C d Z.d P [ 5 $.;Xx.:X1Xl J.e.M.d {.6. .=X*X| K x U 6Xh P [ U.5XNXO.~.S J.,X] I L 6.%.fXvXcX`.Q.W.0.}.>.B GX[.K c   o.n.H.jXi.~.q.>.;.9 ] [ ^ Q K M.B.R.E.X.x A.C.#XR.R.G.C.:.D.8 f R.;.'.M.].R.J.A.).lX).W.,.B.M.B.lXe.: Q M A.S F ;.Z.a f T H.}.+XP.A ^ O...d.+.Y ;X%.O.l.a.R g q.M.M.E.8X<XG ' ` F 0 >.g 7XK.q.%.t N.K +.3.",
"5.FXPX6XL.oXhXd n.*.V.1 q 9X6.] Q H ! ` : 4 n.E.MXQ.*.r.w 5 DX(.HXnX_. X1XP ~.6.p.Z 9 <.:.vXjX<XB.~.e.D.3X'.fXoXCXfXeXbXJ ' E.L.kX;.m.rXi.m.S.qXe.jXy.L ] X.f t.XX].Z.~.xXvX;X+.U 6 N.e.A.@XA.] f y.j P.i.g > | j 8X1X#.f.8.H F.|.4 F.dX-X*Xa.;X&X&X6X>X&Xs.l.xX9X,.K 9X+.>.V.F.] ( J u.' m.F.eXuXrXu.,.9X' ] GXa C 7 7 / 3 F C.M.:.P.tX6.5.[ o.P g >.,.,.F.Z.P ! V.|.C.C.` V.D.@XZ a n.R.~.C.D.F.F./.>XS.V.].,.B.,.).^ rX+.0.H }.).5XeXGXk.%XI.B.(.6.gX6.r.p 8.Y 7.K L.%.%.K.%.t.i.E.,.V.H.BXs.4 ' e.t.s |.@.<XD.P.~ K.3 ~ ~ Y ",
"xXCXzX Xe ` -.+X( w.;.5 &.F _.] z e.P 0.< > B 4 H.9XW.iX> 5 } ! (.[ F A.H D H.G.1X1X( r.,._.W.F.H G.jX`.M.e.m.jXjX3XMX(.&.F H ,.:.H M.E.p.eXA.3X] W.;XI S i p 8._.V.V.A.P.iXU.O.U K `  XF.F.kX/.t.B 7 W.q.%... .*X8X7.*X*XVXJXbXHXr.tX6X6X%XK f.I a.O.a.a.P.! ~.,.M.P.F [.f ` V.E.C.G.B.V J.eXfXD.G.e.M.V ~.FXyXr.H.P Q C.e.B nXcX9 Z A.[ $.] 8.x.+.U.Q J :.,.U ( A :.C hX}.5 S.B.L 0.,.W.>.D.m.m./.cXgXy.B.F.B.G.V.C.vXPXa.J ` e.(.P xX9X).d.l.T.tXlXR.kX_.3.8.a.g.a.1.y.~ <X8.~.,.B.B.M.V._.W.U P u.9 C S.>.Q.H.N.e.T.w.$.AXVX",
"r.H V.[.& P ;.[.hX6.a g / T e.l T >.Q ! w r.' A . Q.mXZXo.7.1XL jXjX&.F.S t.|.A s T >.] D e.V. X:.=.:.F.V.V.B.E.W.gX0.B.z D.' *.*.Z.J R.;._.^.XXr.wXVX| X.+.| &Xv.eXlXbXlXnX,X*Xw.s.z ;.^.jXyX^.&.q V Z.V.l x.I >Xe./._.S.n.V.FXSXSXBX8X8X-X+.a.a.K K ..X.w.!.i.:.:.E.D R.A.f -.u.H.B.4 J ) Q.(.L.F.;.-.V.{.{.-.^ kXh y.V.F.Z F K.I.T ;.[ ~ R ! Y g ^ ..7.~. X9XB x F B [ |.Z.T.Z._ ! Z.m.].V.V.,.i.cXrXQ.~.,.- S.>.:.n.JXQ.9 -.[ (.o.u.fXP.d.X.:.9X5XA.y.XX*X0 T ` U ! : T [ q.M.] >.V.C.R.|.p.,.p.3X~.D 5X3X~.V.V.w.H.;.(.Q.h.",
"U.lXzXSXi 3 Q B w.fXl.6.P q *.wX1X[ <X) 4 A.5XlX:XC ` e.% ` ' B $X[ 4X>X@.Q _ VXz.% 9X6X;X~.nX) ZXL =.m.e.^.' H.5XMXeXW.:.5.` w.`.S ,.,.e.=.e.V.Z.g.uXAX#.+ t } 2.( `.(.!.,.P P ` 3XU i._.^.A 9Xu.! A.q <   ~ eXwXbX~.C.C.D.C.V.ZX:XR.Q g.*Xj i j ..Y ..~ U.t.] B.n.A.l :.F.6.f J G.S./ Q B.H.-.jXMX3X,.V.D.E.w K E.6.T $X{.Z L R B.=.[ ] Z h d g K ^ p g 6 C B.vXs P V M.tX_./ V.>.}.(.,.e.V.B.B.hX&.C 5 5 @X) V.B.~.~.hXGXy.v./ g ( ` qXL.d./ ~.P.yX-.C e.% H ;.B U i P < $.' ;.K [ G.M.D.}.gX` z HXk.k.8.eXC.:.e.6 G.^.! ^ ;X",
",XzXCXCXR K O.2X] '.*.Q D U ; 2.v.FX5X~.G ' G W.-.I.} fX .).HXPXIXSXbXHX1X/ FXVX#.%XwXf l ] :.SX+Xc.c &.E.~.L.A.rXSXJXvX] Q ).[ (.i q 4 Q 0.M B V H U.` d.> U t #.c U z.K.! l ~ ,.~.T.d A.fXCX4XQ.Q '.~.0.H 2 X.<XjXF._.V.!.M.m.rXg.E.P y.} : g 1 K 7.K 8.U.,XS B.,.V.K ,.V.G.0.i ^.B._ V.e.F.B.,.,.V.!.,.,.t.g >.{.A.T Z.E.K.[ 3 N.;.] ] ;Xf.1Xj h ^ ;Xa.dXg.V.NXr ] 5 7 Z U @ B.R.3 w.,.V.D.V.M.F.V.,.E.7 :.` ` V.[.J B.@XNXrXq.l.A.s -.c f.+ 8.D.hX+XG.,.1 2 U / E 8XO.O K ] t...8.i.;.B.~.L.|.s 8.K.7.7.0.E.C.H Q M.M.CXHX;X",
"FXQ.B.[ Y Y +.;X(.).9Xi.i 5.xXT d.<X<Xy.$.yX,X4XSXP.0.P.h ~ S r.Q e.U.xXDXN U.mX#.j >.g 5 @.) B.LXvX6X:XQ 3X%Xi.>.jXr.` *.7 A.fXe.P i.t.! l @.L U w ] F ] y U K N x u O A ] ] <XL.,..X` tXlXP.FXt.5.F.u.6.9 L.k.B G Z P.'.(.u.,.V ,X0.l.2X7.1 R q.I / $.g.6.~.:.F.V.C.l &.[.G.! R O.,.C V.G d M.V.V.|.7.-.S U x ,.V._.s B T.T ;.[ M.q.Q _ h.+.g.K Z P K N f ^ I.G ^.f D i K x @ >.J ,.F u.V.C.E.G.F.hX#XV 8.W.&.,.B.#X;.V.V.#X;.F 9 F P.L @.L s.f Z.C A. XZ.< K p @.K | K } 2 $.t.U $.6.6.R.qX!.@XlX<Xp.k.z.v + q H M H.C.uXbXDX",
"` ) _ a ~ a.g , f e.$.[ x 8.F.K.l.T fX!.~ [.lX>Xx.w.jXP x d ] A ] s w.7X=.< L ..2 t H X.z.%./.v.eXV.8XiX7X6X*X>XA.E.y.|.> 3 V tXP q.t.T.K r.f l.f t %.A d U U h.%.x f i q jX_.w.G.K.F M.s {.M.F.&.9 n.n F z E ) ,.qX3X).3X_.rX/.{ tX1Xs.tXZ.] i Z X 6 M 3 Q.C.M.M.n.[ i T -.*.( 3XK a f d q d C B.B.i.f.L Q P ;.V.`.n.I H ^.(.~.Z.A.] x.iX+.g ` K Y ^ K K K P $XW.|.7.a A H T + 9 /.z m ! E.V.C.F.B.V.NXlXr.`.,.C.G.|.J C.V.OXkXH.^ N.s k I U.rXC   >.` eXfX~ ~.h ] x t x | c & e...R y.Y ` H <X) SXlXK.o.x.f + N s 8 d T 7X_.-.",
"9 h 3.U ..R %.U Z ~ d K P U M.l.W w.bXV 6._ ` k.W ] q.L.k.s Z.Q ~.l 1.x 4 ~ 1XU.p c 2X*XU O.] 5XoXv.H F Y t g +.-.].' S 4 9 ` |.H.i.f 2Xr.w.P U f y p $.8.p ..a.g Y ] jXe }.cX*.,.tXSX@.1 [ T d gX] iXAXmXk.A H XX0X'.eXi.s R.NXE.-.H.$ H.>.eX[ K.L.! ` ,.;.V.V.' F +.| t.D.i.i.9XNXjXh > c k 1 ,.! ~ P.6.>.y.,.G.9X5X1 G XXG.XX^.XXw.K q.U Y ` L L $.L D K y e.].C.Z.i ! s P %.H ,.) ` ! :.,.F G.S.V.<.bXS S d B /.}.D.C.F.C.{.[ yXH.g O.} (.6 d 3 V ! Z.nXQ.l B.A.r.g Y 5.E p 6 ^ ,XF Y 8 V.p.) JXVXAXk.t.( a # 7 8 0.,XI.H g ",
"U I [ ^ Y ] h P U U T L @ p J.$.I.3X:X3XtX( ! K.4XiX0.(.g Z e.! {.~.0Xq > K uXt.t x (.I @.%Xg.tX_.3XCX(.( D ~ ( 0 *.Q &.F q J B kX' M e.{ H.<XL.~ e j x R g R } U x _ ZXS.P.u.P.C 6.~ ` N _ ;.$ ,.,.:.' H m >.3X3X9X`.fXqX/ H eXS.B.H.$ B.e.vXe.`.<Xq.9 B 9 D.~.vXN.*.U x ;.y.B.<X3XcXg.a.< T.| ] f % u.C.B.( ! A.V.yX5.=. XeXvX XF.q.@.q.@.U $.Y K e.Y Y p f T F.R.n.< ..K > G B C.A.=.V.z R.:.D.Z.^.S.,XrXw.J V.,.F.V.V.G.#XF w.#XS 5 & @ l 5 > # F /.^.H B.9X XqX,X/ , [ | h.i U q.B.t ;.-.Y.F n fX~.5.F ) ^ Z Y f.o.! j X.&X",
"e.B.G.A.N.{.i R U @.: ..K ;XQ K rXlXc.HXzXp.l.W.U.lX3X:XZ 1 Z D.+X'.t.r.z t.FX9...j *.s.P pX| E.i.9X).<XE.e.Z E.0 ,.[ B.' V D.H H }._ N :.tXM.yX2X5.u f a.q.Z y c y.9X X0XR.0.u I f.,XmXf...wXU.B B l 6 + 3 5.(.XX'.NX3X9XB.G L.U P ! d B B.R.wXq.>.,.M u.+ V.$XG.B.E.B.+.~ ` H B `.W.~.0XE.@Xh.>XCXP.( ` C L P e.vX.X(.Z ` F.~.N.A._ S q.] U [ T K e.] U 8.g ;.qX,.S.@ 5 T d e.0.0 F :.&.B.A.&.7.P R.;.D ~.3X1 ;.B.S.V.C.,.[.OX) [.$.t s & P ~ u @ 9 =.qXD.&.F Q P.lXL.q -.D j t p T q.L ] @XiXK.9 H.Q.P.# ,.N.VX>Xa.^ U K U R ",
"J.`.W.e.e.+Xf i h @.T K e.G.zXg tX:XuXSXbX3Xp.V B.cX<Xl.B u Q H V.B.9Xs.+.L.:.SXX.<XZ.:XQ w.8 R._.A.'.S.~.` q _ - H 4 F H V.[ ^.H V./.|.>.OXn._.p.s.s...@.#X[ U d./.E.tXD.~.K.U s u C w.L.U B P.rX9X).8.$.L h p.i.p._.fXS.Q 8.X.q C.L.P i.V.J S.B ) ~.~.C C ` ' C B M.H.X.> F ' H ! ! A.i.>.B.B.S.V.J.+X|.K , ~ e.Z.r.NXP ! B.tXS.R.A.- B.( U e.^ x B.r.a u T e.e.D.kXW.T B C ! ! H B.) B ] 8.R ..f B.~.y.B ~.*.cX~.`.u.` R.V.M./.C.i.0., q.^.~ y * & &.,.{.e._ W 0XfXvXM.,.E.q.@ % f F W 5./ SXQ.q B. XD.0 w q.s.^ k.T R Y R H.",
"` ,.,.,.=.q.U l X P M.U f U e.A <XY.L.~.ZXK.E.9 w.H.(._ 3Xs $ F 0 F ] 8 F > ,.E.;Xk.fXc.P.XXS.( V.DXgXF jXU.6 A ! 8 9 F B.' { ;.' &.:.B.B.V.m.3X+.L U d.R ^.$.[ V.B.,.6.:.A.[ %XX.x F -.M.Z wXC Z.y.,Xl d U.K.*.o.f v.v.5.T ] :XZ ,.e.q ' -.' ` V.d 3X~.B.d H &.#XC - J h 4 M.B.B.6.~.D 6.,.e.n.M.>.{ (.P.B A o.[ 4 F G.q.H m._./.C.jXZ.&.S @ B.*.x F.^ 5.5 ^ V.V.`.XXC.kX>.` ! d ` C 3 :.f T ^ P L Z.&.T._ B.:.C.R.Z.C.w.R.B.].B.e.E.vXM.3  X;.s.g ' 9 E.}.A.B.|.W.~.V.|.B.A.jXQ Q R Z.i r v mXC 9 -.;.H.9XU.mXT ] $.[ K T M.V.",
",.>.B.! i 6.8.$.X P [ 5 N Y a.x.Q.iX9X;.|.9X0XB.[. XE.7 }.v o.` _ & Z.=.0 8 &.`.6 x.tXg.5.).! 0 k.zXgX,.hXtXg 6 ' T [ H 0 >.8 ;.8 B.B.,.B.rX:.:...Y x 7.+.^ f D ,.e.T o.Q ' [ K Z ..[ F G.y.% : / e.8.Q e.*.w.~.w.!.(.p.P 6.+ } ' >.V.s *.A.` F.}.P.S 9 E.C A.B.#X|.w i.7Xs s.xXZ.k.XXB.( V.G.&.C.}.l.B.T.Q k.^ /.q.z ~.~.p w.' P.;.H.,.;.` 7 F.e.y.V ^ s 7 X S D.A.) J V.{.] D.B ,.d > G . o i x i ,.,.<X` -.,.m.C.F D.].D.C m.B.V.;.e.}.F ^.;.8.R ^ q.M.A.q.V.bXW.,.].@XA.B.hX$XT.$.Z.P f } 6.e.V.F H M.NXJXbXrX^ i.Z K ! M.,.",
":.` [ P O.! +.K N & U.%.2X;Xd.=Xf...7.L.w.B.^.n.A.hX~.L.L.! 1 l 0 ` C 4 + 7 >.e.t.H fX6.2Xe.:.PXs.= '.C.^.H.R 8 >.> ` J H A.G _ V D.V.~.3X5XcXtXY...K L R K %...U U Z x ] Z.$.g t K *.^ D.F.%.x < ~ i t.Z ,.` H Q L G.|.q 7 L I l.{.] |.0 d ;.F V.oXBXC.&.B B B ' A.& u o _ ' hX/ p.H.OXn.C.,.B.,.e.(.G.yX XZ.(.P.P.[ B.W.l.g :.B.~ 6 n.'.u.U C _ T.F.[ y.S A B.}.v.0 [ y.NX,.@X! F |.! [ P 5 6 : : 3 ] [ e.B z =.R.#XG (.^.F e.` V.,.R.i.n A.B.;.X.@.D ' V.B.F.0Xi.B.B.F V.V.V.{.@Xe.;.6.E k % F 9 s 7 ' ' X.!.Q.$.6.p t ! ! e.",
"] U T %.a.U.*Xg g $.*XN F.U U sX3.#.| <XS.i.*.w.R.B.|.kX|.rXi K K : 6.[ / # F B.'.P.XX2X9XHXIXSX<.3XJ.R.R.V.l ~.V.3 C ) w.i.FX3X>.:.0XW.).).tXmXy.+.U f %.y K Y U U g Y t.,.Y f U %.y.K z R.P 7 } R ~ ! l.G.` =.=.Y.=.{.Z...8.t h ' C OXV.B # <Xm.B.n.PX~.n.U $.`.G.P y : ] F :.Z.U.[ :.M.B.V.,.B.E.T F.E.+X8.i p.W.:.C *.*.^ y.o. X6.6.m <.5.H.0 F.E.>.*.(.q ,.kXe.B e.; ' e.H.XXQ Q s & / o.U + s 5 ! l.( B.` + n.F.s ^ ,XG.P.Z.` *.oX~.B.H.S.V.w./.L ] V.F.B.lXJ.).m.}.E.F B.M M.XXF s d.r.N 3 Q ! C }.H.rXk.4XY.$...K +.O.h ",
"O.j R O...L.%X8XO.[ U.q.A.O.&X6Xd.s.c P `./ i D =.;.-.G.|.NXY.O.>X%.(./ S Z 7 H R.'.J.E.|.H.:.fXSXV.m.R.R.@XC E.` >.F + - q qX$XG.7 ).cXu.R.:.}.wXO.h.f ..P r.7.+.I r.6.[ q.6...o g e.% A >.L l a.^.i.H.fXW.H B.C 5.0.#X*.5 qX| ;.9 0 0 B.e.E.^.H ~.,.M.B.F ` B H Z.T.h K 0 F H - 3X[ &.E.) V.V.R.p.u.' ,.9 *X5.` E.;.B G ,.i.K 0.Q H.G &.+ 6.<X X! C.B.B.B.n.B 3X:.;.w.e.-.9 1 ,.p.C Q ~ l > T 7.>XC 5 D P ! ^.0 W.C ` q R.FXtX3XNX5XR.H.S.C.C.V.B./.| T B.B.MXu.S.R.C.V.#XV.,.F +X_.0 C 9 B (.e.Q i.$XG.F.qX`.8. .p @ K h K K ",
"1X&Xf K g T K K f.w.4Xg $.;X6X6Xj.8.+.s s ~ %.g X.B.i.>.M.{.r.y _ 9 3 6.Q.[ T * V.~.n. XjXXX,XbX;.;.D u.,.XXjXC.<XvXrX(.! ] l H.GX! D BXD r.` F [ #.r.K [ ^ [ $.[ w.V.T P J N.^.P X F.x q z x W ! NX) vX{.vXNXNXB./ J H.tX6.(.g.E.S > H ` V C.V.kX( _./.^.A.! 6 q K 8.R i A.` 0 9 W [ ! ^.! G e.:.Z.XX_.fX:Xf.I F.,XV.J C R.rX8.5 G.V.{.,.F : 6 3Xu.V.,.V.V.tXjX*.9 1 K.`.#Xe.r.F Q K.! s 7 U 5 o ^ ~.< A S [ |.V.R.;.3 0 J G vXp.1X,XB.V.B.C.Z.F.B.F.r.h n.B.E.>.m.>.V.M.,.M.{.` ` H.M.*.*.g ! ` B.B n.B.B.W.oX7XpX+.j f.+.%.Y ",
"T.%.s.% Y %.K ^ ] e.<XY.7.....:Xz.y.x ~ T ~ | g g ,.>.;.e.V.9.9.(.w.T.> F ~.z P H B.&.&.{ vXlXS.Z k.7 >.3X:.].}.) 9XqX~.P.w.9 V.F.kXi.Q C.R.0.P...d.` g.w.q.F H.V.M.M.< 4 V Z |.|.d $ P 6 z 5 =.' +XF.T.,.D.! T y.F ;.~.XXjXS.H rX=.t.*.8 _ - V.>.:.B.T [ Z.F Q Z t K A.F 0 0X7.r.~ < R [ {.;.! 3 R.V.C.D.5Xt.6.x.V.e.V C V.^.iXT i.H +X{.! Z s z C.V.-.) ,.C :.pX~ 1 w.Z.NX`.B.Z.w.Z.( ` 6 K 5.2 7.Z.~ ~ S &.H ) qXE.H ;.' H 9X).6.m.E.u.:.E.D.H.P.F.T.p &.V.M.0X,.].e.W.E.qXn m.T ' wX(.Z.F > F &.' C.~.T.S.0XBXDXmX4X4Xs.U x.",
"H.OXMX7 cXjXn.B yXqXe.P Y j &Xs.rX1X3.p T Y ..f h i.N.` [ /.8.L.~ H.T.8.8.F P 0.$ M y.a i f %Xg a.r.f '.V.v.;.S.tXrX6.S.~.0.$ &.$ M D.s 9 ,.,X9XU O.o.& A Z.q.{  XT T > g   + ! A P.L.a.l.8.2.! _.[ _.XXL.E.(.+.a.d B T.(.wXr.P C.H :.JX! *.s % i s.....o.I.] F V.F.V { J V ;.N.! F @ A D A # [ 0 M.-.V.` ^.[ ` n.:.A.H ,.n.H.Z.} S.V.H.;.Q $.> w Z G N h Z 1 5 3.8.K A.S 2XOXQ.hX`.~.D._.S.S ! 6 / P.5 ( d n ` F ] }.n.#X|.XXGX5.V C -.V.M.F.:.,.e.C.]...] B.,.S.' i.D.A.F.-.p.xXQ 8 K.B.H.{.J e.9.6.B .X! ).1XpXQ.bX,XB.,.nXC.",
":.n.MXI.m./.xXA.e.W.R.+.;Xq.t j U ~ } < O.+.h.| x l.>.^ H eXU k.~ ^.A.9 ] - p m K , g @.L h ..^ D L k.Z.,.B.}.`.^ q.@ ! 7.Z s d T x g 6 > 5.8.F.} 8.K.U X Z M.Z.wXxX' 8 f +.4.pXK.D ' w w h 5.DX[.qX,X XZXCXuXl.U / ).xXuX:XtXL ( _ &.NXHX:X9 g *XP Q.$.B.n. X' 3 A A :.w s [ ~ l P , s q.e.8 r.` P ;.M.) V.e.H hX_ _ 0 C.B.A.G.g.U ^ T V h X.s S G.e.q T ;.$.8.a.T K U.[.` u.`.^.0Xe.! hXe.e.&.L.e.r.7 :.w.B 0 |.~.V.B.B.m.A.rX!.R.' H V.u.M.V.].(.m.V.K 6.q.[ ^ Q ,.Q.,.rX9Xi.[ d p.~.w.` &.' !.6.4XH G !.kXPXPXCXp.,.C.~.-.:.",
",.&.Q a q.9X(.9X( /.0.X.o.tXx >X..y.e O.s.s.X.X.h 5 ^ IX4XBXi...:.qX-.q ! ..x i.2 | Z L Y U Y f 3.[ V.M.0XE.C.XXW.$.> ..+.K R K K i x.L i Q r.(.I $.Z.R U s T.8.s.B.H 2XI D p ` vXG.Q x.L. .y.7X}.9XpX3X3XNXNX*X6X4XAXbX(./ { S.=.' R.*.~ U s P ` ' >.B.V.~.e.e.s g 3 V ` 6 P 7 i B XXV ' >.6 ] q.>.;.M 4 >.e.M H |.|.&.B B.F.C.U.e $.U 7 @.L.# ! C V.T t y.6.] h 1 U ] XXfX>.}.XXG.F ,.C.A.9Xl a 7 &.0 C q._ >.B.,.V.,.V.B.B.qXGXE.&.B.[.C.A.C.F.A.:.3Xs.f.T h +.g 8 (.G.A.B.(.!.bX'.*.S.B.|.Z.[ <X4XCXs./ ' mXbXPX:.}.W.E.:.G.",
"vXHX'.P.6.[ 3 % 5 P Y K t.yXZ.K.DX8X3.O.k ..c + + y b +.2XbXY y.Q.KXxX3XU.5.i C.K ^ K f x l 1.^ u.yXR.B.,.`.A.u.|.V.P r.,XP g K 6 < B 0 C 0XeXoXt a r.K @.P M.9.O.F kXs.: 5 U ! B D.SXy.FX#.:.SXB.w.gXlXeXlXzX).1X,X`.jX+X] M.e.H F ! >.B.] I A ` ,.,.,.` u.] 2X' $.H T.C ! ' C - ;.|.&.E.` : T B.H.+X>.q G A._ 3 3 }.M.&.F -.^.<XL f %.Q g :Xs C _ H.V.i $.U.8.@.g A 9 m.#XZ W W.A.rXm B B.+XXXi.~ ( F 5 A.;.e.( ` C.F 9 J.G.! SX0.,.B.D.R.~.V.~.'.gXfXzX3.U x 6.K U.e p.|.4XeXcX'.D.m.V.,.OXu.t.:Xf.,Xr.Q B.n.,.) NX:.,.B.,.Q ",
"'.eXtX$.i q.o...E P ] [ >.F.J -.`.2Xh. .I O.u 6XsX;X+.O.4XmXd.$.L.qX(.~.Z.5.U.|.~ *.L P P U x ,.W.vXfXu.:.m.u.].0XkX` > ! ^ @.h s % G wX(.xX7 Z.K j P c %.@.zX6Xf.5 q.6Xf d f 1XxXLXe.M.GX4.(.5Xi.!.ZXCX,XP.).zX9X).i.:.|.;.H B.V &.C.H M.i...z.] cX/.A.S.XX( V.J = @ ' A d e.V.- ,.;.*.F.A.- ` >.F |.' -.M.! G &.0 0 + B 9 H.V.yX..Y f $.Q.yXF ! ` B.yXu T ] 8.i.E.{.' R.#XvX0 G.i.yX6.6 ' >.! W.s /.M 8 U Z.` e.B H.C [ -.G K.rXNXC.B.~.A.S.~.0XeXrX4XNXf.x [ e.y.|.;X@.cXrX9 /.D.V.C.M.B.V.qXbX;X*Xd.%.D cXcXxXB.-.C.B.eXI.t.",
"eXu.|.#.sXFX!.S [ $.,X` |.^.(.V Z.<X} >X} h a.&X>X+.L %.g.rXd.L.!.}.-.9 ~ k ` s 7 T.3.(.C._.B.W.rXn.A. X0X'.^.,.Z.,.ZX- n i $., ! 1 j J u.9Xi.t.g T.K.#.+.k.AXc %Xd.] pX7X0.c 0.lXa.q ;.oXVXS.W.p.9X<.jX).fXgXlXeXeXgXV.V.hX] V.V.,.C.D.S.l y.uXE.:.&.Z.M.oX! E.` d % 4Xr.D ` M.A.H.B.,.^.' 3 _ E.A.A G q.$.w.&.}.! ( J m &.M.B./.~ iXa.~ D.V.` F._ H :.5.a f ^.C.&.}.V.' w @X~._.B.hX! e.>.|.e.X J vXZ 3 s Z.B.8 J M.e.H.H 9 8 jXeXZ.-.B.,.:.,./.lX<XeXlX4.t.-.$X%.V Z o ~.qX3XT e.e.m.`.;.E.cXlX&Xd...P.J B.D.H >.V.@X,.F.9XXX",
"` 6.PX4.lXJXFX!.H.` |.:.H.!.q.,.[ { p a.O.@.7.wX6XY.r.@.x x.L.U.3XKX+.} x g.y.# a.X.p.(.Z.S.rX].M.B.>.,.;.C.>./.S.kXtX7.O.| t.T 7 L.E T : Q 0.Z @ g N.;X+.8.`.h.j / T h.`.fXb v p HXn >.0 MXrXv.i.' wX,.qX>.9XfXS.jX_.@X0 C.=.V.` R.:.S.+.} V.V.V./.lXeXBX5X7 oX` ] c.k.iXU.3 d B.( ,.Z.>.}.4 B.V.#Xs A.A 6 P V.` E.V.X.`.' B.M./.r  XrXQ e.G.` E.,.H H OXN.Z G.}.' ' hX-.X J H 9 n.A.Z.q J A ;.i - @X` M.d ;.T.e.' -.' e.;.8 N.` Q.L.i.' V.q 0 0 rXwXiXNXx.e.C.E.ZXzXd.: ^. XD.GX4 ,.>.m.e./.xXHX^ s.,XS.OXB.,.-.A.B.B.B.) -.~.",
"f FXmXvXmXlXSX1XF V.{.[ q rXnXC.J V.h a.8Xh.*XiXwXL.<XS.F.Y.^ D.S./.+.aXt.~.XX5.g.o.Q C.tX'.L.V.V.V.B.F.m.V.e.V.A.B.bXj 5 k <XB.V GX0.8.f.9.Q.l < 6 yXN.8.R mXiXj g ` f ] $ +.+.c l.JXIXzXlXV.'.P.P tXp.E.;.A.rX,Xm.u.M.B.C.&.D Z ' [ E 1.Z.B.D.P.xXlXbXMXJX4X! ] #.} X.8._ ^ [ /.f * 0 ` ^.! e.,.D.] ! <X9.( &.! e.:.3 C 0 -.C.+Xd B H.,.G F 9 F.H.e.-.B.C.,.V.0XjXu.:.}.9 C.0 ! jXlXwX6.6.Z Z h h F C |.*.Z ,.] 0 G .XH.B.+XA.G.K.cX_.D.KX=.-.H ,.XXGXI.c p.V.n.qXNX .A E./.[ qXp.w.(.! &.V.SXOX{.;.L.7 _.B.e.W.B.,.V.~.jX..K ",
"~.,X<.V.G yXZXJX] =.-.*.}.=.K.E.,.A.t.d.x *X} 9.U.tX3X_.q.+.*Xi.S.XX+.(.-.T.NX*.u S.>.V.W.].e.u.,.B.e.[ F.V.F.,.] g.1X>Xg U.@XkX] oXt.$.u f.7.2 K x i.C.(.x r.L.;Xx.# K <X;Xy j c z.*.vX3X~.S.m.V.] :.3X!.C.~.E.l.P.F.&.e.e.R q.P P 6.[ &.[ e.6.iXA.H.pXF pXpX9 R iX4.} 9.@ S M./.^.G w M.V.{.B F.A.P.F U.Y.8.W.e.~.-.N.}.:.B V R.E.{.>.,.}.C.&.F G.;.V.,.B.e.V.V.fXeX>.P.^ ! / 9 F.B.kXC 2XU $.~ / H z ,.XXF >.C -.M.;.G m.e.B.oX~.S.A D.yX_.0.&.u.` D.( 8.0XG.n.:.`.*X} !.BXF.d F w.~.@X^.F.0XV.` V.H n.V.R.3XD.,.:.&.5.a.} U ",
"SXSX,X5.$ H -.5XFX_.P.3 A.zX:.' -.' |.;Xd.f.*XX.7.8.T.Y...O.K U.+.i.g.D.S.S.~.+.^ E.D.jXp.M.bXbX&.*.w.C.V._.t.$.y.4XL.O.{.(.,.^.hXQ B.` I U 1.: x I z W.;.2Xp.r.d.:XVX6X} % X d p bX( >.E.S.M.&.>.|.lXlXfX).C.m.NX~.e.N.g T : *.K g K g D Y.] U.iX:.V.DX6XCXZX` 5 e.] 5 | &X, >.Q i.l.> H M.B.B.F.V.;.H.[ e.L.K.H _ ` F.|.V.R.` ` m.{.,.H B.A.C.B.V.;.B.! >.=.V.B._.}.C.*.i & X 6 T [.|.[ 7.Y i L ~ C.u.,.m.}.OXq 4 #X-.&.;.,.&.R.@X~./.^.3XrX5.A C ^.}.D.3X&.&.A.~.HX3.f.p.B.` _ - ` F M.B.].-.;.,.G.M.V.rXeXM.M.D.).I k.v.).- ",
"(.BX(.e.xXd uXS.f ~.hX^ @ *.R.G ' G.NX3X8.0.*X#.o. . .O.sX+.o.@.K.oX9X,XU.I Q.E.R.,.V.M.lXlXZXFXiX6.8.,.M.qXq.K./.}.I.| n.,.:.:.`.o.I.| I ! ! V   ! _.jX Xe.P.iXf.s.zX%.U.6X#.pX+ =.vX}.R.B.~.,.[ }.).,.' ' A.MXxXeXM.P.P R s q.Y Y @.1 I mXT  XnXAXb +.FXlX#XkXQ ! ` [ - ]   q.zX3XN - d -.w.! [ ' <X<XrXt.L.vX3X#X_ 4 ,.E.R.B.B OX! &.F &.&.A.,.B.*.C.U K B._._.H.~.#XZ.1 h F X o F.C.6.U 7.f.U } V.V.M.,.V.kXR.8 u.}.B _ R.F.-.C <.V.E.S.' = rX0 ,.C.,.C.V.S.n.X.7.E M ] V.[ [ 8 -.H (.B.B.H.;.V.F.R.tX,.~.E.&.*.} 6XNXg.A.W.",
"3X).P.lXn.8.R.] q @ 6.lX< : S.R.[ ' A.9XeX( AX&Xx.f.%.~ f.%Xt :.^.G.A.7.K x A.rXbX5X' R.zXBXSXwX4X!.o.:.M.V.q.G D.u.iXO.` ! w.0.5.I V.Q.^ XXr.(.i Q ) _.xXP.`.2X8XVX:XVXY.zX;XC ).4 V.V.E._.V.G.W.!.eX{.C.m.S.B.V.~.~._ K $.N.C R g o.+.Z q.' [ >.a.PX| R.].n.J.H._ # a 1X:X0 e.! V.q.B.( S V.t.nXwXI.P.P.jX(.~.8._ >.,.` M.H ` C OX=.e.|.C.H.C.^ ] ^ C.*.a &.,.V.V.V.$Xe.f B G 8 @ :X!.Z.^ U ~ I.8.C.C.V.V.V.V.E.R.m.@X,.! C.,.+X&.9 C.OX}.^.3 f L.F.C.&.B.XX:X>X*X7.i X 9 M s d 5 a B.&.' ,.J V.C.,.V.~.e.B.^.V.] 7X2.Z.A.(.Q.",
"i.-.V ' ~.~.S._.i 0.tXS.x.u 3XQ.jX,XrX~.fX3XcXr.pXf.a.O.!.K.+.y ] ;.X.3.a.g.M.F.,.V.{.gXBXm.{.tX<XK.L.4X[ V.E.L.S }.fXP 8.x I ^ W.7.`.hXC ^.# S S ~./.` V -./.8.I 2XY.:XU.zXwXxXa.; R.V.F.:.n.eXbXbXD.'.uXS.].C.B.B.C.t.P -.` [ %.6X&X< @ [ Q ;.t.& N tXw e.n.' NX2Xx i B 4 ! ;.S.yXB.` ! V.:.H ,.[ Q ;.-.W. XNX X,XH :.,.B.] C.) {.V.V.V.V.B.>.K ] e.n.V., A e.:.V.V.~.6 f c >Xo.c 5.l V.~.>.B.Z.D.G.V.m.>.C.V.,.R.C.V.B.M.e.B.,.@X! :.,.E.vXcX1 g.D.; B H.9XNX8.#.+.P i r > K u g 5 M.B A.L.F XX3X` >.e.eXB.~.2.f ;.wX` ) H _.",
"bXQ.cX`.I fXPXi.D.D ^ Q.:XD '.,X,X).u.D.fXA./.NXQ.| +.O.,XB.K.~ s.a.+.W *.V.~.A.oXW.B.,.n.;.Z.S.;.T.^ T.rX,.B.F./ *.F.~.l.0.d e.*.~.:.W.Z.CX4XI.3.eX|.W. XJ Q e Y N.q.s.FX5XiXJX4XrXm.V.C.S.5XzXfXG.'.E.A.M.,.B.tXcXA.] [ V.V.E.t K K i i ..K 5 z.*X# _ 9XJ.rXE.kXy.K h 4 >.&.tX> 8 &.E.-.,.,.e.` ! ^ *.;.i.tXvXfXeX:.G.&.OX:.:.` {.>.V.C.V.G.6.g Q e.F.! i ; B.B.,.` ! K c o 6 >Xu z.Y.$ A.;.A.MXZ.A.G.V.n.m.9Xm.E.3X/.R.G.R.R.'.:.H.G.E.^.I.HXW L.G.V > }.zXZXmXU R 1 j j i t i K M 1XxXNXgX:.V.V.P.;.&.8 s [ 5.d z H 9Xp.d 9X",
"BXDXgXBX1XX.6.Z.A.V.w.T s.p...CXzXfXW.'.u.m.~.!.vX;X..K y.u.Z.P.r.9Xr.;.~.{.nXD.D.).D.B.9Xb.D.'.[ S.%.w.xX>.F.V.Z.F >.V.}.E.W.A.'.R.V.A.k.W ~.W bXB ( ! e.y.$.x P ,.L.4.rXtXF.[.zXgXF.~.qXNXHXfXV.B.!.3XG.M.M.Z.B.M.Z.U w.J.V.M.$.%.&X5 5 %. .Z < +.1 5 K.A.;.[ R P U q.0 H.tXB.Z.XX&.F.:.:.W.>.;.r.5.;.,.w.,.V.vXB.V.;.V R.=.H OXC.V.e.V.V.u.( | U 6.H.t.U D F ` {.! i 5.> g x l ;X<X .7 S :.&.:.xX*.,.R.C.e./.V.B./.R.C.B.,.W./.W.B.C.F eXe.&.wXz oXF q u.bXZX|.T.^ D Y i I + < F B :X' p.~.B.C.V.u.7.Y : j l.I.7.S.L.BXc.^.zX",
"_.).ZXBXIXyXIX` E.S.rX7.l.l 9.4X5XjXW.).:.kXp.mXZ.`.| N K ( V.V.H.}.E.~.^.&.:.P.R.R./.~.XX3XB.|.S.U.8._ }.MXV.H.E.r.S :.G.0XM.`.].W.JXIX).~ ].S.;XVXJ ; 6.8Xj ] ^ (.T.*XuXiXJ.V.V./.V.R.fX5XR.tXI.! ~.B.F.>.:._.M.>.K f -.>.H.H.a.K o.a 8.A A.H.7 N Y 5 X 5 @ [ ~ j N.e.6.tX] =.' V.M.qXm.jXu.!.] ;.L.! ,.6.,.M.B.,.>.D.9 4 H = m.V.,.m.e.C.&.=.$.q.! ,.s U s.l.xXr.9XB M _ 5 ^ & ^ C eX .L 2.x g x.3X,.;.V.M.C.M.V.,.,.M.C.F.S.S.S.B.,.#X2X-.+X` 4 C.R.H ,XZX!.^.H.{.d a.7.@ & 9 9 hXhXZ.(.&.B.B.C.Z.^ +.u } D.z.uX&XI.V.H.zXzX",
"^.(.,.,.Z.vX`.! A._.(.D P.,X>X<XeXeXe._.B.,.5XjXBX3X/ I ~ >.B.V.,.B.R.,.e.W.0XS.B.D.C.].^.e.M.V.iXmX>Xk.) C.zXw.H C...;.{ P.~.9XZX! >.JXAX:.9X`.B 3 F.# +.+.O X.K H.w.U <X`.:XF.J.' S.(.4XXX,.4Xl >X] ,.V.9XM.C.yXx...K H.<X>.J.g a.%.~ d.U.[ ' _ h P % , Z F Z +.8.|.tXF.E.D.@XV.,.V.&.) R.JXuX<X$.! L._ _ e.M.V.#XyX>.;.,.OXB o 9 8 H B.C.*.>.V.M.R >.|.x I _ G.^.^.$.A 8.K > ,XL ] NX<Xc.c U l x ..s ,.n.C. XC.m.e.m.e.m.D.A.V.W.C.B.M.3X{.R.` 0 ' u.rXf (.5X}.V.H.3X .o.f Q &.B A.}.~.:XR.B.;.H M & 5 %.S [.( iXnXx.`.,.FXD.",
"M.V.qX/.].B./.,._.M.^. X(.mX3X5XjXP.eXuXl.XXbXZX_.^.8.+.] M.,.H._.e.,._.-.J.u.R.C.V.C.B.(.&.:.,XU.[ l T aX,.^.~.0XrXDXZX/.AX! 5XPXG.,.*.&.B.OXB.B iXU X . O.;Xr U V [ } 9Xv.9XVXcXbXxXcXnXZXV.W.c.:Xe.OXV.V.B.B.M.K f f S.' q.~.g.K K y.%.^ o.3 q.K u # . ^ ] K : w H.C.R.M.C.C.V.BXjXoXoXu.H ] D 2Xs.8.y.^ i.M.F M.H.$X` q E.A.R.*.'.&.B.V.,.V.H.G.q.w.+Xy.%./ / d ` T.(.1Xg q k.l *.NXl.x | U P | X.A s m.M.oXV.B.,./.u.B.B.B.B.E.).C.F.).F.C.F.&.E.d ZXMX~ ) ` :.A.iXj x I._ oX,.C.C.F.bX&.fX4XIXDX*Xr h ~ [ &.=.! i R.W.B.V.",
"0XR.`.R./.B.R.,.E.Z.Z.D.tXl.fX9XCXx Q I.@.MXuX5X~.~.P X.[ M.V.~.0X`.>.}.^.n.).Z.,.M.*.w.;.t.y.I.T T z.7.V.;.M._.A.l M /.H A.n.m =.:.lX~.+X=.>.NXCXrXY.e % K 5 @ ~ <X^ [ vXo.P S.-.,.:.&.MXjX#XB.(.;.bXn.vX^.V.V.y.Y ~ E K.g L [ f N *XpX1XT.] [ i ..O.....i I 8.x.l.!.ZXGX-.H '.gXM.B.F.,.ZXHXHX%XZ / s.$.P A.Z.6.(.$.H.-.t.8._.R.,.).e.L.u.V.C.B J Z V.hX] <XN.0.! C ` mXG f h s.Q V.vXxX.., % U a.K 6.*.:.&.Z.V.C.^. XgXV.-.:.,.B.E.V.C.!.kXR.! C.` 9 ZX3Xq.n 4 P.eXx.^ E R..XB.,.M.}.6 T Z.FX~.kX^ ..@.g ;XO.3 t.[ r.qXZ.`.i.",
"R.p.H w.S.n.~.D.|.|.+XB w.l fX3XlX(.z.4.x V.3Xi.V.[ K Y T J.Z.M.9X-.:.S.NXXXW.D.^.D.Q 5.P ^ Q R P 3.j.~ +Xq q H C.i C {.i.3 1XZXMXNX/.W.D.D.jX) e.` $.c } ' t 3 L e.r.B.[.pXb ~ ! ! i.r.mX(.H V.F.C.J.,.G.V.B.~.K L U t R ~ K ^ %XVXd.$.Y.g & &Xf.} p d.6X#.pXK.2X( MXo.|.JXSXcX&XR.C.V.~.C.,.] U R Y 3.l.| ' T.Q.:XVXcXQ.q w.tX! &.e.9 C :.V.NX` ' & V.hXK.fX<Xq ~.$.k.).*.j g ! ' C kXZ./ p f K *XU e.F.B.B.R.) R.B.E.'.F./.B.B.,.qXn.,.'.m ) ( ' C 8.X.eXV.B.C - | a.D ,.,.` V.P.M.|.B. X9XA.P 2XS h d.f.%.[ > f s 6 &.J B.,X",
"o.uXeX*.W.Z.Z.u.,.,.kXE.w.^ o.nXrX`.x.+.| ] uX(.6.e.X.+.Y A 6.K.].L.B.nXQ _ C.D.R.R.I U U K N g U L | g OXU.- -.cX1 7 nXFXpXD ^.4XZ.:.,.B.B.+X_ 9 ` t., h.3 g s ..9 !.n.H.`.dXf.Z F S.(.V.{ B G ].D.E.3XC.B.V.u.^ _ K t ` [ U T 1XA.^ K o.7X;X8X} #., X l 5.L.f 7.NXA d m.e.kXbX0XC.E.(.B.e.Z.S.~ P P #.%.} q.S.i.8.w.s 7 U.[ q.fXF D.i.2 :.&.+XA.H + ] H 3XPXSX~ B Q >XM 5 s.c [ eX8 yXbXL I f x / g.R.` }.C.0XR.V.R.OXF C.m.B.M.M.F.E.e.0X).Z.A.E.vX<X(.k.! 6 + @ i ] B.@X>.>.M.V.,.C.A.S cXI.f O...P +.d., %.: % CX%X=.7  X>X",
"f D 3XQ.'.u.e.m.V.>.H +Xi.^ I U.L.:X1X*X..! bX~.>.B.Z.B.y.Z f %X0.yX,Xl.K l.&.&.R.R...L K X...f ~ U a.g XXq.-.5.kXZ.f x.k.P q p.HXs.0.d F ,.+X[ 8 H xXg j 5 a h ~ s Y.D.A.o.%X..wXmXwX,.B.,.{ q W.m H B.B.V.).V.' q ^ ;XwXH y.2XN.N.] N g T @ ~ K g + . @ S B./ 3X$.L.W.M.V.m.m.e.V.V.XXR.4X:XD.i h ] } ^ O.] B ] [ (.{ ' T * Z.0X~.` >.0 V :.H F.k.L F u.7.' PX8.y.2.F tX4 %.d.D &.U.' KXwX:Xc x l e.ZXV B.E.<.B.;.F.{.B ,.B.m.:.C H.E.m.qXfX5X=.Z.>.gXc.| i 5.i u + F.M.,.B.,.:.M.e.>.U z.1XX.E a.| R ;Xh N wX7X4.f pXzX( > #.",
"a.^ ;.>.Z./.e.,.G. XH C.S.;.X t.Z.~ X.7X#.Q E.]._.C.~.H.F.g R Y l F ..l.Y.R.nXfXM.m.1.o.%.} f | @.f g f ` 6.] ^.H =.! f H 9 =.4 [ g 6XU p ' l.@.k 8 H J.:XD - h 5 4 Z.V.G.nX+.+.Y.Z F M.V.F ` s p.i -.m.F.D.C.V.yX) %.*X<X2X@.q.V.{ t g t y Y N & | < < % ! F [ eX3X0.).B.m.m.,.V.:.` W.F.7XDXt.y 1 i b r.%.g.F ^ *.w.yX2X_ h s ;.y.] ; 3 V G x.z.k.[ G / -.0 OXnX' H I.V.J 7 & @ % D 5.T.i ! U j.Q M.@XV H ,.Z.m.OXV.V H XXG C.H.B.D F G.-.tX,X( , ] 1X7.} u P 6.B.`.p.V.m.C.A.Q ( ,.:.*.%X[ X.+...| P 6Xf.*XDX1XzX8.i._ 5 6Xu ",
"K ! *.&.~.i.,.u.V.B.A.H ( a.x F J +.*X(.a.I e.,.,.:.q.H.` . K Y x o.i P.3XW.~.|.zXA.] [ X.;Xh.j h @ +.+.( 8 3 B.XX4 0 : ~.C.C.! i g *X5.2XAXy.pXk.-X7X~  XE. X3 j U.J A.F.V.pX~ 6.p P Z G./ s ! X.2 o 6.! `.V.:.[.:XS U U +.@.N t.} &X}.t & K N i 5 5 + ! D.L.D wXwX!.S.m.;.,.e.V.'.*.;.r.>Xk.z.d.6Xg.d.t.f +.$.T ] ] yXV.T.q.Z A.e.v.Q B ] r.H : > N &.x.B Q.}.B [ Z 6 ;.Z.S t % %X| f <XIXO.. mX!.&.,.( :.R.p.A.B.>.0 &.( + B :.u.` z H f g.v.c.2 e p f.c f Q e.|.A.VX&.C.`.D.6.] J w.B._.0X1.+.9.^ ] U %.-X+.HXUXwX! S.e i S ",
"U o.%.~ -._ [ ] _ & A ;.j 3...a.7.a.l.8.~ c e.:.t.}.`.,.g.P 5 $.% / g e.P.0XqX).M.L.l.>.q.$.K k.%.t & i Z D.[ F A.H 4 a B.E.a s 7 l I.t.).5XSXe.k.;Xw.K -.s.C.G.] t.H.-.Z &.6.0.;.U D > M.6.] K c.o.. 5._ G.B.V.A.9.;.P u + F hX3.9Xq.e.^.N M M B M V.M.q MXrXo.i.lX(.v.-.,.;.V.T.L.nX1XI s.;XAXf.K a.U K.h a.K f 6 f <Xe.' w.A.R.O.X.aXmX_.G [ .Xf $.0 8.a l.' iX~.M @ ^ i f : i S 4   ` _ %X$.C 7XfX}.5.m.D.].V.u.m.'.{.9 S = ` E.g Z Z U d.f.8.P 3 k wX1XE - C V.H.V.JXp.=.XXL.^ P 7Xq.T.T.mXs.A.V._ 6.| dXDXf.K 6 p K + 5.d ",
"+.t.U f.c.*XO.g d.g g 7 } [ %.7.i A ` g P f ;.w.yX9 K K r.! f h Z 6.f I.J ,.D.9XrXJ.L.q.$.h.U j l.t @.%.7.M.G._ <.s & - }.k.@.: ;.l &X` 6.P.Z. XwXg /.6 :X7.C zX<XZ.,.r.w.` 4 A D 4 G ' 0 g ! h d.K ` q N F.H.A.yXk.$ ! y @ @ D }./.N.oX|.e.7 ] s # $ e.F iX8.p.<X9XjX>.e.e.,.u.Z.8.L.zX8.:X>XU O.O.a. .A.E K N.$.T.p Q ] [ ;.^ U.} 5 ! {.).P.^ d B XX/ I ~ rXSXn kX/.6.I 8X#.u L.).E ( NXu j iXS.zXe.M.5X^.C. Xe.S.m.A.G.' J 9 H ~ f 8.O 3.I c.[ N E Y.s.5.9.8 G H ,.V.,.B.iXy.H Y.R f.:XA.B.M.V.H.N.H.eXG.eXi.q.y.U :Xi K < A ",
"L.).wX1X Xl.9.8.| g y.B [ _ G.G.t.7.X.0.P R [ n.OX;.] g y.~ p a.P >.^ L T l.S.~.^.3X+XP.6 d } & +.f @ t ~ ! t.eXd :X8XM uX8X~ , S 7.e $.r.0X:.E.[ y ` pXX.2XB L l.~.:.D.` -.Z $ # p 5 & $ : *.3.o.L V.A 6 A.~.{ SXc.3 e.h L e c -.B M { V.^.G C M H M q :.:X^ K.l L.S K B.e.e.D.2X+.U.` [ t.[ ;XdX%Xd.%.K.U h [ ^  XO._ [ ] ] t.9.r I P A bX<XxXP.p.qXqX&X*XZ |.M.B.m.y.;Xt i < jXvXI 0.bXr.X.O.*.8.( >.).E.V.m.V.w.>.'.fX*.D.G.( d.!.] A p < 5 5 > k i 1Xa.I.,.>.[ [ [ } u 4.3.h ' DX-Xj g.K ! e.F. X^.hXB.C.H.` zX' P.o.K ..x.",
"F.A G.0.p./ d.| f.9.T ` H * M.V.^.C.C.E.K.;.e.E./.) ZXpXP R ^ 6XDXmXL.a &X6.,.B.` *.M.kXT VXY @ y u j f : !  XM.V J N 3 =.k.X.@ > ^ T f qXC.` }.M.^ g.i.mXH bXC =.C l.+.i Q i K [ y e.N _ s D * ; Z.hXS 7 D.C.vXZXCX#...Y U v | v 9 Q { ! [ ^.{ C s ' :XpX2Xc uXk.O.z.f ^.C ;.P.~...0.' ! P.Z.N.u K R K _ i Y _ _ T.g e.! ^ _ ;XVX> u W [ Q.o.FX` H ! zX>.j 1 / (.W.p.bX+.5 + p S C.P ! JX5Xd z...+.P ,.fXV.C.C.}.G 3 J m.` ( *.d ' +X>.V.5.9 s T c t g.c k O.s Q T K U &Xg.>Xd.I T g R %X..7XHXHX5.e.Q.AXm.n.GXVXG.A.e.Z.0 D T ",
"H.P.h.%XH.nXE.F.! f ` '.kX* C 3XC.M.V.C.] l B.p.' -.m.'.=.=.R U &X:XT ^ ~ d.(._ yXwX^.tXi.=.Z.;X$.K & & p T.T.iXa 6.~ 0 9 wXa.K + C fX5.9 >.) B |.[ 2.*X^ >.G g.x X.( p.$.E.}.A.` ! ' ;.C s.` 0 =.9 A.:.0 M.{ ) ZXwXY.a.Z t., *Xc A F N.8 + 0 {.` 3 C f.&Xd.X.>XwXz.c.s.#XH V.A.S.U ! Z.*.Q >.;.L s 8.h.<Xg t q.*.A.6.S ` ] y.d.zX: $.I.wXzXc.B hXP.,XCXp.7.f.O.2Xl.mXcXg.f c | !.~.] S vXwXI.U 7.7X! !.R.F.C.C.kX+XH Z B.# + ( =.` D.oX] 3 ' o.<XY.5.eXk @ 7.X./ ] y.A.C qXfX/.A.g.R %.U z.%.R %XpXz.9Xe.<.K.=.A.(.eX) rXL.;.>.",
"[ o.! B.,.oXn ' q ! B.V.,.( q :.m.R.V.` ^ =.u.,.B.V R.zXE.;.iXlXzXJ.H.M.A.E.H.~.V.F.D.G.hXQ.[ &Xs Y & j @.] ! ] ~ Q I.V.J.:X& A.9 E u.).!.` G q H H.>.l.P 8.s.8.j.Q G K.w.P 0 M._ B H 8.B ` B -.9 d Y U.P w.a.pXZX~.`.<X6 - c.j.5 5 ` q 4 $ 6 ` $XA.' 1X4Xz.x.5.t.l.<X3X,.4 ' H n.8.! V.e.*.e.e.y.q.r.X.y.^ U N.$.*.T.V e.T ] ^ 1X:XM.~.<XSX[.<.R.t.!.Z.NXx.I j.g.eX!.L.N.l.a.p ( ).(.p.GXx ^ @ 9.5XhX5XC.w.V.].F.}.3XM.&.` # $ l 5 q gX,.M Q L <X2Xx.rX6.~ M.) ) e.,.$Xl D.e.D.A.wXG.{.l.) N.g.7XUXf.s l *Xx ..5.k.9X@.rX@.[ $.",
"+.n.:.e.n 8 B B J m &.Z.yXoX*.J 9X+.2 ..,X/ wX8Xw 0 X.W.&.' /.H.JX7Xe.S.F.C.C.V.S.XXG.( S._.hXB VX6X@ % ;XU.(.N 8.v.x qX}.#.: NX,.d ~ G N 1XN., 0 9XyXw.> ~ 6Xp.,X[ ] A.e.{ J F.w.[ 0 ! G F k.e.e.p % P h K.L %.0.SXV.[ Z - iXY.b i A N y   6 H N.<.K.2XU.p ! ;XcXZXcXGXJXPXi.$XvX:.V.V.A.V.C.B.R T _ R q.] ! M.*.t.[ G.t.^ 8 s.mXw.F.jX3Xr.J.Z.S.GXQ.:.SXQ.:X7.+.%X5.D.rXi.6X6Xi J =.p.kX0Xp & _.R.}.S.<.E.fX&.H.vXE.w.y.~ 8.I.c !   9 i.f W % 2X1X6.!.T ;.E.OX` ` :.^.7 [ ' ' :.:.@ ` H 6 ' $ F ,._ AX;.Q.VXiXL.f sX} +.i t Y ",
"_ ! _ Q.,Xo.m ' J Z.w.*.V.S.` Z.oX*Xb c.I.<X>Xd.z L.k.o.@ 8 ~.S ` +XiX/.,.D.oXV.,.J.M.S.G._.NXr.[ 4X| % 1 U.M.[ H ) : K.T DX .<.hXF :Xy.B Z.H Y.P.T HXqXG x.~ ).A.MX^ i.~.N.# ,.B ^ ;.V.` H B !.D c & z.DXdXt U &X<XC U.$ # T 0 w.] g q.g : b e s aXwXiX4X7Xs ! ' V.m.J.m.m.m.G.=.M.B.B.V.H.B.m.P ..5.Z.V.M.[ e.Q P.6.B.,.! pX(.:.;.Z.qX3XS tXBXzXl W.*.fXGXW.I ^ O.S n.P rX2Xh.5X-X:XS.E.BXa.k m.).D.P./.A.V.C.fXvXi. X,XQ.d T l.9.r.:XI.| l 6 U ^ D / D rXu./.D.*.^ [ x ! 8.5 ` A._.Q G s ;.q.i ~.T._.tX` <XSXHXlXwXa. .R K U ",
"7 9 ` F.B.>.5 -.,.` e.#XV.m m 9 _ t k %.4.g.s.s.p c *Xd.| ).rXXXS.m.;.B.,.u.F.,.V.V.V.}.B.H.~.yXtX2X$.i % 6.M.n.&.;.@ (.  i P ! $X! N.a = l.[ ] T 9.0XE.B.:X~ u.H.vXcX`.vXfXL S.] X _ T T.M C ).+.Y +...N T *XK x 0.$.rXU.s D Z P.jXG d ..# sX2XI.w A.@Xs ^ t.*.M.M.M.V.G.V.,.^.R.,.B.B.V.&._.`.k.Y [ V.H.C.;.B.l.;.] B.>.l.d ,.V./.qXwXGXS.OXlXNXL.V.S.' ^.Q @ 9 f @ :Xl.I.r.O.8.q.AXV.>.NXE X ! L.e.R.C.[ B.^.m.F.:.B $ L.h S z 6 J ' *.i.+ ] k.U.Q g.v AXjXU.i.( P ] P ~ ^ Y.%.[ 3 t.@.~ lX(.D 9 B n 4XvX<XcX~.M.A.tXI ..g 1 ",
";X@ A 0 9X;.F M &.; D.E.J.! J &.B.g 9.c a.+.x c z.e O.#.%Xp.0X_.Z.5XM.B.B.B.B.].S.:.V.XXC.B.F.H.H.y.T.P ;X! <XqXF ` K t.v 1 B.Q @XyXT.$.$.] iXHX7 xXC ` G.kX:XG.V.XXQ.XX5X|.p.3XD p 6.7 d 9 XXP k j t %.+.^ d...K ~ g AXU.i.@.9 7 ~.zX8Xf i ~ Z.;.0 0 B.] 5 e.B.B.,.V.G.G.'.}.t.B ,.B.&.,.~.~._.Z.y.' N.V.&.[ ` c.L.] H.! r.-.M.G.M.e.V.bXR.` '.CXZXW.cX8.#X*./ @ A p d.%.0.+.i.A iXSXS.F #X3.l z w.:.D.D.V./.GXw.vXhXvXp.T P T 6 d 5.6.VXHX6 7.L 7.k.W Z ` G.t.w.L L s.U + ~ o.t.T x Z 1X6.e s m C 7.wXM.d 6 ~.^.F.G.}., Y ;X$.",
"SX2X..C _ Z.[ OX] V H &.,.H ! B ` < 4.;Xa.%Xj j.P +. .e 6Xt BX_.V ).,.e.,.e.C.}.e.e.M.B.H.` q [ e.;.e.%.t.i.B.kX[.` L ~.5.T F tXA.{.e.HXy.H ,.! V B @XW.P.Z.MX!.*.&.D.Q ;.u.(.GXS 3 [ P s L K.1Xk 1 d.+.O.h.%Xj 3.f.%Xg.pXuX8.P 6 7.uXE.5 r K d A.A.M }._ C A.G F E.A.B.E.G.T.4 ( C >._.F.~._.rX9X$.Q [ A.fXL.G.K.e.w.[.A.( >.B.M.S.` ~.vXR.].cXzXeX2.S.JX`.L.' A.8 5 #.U T P ] L.3XeX!.H ;...e.}.$XR.m.C.V.R.>.hX5Xe.Z.J d % J *.Y.0.wX8XG +.> 1.v !.9 Z.9 2X[ P g 2 : @.%.| x K %.c ..X.aXX.&X:XW.>.T.G.AX5 - V.:.G HXa.=X%.a.",
"q yXyX<X^.` C E.}.z D ` ! E.C V M.1.+.p ;X..f a.g.X.O...*Xb L 6.:. XP.,.[ >.e.V.*.- o.V.jXi.s ).' ] I.T ] :X!.) hXZXI.9 rXw.q 2 :.P q.7 {.H [ M J &.9XXXfX:.9XlX`.D.B./ 0.).qX_ V.7 `.6.J ! l.] d.@ K %.%.^ %.%.*X&X6XpX;XuXgX`.nXg.4 l [ 6 ..6.Q [ J A.hX! G.G m w e.A.$X>.X.P B.2 f ^ e.~.eX~.H.A.w.w.H.l.!.<XK.M.e.G.'.i.W.V.B.G.)._.0XB.m .X3X3XE xX(.4Xs.~ ;.[ d.K i ~ K >.P ,..XgX] 6.f &.C.,.9XG ,.V.M.R.0X,.hXvXXX7X+ ] I.9XpXD.<X;.x 1 X.+.0 X Z hX;XS.3 @ h o K ~ j i s.;XU x.O.p.t.<X7 B.d 8X..iXi.>X1XHXmX:X;X&X} * ",
"# V.qX~.[./.B.P.yXH.M M &.H =.&.*.1 ..b 6X&X+.s.1.8X7XdX6X*X6X5.m ].m.;.] :.e.E.E._ @ L o...+ V.B.C *.& 4XuXeXZXS.B.yX; 3X5XF k.N g 7 * *.B.' *.jXe.E.~.n.C.4X_.0XJXjXH.G R._.B.>.s 8 Q ] q.I q 6Xh & g K ^ U %Xa.a.Y N P 7X(.{.-._ ! A ` ~ p Z T H F.M.yXF ;.Z.kX% O.7.' P.1 l S.U P | i P.V.B.M.V.C.,.KXQ rX(.,.H.D.C.~.>.&.,.e.^.`.bXBXA.C .XvXNX+.4XiXiXX.6.A._ ^.1.~ U ~ D.U [ }.jXl `.0.e.m.E.,.^.Q.&.B.V.C.:.E.kXfXKX+./ 5X~.~.wX`.{ U t u i 5 6 @ > N.q.T & h j *X&XU t c O.+.a.x 7.U 6.g Z.6.x.q.}.:.) @ :.F _ w.9X8XP ",
"^ A.P.V.:.tX&X: ] T A P.B.E.] F %.p  . .6XDX7.+.d.%Xx iXSXj.&XE.u.A.XX~.*.;.J +XhXo.| c c z.I 6.5.H 9 ' B.rXZX`.jX5X!.5X+XW.e.:XZ i y #.zX7.e.F H 9 J H ,.zX`.cXeXn.bXQ.u.V &.zX/.g i s (.7.T 1Xs.g e %.g R K R h K +.N %.;X:.hXM.e.T > Q @ U ~.OX4 ( ^ K : # N.*.5 i ^ t.,.;.U [ 6.~ f U [ V.M.H.V M.,.:.B. XqX;.V.G.E.^.W.u.e.F.C.+XbXeX).(.p.[ n 9X;.6.VXk.iX!.;.$X!./.C 9 R.e.*.C.2.p.}./.}.{.C.M.].C.5X:.&.:.` N.e.m.;.N xXa.A.tXDX2XCXg % g Z 3.5 q T # nXq.& L @ & 7 g P X e , wXc % 6 i w.:.!.e.` B.' F @ 1XU.' A.A.$X%.",
"< (.H.:.eX5XmXd.P h.i q.~.[ x g.d.s.;Xo.tX! G [ ~ %Xj D 5XJXw.;.B C.m.S.D.F.V.u.cX6.% ..c o.x F tX&.3 *.G 9 B.^.;.lX3.yXH E 5 2XT c f.u >X4XbXI.C.B.i.J !.<Xt.S.B.S.A.D.{.;.B.FXFXs q (.6.7.' d.y.VX;XVX%.%.K U f.~ P U | j ` ^.#X^.H A t s u.V E.:.i D oXK.6 ^ ] K ] 6.}.e.i A.H.Z.$.g g T H.V.J.V.B.:.H >.n. Xp.:.B.V.}.].W.S.C.`.eX'.9XW.'.eXXXrXI.6.q.4Xg.r.l.9 G MX:Xe.~.C.:.,.G...:.{.;.C.V.B.~.).>.R.tXL T ~ y M._.U.%.G.>X&X+.l.>.:.2Xj #.~ DX%X%.% N 4 P X ~ %.f f R i g j 1 ^ ~ I U 5 Z._.<X:.|.x.6X*Xx...Z U.tX' N.}.",
"j V.B.3XbXuXq.*X;XH `.a.8...g  XA 4XSX6.B.F.H q.~ 4.6X#.k 1X&XC./.m C.>./.m.[._ 3XL.X F >.x U I U K.4 n ] &.B.R.yXo.P ~.V._.U zX7Xp Y 8.7XpXHX^ BX&.9 q w.c.eX] l.~ S >.eXzX:.R.yXL.i i.9XU.l.q.rX2Xq.{.PX4XDXj i 6.o./ +.x [ F.-.yXF.! @ s H ,.! e.V.6.+ >.0 -.- [ V.B.F.e.U 5 M.{.y.~ j R :.>.B.J.E.<XW.W.,.V.S.` -.C.B.vXnX~.u.m._.5XW.~.gX=.E.H [ L.6.A.&Xf.:X- 0 H P.lXu.Z.D.C.Z.(.*.8 c.V.B.e.e.R.:.;.n.;XA A.%.D F @ ]  X5.% &Xp e.(.L.u P @ Z @.;Xf o.3 ^ & ~ @.N & @.5 h g 1 Z f.@ g s yXV.-.e.HX;Xg ^.-.n K #.P ` H n.",
"x ,.nXl.XXN.U U &X7Xl.:.i.I B.V.E.M.vXSXQ +X' ,.6.6X%X>XpX| Y Z.G _ C.m.m.W./.0.).NXJ r./.d 2.$.+.o.;.V > `.e.V.H.5XH `.C.NXL.! L.: & D g T yX' kXvXAXI p.XX%XK.t.j.f.K K r.M.yXhX0Xr.k.<X:XV.< BX^.3Xy.(.].=.*.c.).>X6.U K $.{.V.H.C q.@ @.U.] s I s.g.f T P 6 D :.B.,.B.e.8.v 0.L./.Q r.p.].! V.B.V.B.T.~.:.M.V :.E.C.C.V./.].<XF.lXzXfXNXZXw.q.] ! &.I.G.t.X.I.=.*.-.~.bX3XeX~.S.`.D.:.( 9.,.:.E.B.m.F.9Xu.1 r.] :.}.P J B.cXrXU 5 r.CXM G g P f 2 X ~   2 8 0 < x 7X7X#.DX;Xz.%Xk rX+.& t L._.uXD.,.S < R d %.} 0.GXk.D.+ Z ",
"Q s tXZ e.Z.u 6 g U :XW.-.tX{.E.H ] U +.8XHXn.M.! dX%X# [ d d ,.n.e.V.C.}./.NX( ` p.D.A.A ( /.Q yXT.F ` V.V.e.m.C.E.E.=.B T ).) e.Z t.] L %.A.e.' ` kXQ > f Z.CXnX%X:Xg.E } d ` kXJX] C ` 9.G.`.~.}.rXQ.v.(.'.vXcXxXL.wXR K *.Z.;.@XMX9Xo 6.d ..A.R.D.&.|.^.).0 /.~.C.:.F.A.r.~ i.p A JXNXNXP.,.F :.#XB N.H.s 0 ! ' ! C.V.F.R.fX7XS.oXjXi.C.^.PXbX9X<X`.Q.E.;.r.uXk.' 8 -.0X`.D.fXfX).R.T /.).R.;.&.V.V.n.B.P.L I.2XL 0 H G M.E.<Xo.8.~.$XA $.w.d h.4.e h % p f s f e &Xf f.S $.^ 3 & M.T 8.Z g.J.lXB.V.*X] CXh.l.<X1 PXtX/ < ` ",
"F.j q G.t.A x i a.a T [.).&.B.B.q.R 8Xu %XzX9XB.F.K ..k ~ Z 0 V ` m./.~.@XC #Xe.B.0Xp.|.J &.@Xm *.jX X:.F.F.E.qXvX` B.fXZ.h 8.,Xy.6.F.e.] Y.e.:.` J A...;.*.J P [ K mXpXg.>X@.6 ' NXNX(.-.S 0 R.&.r.: (.v.:.'./.e.B.! (.;.+.Z.` V _.hXyXt | i Z.E.Z.).w.T A.[ _ S H.C.M.B.D.e.A.qXZ p Z.E.#XzXW S.B.e.kXH #Xw.Z.8 }.&.C.V.e.{.lXNXn.V.G.vX` D.0XfX9X] @X%.H H >.lXAX*.` 0 `.&.n.n.-.B.P.` vXA.`.fXz ;.m.:.:.] f 9.mXVX:X( P.M.` Z 1 C F. X$X5 q.A.;X7X2.^ % p , a U  .d.N f K.K.%.y.: fXM i.] ' ).9 V.I.O.w.X.z.vXxXS :.I.Z.V ,.",
"jX% t.U ! O.8.s.~ 6.S E.5X+X! Q g 1 @.} p O.).[ B.$.7X&Xg $.T -.3 C.n.).hX&.C.R.8 S.:.].~.8 B.OX] S.XXC H Z.~.0.L.'.M.}.E./ ] 0 ' k.W.V.Z.Q e.F ' ! B.+ D V.| Q ! L [ w.VXiXO.S a w.].9 7X:XL.i.y.9XMXp.).XX].C.e.W.>.:.G.B.q.e.~.V.D.L...y.H.n.V.'.F ^ f g Z.>.H G.B.C.B.,.M.V.E.9.U ] V.E.vX<X<X9.P.0XU >.T.B.C ! J &.,.m.R.0X3XZ.M.B.V.vX3X).).L.` :.( B.  B l.~.( z # G.D.;.~.w.Q {.] A.D.e.kXO.z &.E.0 N 1 s t.F.C ..V.S l s.: A ,.|.J [ VXIXI.P *.aXI f 9 : 7 5 i +.g ' $.P lXP Q G.:.M ` (.E.&Xr.9.d.f.,XqXmXP.p.f.v.,.&.",
"`.< @X8 F a.! C H -.qXm.V.|.9X6 K a Y.O... .mXzX$X) M H.@.i C A.V ( R.).^.;.).W.8 nX3X!. XV.H ) ,.] ,XB.J F J =.:.,.M.9X[ M hX(.D.e.3X_.}.n.}.w.XXH y.Z u [ x.'.H L.v.Q [ ;.h B (.j.+.g &XGXLXS.9X0.~.! :.V.B.R.XXD.C.P.;.B.H.M.9X,.|.hXMXbXbX! m.qX;X2.| x ] e.F.B.>.B.m.e.<.,.m.T x 5.~.NXHX*Xa.+.~ 7.q.,.yX9 6 B V M.&.:.XXfXbX,XV.[ V.B./.W.tXwXF - 5 C M . D.nXt.z 6.V.|.w.#XF U n.+XP - W.S.#.E.8.[ q B 5 AXHXp.( 2.:.d.L.E.w.` ,.vXH.T.@ D.3Xr.9 ' 9 h s 5 d @ & @.R ' A.3XK.P.4X:.;.V.:Xl S.6.p.d.r.L.XX~.m.V.oXx.D.fXtX",
"L P |.F.U.9X9X_.XX~.*.:._.).NX9 f +.Z h R k f i.|.J >.8 i f + >.H &.]./.^.Q.!.JX).n.XXR.R.hX&.}.,._ ~.g K.z T cXV.e.M.|.:.:.S.,.H.OX`.aXH.A.F.3 e.V.=.*.@.> F ( G.tXZXI.u ! 7.$ ] r.@.6.%X0XqXn _.p.P.; S.e.e.V.^.W.E.).,.&.M.B.A.R.B.G.9XgXGXp.m.L.Y.r.x Q e.;.V.V.E.u rX9X,XP.(.x L y.,.J.#Xl L U 5.X.L.-.J.B.=.; S >.J e.,.,./.'.k.,.-.V ` M._.R.p.q U.wXz.+ > ) l.I 7.{.B q :.:X~ Z 0 :.;Xg.4XW ,.NX#XE.nXeX~ n.CX5X,.Q i B.B.B.F.! ! $X}._ O  XM.6 H Z h.h.1X/ @ 7 R A.rXH.B.gX Xw.P U g.o.: zXu I.g.L.D.R.`.FX1Xl.=.,.<.) ",
"/ ' ,.E.5XW.V.Z.`.` `.Z._.>.yXe.f y U.} % g 8.i.M.B.0 ` d g + ! w ` qXB.,.).k.9XC.M.A.V.V.].E.=.yX,.T x.~ 5 s e.;.[ :.A.S.B.rX~ bXzXM M.R M w.[ x.u.[ s.S g c.r.mX_.lXS t.f T M.` 0 H 3X%.s.5.t.FXs A.) <.;.,.P.D.:.!.^.z u M q.D.W.n.B.,XB.y.~.n.B.J.3X8.>.F.C.H.V.|.l ` r.s Z.e.g P ' B.H >.> x g 6.+.g B.{.G.y.B.z Z B.,.:.:.W.eX5Xe.#X' 4 S.V.vXL.P t.FXmXd 0 ~.v.L c 6.h P h 5 l r._ >.NXBX_.2.0.4 H }.#X<Xw :.m &.A.7 , V.E.C B.@X_ ,.G.A p > ` W [ 7 ;Xw.d F + V ;.] G./ e.3XM.e.% ] yX;.]._.b W.(.A.W.Z.H.nXbX_.Q F T x ",
"0.,.) ).uXV._.'.).V.V.B.,.M.}.OXq.5 , 5 Y k o y s C ' M o h i M.! G -.gXv.BXT :XP ` ].B.-.:.V.V.H A.$.r.5.X x A l.S i.,.p.i.rX@.8.D.g.H.r.I ~ A.:.E & dXX...Q `.P.S.gXW.G j yXqX`.B M./.7.| r ! ,XQ.Z.3 ! [ _ B.&.&.g.~ s.a.X.i m.C.B.rX(.6.:X~.:.A.V.qXN.A.fXw.,.B.F.i.5 h X d K ] g w.H yXH.l U K R ~ U.' G.|.D.B.=.Z B.B.B.V.`.).vXLX>.` ( W 3 ~.,X0.S.B.>.F % l.*...*X| K _.t U U ~ J F q |.3XlX0.[.] H ` eX,.e.a ; B 7 S ,.H B.F C.0 :.CXZ.< v 7X6.S 9 1 ' B.S ,.( T T }.bXZ U.f ! [ # 9XrX].cX%X&.y.8.r.*.&.7.j :Xx U E 1.",
"u.~.zX9XT.{ Q A.n.n.n.,.-.G H FXKXCXAX8Xf.o.6 x T M d : g s H ,.+X` p.lXZX0.NXJXlXs.t.&.,.` ,XD.` S.D ( Y.j  .T ;X&XL g U.a.U.8.S.S.0.E.jXd ! F.,.nXo.rXmXd.U xX/.xXyXMX< i E.0Xr.XXM.}.Z.8.  u.( ~.(.U.| x g F f s...l U ] K g :.G.C.A.JX:XB 2X~.S.V.E.~.eXD._.A.V.R.yX] g ~ f s T ..P t.i.E.0.9.6.L.Q { B.-.n.[.|.` .XH E.D.C.V.XXjXvXQ.NX;.;.5.7.( S.B.^.4Xl.g.Z.fXE s.zXy vX~ 4X+.r.(.%.o $.Z  X] ,.C C G s.B.y.7 6 ! i , 9 S.0.!.V.tXLXZ.A U >X8.8 N ` I.6 ! B - ) F.H /.:.! #.j F -.0.p.K.eXbXwXpX1 1 I h U X.@.] ! *.t.5.",
"PXi.B.XXwXQ Y.' V.n.HX3XjX5XMXV.B.3XM.g @.8.h @ ^ A & p ^ `.M.P.lXH.V.lXL.r.L.~.zXd V ^ L.<.R.9XS.tXvXW.6., %Xz.:XU 4XL <Xd.d.] ] 8.:.3XcX9X[ A.yXA.C.m.-.i ^ :.,.`.8.t.c.a S.XXi.~.S.^.>.5 o 7 a c ..I s.+.U @.U U f.g ..K k i ' ,.B.V.R.gX5.uXM.;.D.S.^.D.F.V.B.H.`.d 6 U ~ t.N | a.| Z.{ B.XXtX`.G r.U [ ~.tX_.C.H._.XX&.E.;.,.V.C.,.H xX>.F t.[ 0.5 0.bXk./ i.i.-.+ i 8Xy.A.A.E.F Y.,XB.ZX! w.u 3 @ F d 4 | H ; K f 5 X + x 6.q ,.G.i.BX#XL sX$.` a.;X# 7 L.:X7X1X8.+.V *.$.z.x +._ d 7.lXjXrXH {.|.^ &X*XX.s.f rXJXAXeXAXFX",
";.:.,.[ q.1XT ;.V.NX XD.:.<./.-.e.J.(.@.U U R % t U @ Q 4 3 M ;.D _.tXZ.{.,X4 ) yXC 6 4X4XrXG A.w.~.`.3XU...U a.P @.y.s.l.Y f.mXI.` D.L.[.`.W.B.LXe.n.J.NX0.4XC.R.*.' j.a < E.D.}.'.SXQ.mXr.*Xs.&X#...&Xs.c ^ e.Y *.3.K g +.a.Y 8 ,.F J ;.zXnX..:.F ^.~.|.H.6 B.qXW.{.i o h o.T $.%.*Xf.aXB.L.cXAXxXxX&Xg q.` :.e. XG.B.,.H.;.* D OXi.B 9 U.v.B.V.k.$.o.| 3.:Xf S ' 0 ^.Y 4.T ,.:.).mXbXeX).XX(.H ^ g 4 F q / %.L.% , g K f.A $ <Xx.rXp.M.{ hX8.K %.y.! e.n y.P.-.` F - q f . 5 % ~ r.i N | 9XA.H.,.J.H.$XvXwXV.tXH.tX].vXH.CXAX",
"~.q.! ] q.~ ^ [ eX0XR.n.E.A.H }.tXF T.&X+.9.~ K e h +.{.n + 9 D.i e.;.m.N Z.>XS.W.).,X:XlX_ 9 yXB J _.qXT 6.9.j.$.I o.%.R +.g q./ ( ] E.~.0XD.H.}.w.n.E.(.,X=.&.C.L.T ;X>XrX>.C.^.gXZX!.C `.R.'.1.*.7.1XmXZ.i.F.P U.f A s 6XO.pX3 ! J V.V ~.cX' ,.<Xu.' B.M.C F >.S u.i : . s 3 c.8.d.%X8.rX,X&.! 9 M.U a._.Z.~.A.qXrX;.M.~.y.: X A ~.n.Q 0 rX-._.3X! I &X6X*X<X< 9 J V., %Xi H [ FXeX,X3Xi.B.$X>.F } 1 ! B K.3 l.@ @ I o.~ i.1XZ V XXjX~.A -.e.^ Q T.H |.` Q M.B.t.5.C K +.%XL.D U @ f.t @ $ 9 ;.n.H M.{ H H ' A.,.4XV.M.m.V.G.",
"8.>X1XP T U ] ! 4XrX:.S.B.F.~.V.vXs ;XP K z.X.! + r.).NXqXL.o.V.> S.|.$.f S | /.lX~ fXl.K.B.~.B.rX0Xu._.V.l.] s.c | } ..4X%X..Q <X] H ' M.A. XV.`.vX) jXlXAXCXl.E.,X+.[ m.W.0.B.~.eX!.;.B 0.mX~.kXwX1X~.~.V.D.M.<X;.x Z.P.C t S !.-.P.` -.B K.,.J R.] ,.9 ,.' # _ $.5 K h @.K M N.N.$.8XwXaXjXg.U } U ^ g.F ' ,.` G ` H ! ^.^ : t # &.' F B U |.p.H i.#.} U h wXe 8 C :.1X& U K.;.OXnX~.rXU.N.oXe.6.f i S ] d. .Y.t @ 5 (.T._ `.).` ,.0.] i l.$.| A.$XM.'  Xn H.' l.$.2 % & } x.& K I a.& i (.s ,.Q.^.0 :.-.).V ` :.F.V.D.>.e.D ",
"z.>X5.l.[ h ~ 7X( 8.d W.C.F.).D.@.+.>XU l R %.MXxXp.t.;.C._ g L.v.vX/.oX1XP.,XjXSXx R.Z.;.F E.B.*.J e.).B.^ 9.f.c d.f.*Xd t I 2Xw.6.Z wX) ,.[.E./.E.L.V 8 V 3 / 9 f ;.w.! W.`.W.5XjXqXMX2XZ.`.] J >.) ! ` ,XM.q.h.N.K _ iX$.x 0 6.B.` V.H L.M G 9 ] P.9 >.C >.M @ ..t ;X5 < N Q <XT.G.t.<Xi.2Xs :X^ ^ T o.1Xd.lX6XpX..*X+.U $.| u o @ s ( H e G W.[ wXd.u : K @.8Xl Q mXd o.+.;.B.V.F S.~.[ q.0 o.d 5 c.F K %X< k.h 7 A S w.;.P |.F H l x ] P ^ q.:.V.F.J.^ D 0 ] aX(.I p + X b P ] 9.z.Y % C 4 :.D._.0 = 4 ,.$.` ,.,.H.bX6.$.&X",
"4XP.L.,XHXpXr.:X(.! n B.B.E.~.!.Y a.s.sX%X!.`.zX@Xe.V ` }.` &.D.).6.z w.).e.).gXDXt.E.~.A.: ;.].P G.:.V e.o.a.f. .=X6X&XAXx #.[ w.] : q.i.[ n.(.F.M.0.d 8 , =.x.+ > G BXC ^ 9X_.9X0Xw.ZX:.GXP./ l.Z.Z.qX<X[ H.t.+.0 g U 9 x. .S p.i.:._.tX(.0 M ~.0.F A H.~.] f : $ ' yX` K @.g $.:. X, ( U Q.G 3XI.o.g x V.L.}.^ vXdXj.] e.D 7.o.7 e X > B.~ B rXXXPXa.& % h q pXg.T A j %X+.s M.}.H ` 5.!.# ] (.y.0 A.` xXx B A g p U.6.] ! K.+Xw.! I +.,XZ.B. XV.M.M.@XS.( &.U Z.q K x x 1 s.e L 8 wXO.> OX>.8./.`.G 0 q H V.0 V.:.P.x.[ 5.O.",
"iXMXlXzXeXMXI.P.S.<X_.,.qX9X'...%.O.P %X/ F.XXB.V.E.F.B.H.qX>X8 qX=.f z ( R.ZXSXgXBXS.E.^.*.3XV.7X4X0XT d r.7Xa. .b O./ yX*Xr :Xz.r ~ D Y T ,.V.E.HXF.Q -.P 0.`.E x o.BXm.q w.NX`.(.&.A._.|.H.Q.J 4 w.5 P.6.s _ h.e.a U h s.k ! ` ZXI.o.-.M.H ! 4 NXZ.L.S d /.[ 0 : M ` F.g @.+.g T.<Xk 9...(.B.&.t.$.x.tXvX' V.J.V.kXd.e./.,Xy.T ! | d +.oX] 9 ' B.nXsXU @ u Z ] ! < I % | g.F 0 -.M.{.V [.<XB F / H t.q.lX,X4 [ h P L.> @.* P ,.L ~ P Z u./.M.G.H.B.S ! q.:X|.}.V.N.j & % K 5 @ 5 a 3 VXD V bXu.XXvXcX` q i.,.<.Q.wXY.T.t.! :X",
";._.0X7X'.' F 2X*.R.>.).A.W.B.U ;X*XU ;X_.q ,.A.;.A.B.H.}.~.[ i 6 wXI.6.8.V.[.bX).bXW.G.H C.fXe.T C.KX(.W f.k.8Xh.5 X ~ N @ t P 6X*Xi Y U D e.G.,.ZX{.<.A i ! V.lXS   B.C B H e.v.m.'.P.&.,.-.V.R.H &./.w.XXQ H P.d ^ g i ^ } e.;.' q.s.[ A.B -.C ^.OXtXC 3 z y._ q 9 e.` L L.U ~ x t.# ' XXe.}.V e.XX[ [ /.B.{.W.,.S.v.P ;.oXW.q.G.+.9 f t.U C V oXP c S i : y. X$XT %.p 6Xs.S.r._ k.F 8 V.o.B ] i.0 &.tXI.;.d H u.H @X^ , c p.P Y K P R ] B.T.R.V.R.e.@ 2 B.B.+X` yXU p I ` q.8.~ r.C H HXPXcXZ.S.J C 5.i.AX;XiXDXiXpX( D eX3X",
"SXeXMXZXD.9X&.i.q p.3Xn.;.,XF / =XO.q.H.V.>.Q NXS.K.- ` -.V L.Q 7 ^ S H./.' H.#XzX(.(.e.*.,.B.:.Z.}.FXlXo.<Xs o.q.y y ^ [ %. .5 4.K x ..x P C.,.&.7X:.yX^ g B _ 9 9XV jX,._.).9XH `.D.Z.6.` /.,.{.=./.ZXQ.`  X0 M H ] i.l y y g h %X>X. & Z.A.! B 9 >. X9 d q 3 C _ 9 w S.2.> L >X0.A.F B H H.' ` [ :.A.V 0 `.<X(./.!.L.*.m.B.hXP.;.U.U %.e.7.0 8 ] 7.4.1 o.o.d T xXy.[ % 1 t I q.L.~.[ N -.8Xd U q.i.W.CX`.8.V.! y.Z.ZXDXs.W u P Y ^ R w.T -.M.V.R.R./.u 6 C.,.tXwXHXf ~ %.' ;.2X[ rX3X!.` ,.M.R.J }.F q ! Z A M.:X<X7X` 7.S.CX",
"' ' P.W.GX`.P.] B.9 -.' S l ~ f.).*.n.eXIXF DXJX0 pXx _ / V iX8XAX+.,XbXH.tXwXB.+X6.~.E.Z.,.B.:.` V.<XCXI.p.T e AXf N h VX..+ pX< t ~ K ..8.` rXcXfX' M ;.Y > 8 4 ` 0.cX3XZ.P.bXi.~.V.R.B.[ B.E.A.R.oXeX[.H <.B.q.M E.` P ~ 1 6 a.g.P B i a i R wXT 6.#XB > l M.A.` 9 >.! ( vXB.H #XH F.hX` }.;.q ` H.kX0XP.9XeX!.|.` 5X:.H 8 H g x : t.&X9XA.0.V.,.Q.a.< i ;.;.# A p.CX7.& i j T H.^.H.x iXM / > P r.( D.fX- C C.y.W.C.SX1XU.6.Y ~ ;.[ ` ^ B.M.e.m.V.kX[ f Z B.....S @ % y x.F B.:.5X3X_.F.' V -.C B.>.[ F 7 K q.i.@.e.&.0.MX9X",
"(.i.jXP.M.|.NXc.JXi.' :Xs l U.S.vXV M pX).CX> :.0.s I T l.s./ f nXzXHXqX3XM.n.v.E.k.S.B.C.B.C.[ ^ lX(.zX;XlX,Xb Z.j @ + w.K  .S U , f U 8.T zXu.e.hXI.e.L j 0.7 9 M q XXBX&.y.zXC.C.>.e.V.C.u.m.e.Z.F.W.R.G.V.W.Q   ,.9 V.] o.f c U T q.: 3 R %.H.B ! _.U.5.F - M.' K.t.FXC /.'.s H.' ' ,.n.,.9X_ Y.M.P.B.D.&.wX1XrX-.W._.,.M.! 1 j g ^ ~ ~.i.9X) ' U.U i X ! A.A <XxXjXh h g % 9 B _ M.iXd y.H K.s <XH.T.{.D.9 bXvXk.P.,Xk.^ *.R [ [ T L.M.~.B.:.:.(.G.&.K x y.h R q.Y p } , 8.G n tX9Xi.0XzXl.P.lX&.e.,.@.y.~ 6.Y.t.H.r.5 _.S.",
"q Q C W.(.~.A.6.V :Xy.( f j.B.A.M.` DX,X6._.Z ` +.c g $.~ 0.t.B G 0 0 ~.B.].&.kX&.9.i.].R.:.C.Z 1XnXt./.;.wXwXI U.s.+.X 4Xi i Q y D i % i s.tX~.m.E.7X;.c.f.2X2.|.S 5.> V ,.v.&.M.B.S.V.B.C.V.C.qX:.}.:.H _.H Z =.G E./ D w.6.K dXg g ~ i + K ~ fXN.( (.-.C S 6 { {.`.s.[.eX}.V.H R.*.M.,.$X>./ T 7 B Z.e.A.h.mX7Xl ,XtXCX&.&.G.s t I f u <X: T.K.d <Xj 5 f u E.9X& 4 ! g * f 9 U ! 3XB.D.$.q ~.~.NXZ.( -.w.H W e.S.! B.<X+.h g h s k.s.L.:.C.,.,.;.:.hXC e.Y P.x 8.iX9.@.h 5 , ^.yXH Z.P.rXZXcXw.NXbXjXZ.S g T B.K ; /.J ; z cX",
"u.0 B &.G.B [.G.H G PX1.a.0.V.}.D.8XMX$.pXo.< ^ 8.b p f ( D ZXiXL 5 G B.C.R.^.m.BX-.u.E._.M.hXL.Z 0 C E.(.o.7XO.O.s.;Xe P ;X..A., ] g.P + c S.V.V./.&Xx.&Xk.X.H n.PXe.[ G H k.*.&.,.*.M.,.M.].:.}.,.C.B.w.i.:.6 6 B.[ G.o.! r.7 P t.~ U.2X/ } +.OXM.d X F K.@.Q h g.JX&.P.[ w.J u.V.E.e.D.B.0.*.s K.[ 5 [ B.+.g k c 1Xo.~.V.0.e.~.P.K.z.f fXi.0.,X7 (.x 5 f B ' q s ] ^ j X.1 O./ P L.$X:. XJ fXfXV.GX,.}.|.0.nXwXK.c.I.X.K P R 7.6X4X2XlXp.B.Q B.V.:.@X4 [ f `.6XU ] Y %.s.N . ' A.Z F.,.^.vXMX*.0X;.[ Z.a AXI.V.Z.eX`.J ! 3 ! ",
"`.s - G 9 M =.Q AXq ] 1 5 *.R.kXQ.kX5Xp 8.8.I W j c | p :Xd.7XcXv.S =.e.e.D.'.C.|.F.3X` u.V.|./.e.0 q NX<XU.[ I s ;XI 1 5.i t *.3 d D $.^ *.NXw.XXB.mXj.VX3XD.P ,X<X' t.L O.5.l i C.0.F.,.G.XXXX9 V.G.[ B.H G.[ 4 >.F C 8 S ` + [ M.e.J O.I.E > Z.q.[ l B A.A.I g xXl.G.u.S.].B.M.^.R.S.[ A.e.).d T *.t P [ %X:XO.x 9.} 6.:.0 >.F.vXB.U.f xXyXf p.B.NX7.i u x l.`.A x D.P +.0.!.! 0 9 M C G.p.<Xv.E.oXA H V.*./.lXpXg.f.j.I ~ G.wX8XxXSX7X2Xp.K 6.V.M.{.+Xn a.BX_ D.{ %.%X;X7.7 9X` ( R.qXrX_._.V.V.U ] ` a S s zX7.R.) 0 S   0 ",
"/.7 4 B <X,X-.` JXi.Z c Q `.B.V.F.cXCX=Xp 3.@ 2 e j +.I AXSX[.vXfXz w.( :.V.,.C.( ] r.D - R.C V ] V.  P.k.; P 3.: z.a.3.B , g.` S y.$.5.Y.B :.NXS.~.>X;XJXFX-.> V n.oXF + u Z P I / ! M.B.B.` ,.C H E.C ` F F ~.F G 3X' 0 M.] A d {.;.N.1.P i.J f lX/ ( =.L.Q l U a 1.C _.tXS.r.C.V.XXW.` T.wX/.o.R f t i 0.U a.} p z.O.F yXH ~.V.{.OX0.r [.~.] E C.vXiXK.U 5 j < *.T P.S I z 1X[ B u.F ` G A.qX!.OXjXE.A.D.eXeXpX*X%Xf.k.! e.M.K t.D.jXFXzXT 1.9.A.' ^.jXcXL 3XN B K.$.DX>X] 8.NXJ A.B.n.,. X&.n.A.u HXIXL.IXPX}.MXIXIXSXE V H ",
"/.,.B r.I.l.=.*.[ M.o o.*.B.V.V.B.>.w.7X4.O.j 5.e e t < + 6 :.M.(.(.wXmXr.B.oXB.&X..I.iX@ F.` S M ' 4 ~.t.9 6 & p j X.i ~ 7.6 w.6.+Xt.e.l.D.P.B $ a ` F F.w.NX[ e.(.A.P 1 @ ! [ / W Q :.XXnXNXq.q W.,.' ' >.:.>.>.G F.B.A U.g.9 _ 0 {.s U ] $.2XL.MXT 4 B p 7.f.B.x.%Xw c ! /.C.W.`.jXA.V.D.,.0X:XY.T f f ' j.} &XX.:X8.! A.m.0 V.m.^.+Xp ' qX9 . 3 `.v.Q.u.! L x * 5.S P...5 @ Q D yXA.>.) B.vX!.G.P.:.S.Z.A.o.8X%Xj.j.;.,.f ] K M.{ rXnX1X;X&Xh.H M w.A.(.*.F >.  <X:.L | yXg qX! M.u.3XJ H.` t.9XO.0 D.5XlXnXbXi.0 w.HX} F M.",
"` ~.L.y.w.w.P.2XZ L.l _.~.:.B.wX{ iX9X8X-X7Xo 7.j 2 Y 8.f %X).:.P.G.:XT.k.M.cX*.[ %.tXCXh G M.Z.C 0 : F A D.C t./.d T O.t.XX9 H C A.F.:.W.[.n.A.T   :.(.yXkX-.B.9 A.~.f p & ( N.I.8.h c D._.hXS.C.C.E.Q.H.>.u.B {.(.:.` 9XwX9X$ J J ' s U $.d 2X_.*.y.e % p i.vXS.vX7Xd *XZ vXiX=.w.B.C.C.fX0XV.U.%.g h R x K s.%Xx k.U >.H D.H V.}.~.E.O.A V.A.> / +Xc.o.k &Xr %X, @ 3 L >Xs P u 6 8 G.' n.B.nXb._.C.B.i.A.F V b c s.:XP U L e.V.H.M.T.S.tX1X%X6X2X] A.|.H ;.>.<.L.B $ l l M.,Xw.,.' |.GX(.JX'.r.U.wXMX<XXX:.A.M B.lX/.iXF - 8 ",
"Q H CX3X( F.0 s p.T c.~.3X_.lXNXnXQ ~ <X%XB *Xg.p , 7.f.dXAX3XH.%.^ l.qX!.OX-X^ Y I.KXL.6.6 XXZ.;.( H V @ P.^ ^ H.n.wXZ u.C ^.C >.H.|.! # B.E.OXr.q ;.-.~.B.! d M $ 6 ~ % a B q e.G.6X< /.u.) S.C.L.}.V.H.{.' 5.e.H.F mXwX4XMXB 9 M _ t g {.n.' S.ZXU.t r @ ' Q S.V.2X:XK *XJ u.>.D.Z.C.C.C.].E.P.q.^ j ..9 c Y.*XU L.x S e.C.m.R.V.~.NXk x D.MX3 L 3 #.z.v < x h ] 9 _ x @ D.P.' 0 C ^ [ F.N.U.W.fX<.H.Z.J.kXt.7XI ,X8.U B.V.,.' M.rX`.9.R x.&X#.g.;XT  XF D ,.x.A ` B.5 < ] r.4 V.;.,.G m.V NXuX>.J }.' hXH.n.<X3 < u.P.[ N ] ",
"F ,.C 9 B # p > i i.L.W.XX9XW.5XbX9X6.8.K Z.8Xc r b N 5 2XbXL.B.xXs.6.A.S.u.gXQ T pXkXAXq.w -._ T U B a > l 5.0.iX0.] ! ,.! F.9 B.V.hX` 4 F.&.-.[ OX3 ' ' ^ T d ' T s ! 8 Z.G M - 9XuXU q XX|.(.:._.w.u.B.}.K.! 9 $Xl.[ lXpXe.T.. & i 5 M.{.H.n q H.|.e.a 1 :.,.C XX%.h a.q.3XG _.:.'.D.F.V.u.D.%.K.%.y j $.i 2Xl K p.Z =.,.m.e.E.C :.NXI.u $ MXn.z $.c I.f.e A 0 7 C d c.k.e.XX;.-.B /.,.A.^.mX)./.eX) F.H M.7Xx Q.f.y.F.B.e.B.e.t.H [ +.K 6X4.&XU.D @.W.eX!.bX(.S 8 ' V.a.@ 4X4 ^.F ` p.w.cX`.eXFXJXW.!.V. X] >.E.6.0 :X~.xX-.",
";.OXH.> a < 1.5.A.e.6.=.u.0X0X4XpX4Xo.8./ q.;Xx.p + . T _ `.VX(.T.dXAX<.C.7XE.. 7.uXkX@X,XM B >.p 4 8.d p $.s.I l.o.k.!.<XnXCXvXe.,.' -.E._ V.tX+ w > % U .X' ' d 6 H >.>.V.`.P T T._ K 0 V./.{.V.w.=.=.n.JXqX) 9XI.u.p L z.FXK.l < i.B [ B.|.{./.C F.D.: I w.`.) |.U W g.N.C.L.B.(.9X,.V.:.Z.Z.K P.$.j u X x ! I +.t.Q ;.;.e.,.OX;.=.W.@XB @ k.&.Q Z +.bXl 2.- 4 B *.d k.8.S.' ^.w.P qX|._ 6 L.1XR.fXGX,.}.,.P.p x.(.C.D.V.B.[ q.Y.>X+...d.VX} | SXpXa.l.BX( 3X|.e.6 F [ 8.D FXT Z.X.6 ; 4 e.iXr.:.-.~.CXeXeXM.V.NX! t.1XXX-.u.",
":.vXNXI x g p 4 H z &.! zX4X}.y.a mX1Xx.1XiXdX4Xr g I 8.A e.vXi.q.Q T $.PXL F.2.$ o.[ M.F F ` }.f 7 f 8 @ 5 !.l.vXz ,X(.; !.Z J '.lX_.C.rXbXQ.N.L > @ @ 0 ` T M.M 8 ' F.>.q.(.N d A 8Xc ;.H V.nX] ,.,.+X9XH.|.n.ZX{.}.w.g.  P.F o.: ` E.H.V.F.A.|.` .X;.7 5 9 B P.m R f 6.S./.` V.D./.R.e.hX>.,.Y 6.i.U D 1 1 ~ x &Xw.[ &.~.W.-.,.].(.q 3XW.@ 6.;.[ s ~ k.7.Z w d 6 ! ] 9Xw.3 e.' d ; <.qX:.` l.LX).0X&.,XC.m.7X[ T.9X-.D.` [ ~ ] 4X-XsX=Xf.IX1X4.(.l.a.HXzX' 9 [ {.6 H H.*.f.$.4 mX#.f.$.uXZX;.,.! l i F CXK.3XV.}.BX] A.+X+XF ",
"' H SXY.< 0 <XT ~.9 *.] ] B.W.L.&XA.>XDXP.] d ^ #.] 4X6.I.z.B.<X] ;XCXZX].B &.D *.X.S.XXT.7 z F.P Q (.S a ] s.I gX$./.H 4 C ; ~.W.,.,.A.B.:.kXBXF ' 4 T { e.F T.' n M _ qX%.y.p k @ 4.%XzX0.*.C.( wX&.B.V.B.B.3XgX#X` H N.: 8 U.%.+ C B ` ' E.;.|.B .X2X> x , - K.P I k.p 8.B.Q.W.&.].F.E.! ;.F o.e.i.( ;.F 0.5.8.<X,.w.Z.fXD.'.]..X,.~.T ' 7 r F 1XN f c.l.l d 8 d V C u.=.7 0 S ;.l B V.kXC S k.] kXW.NX,.` F.V.lX).=.:.] 8.K $.l.f.g d.K <XI.P PXr.x JXgX2.&.M.V.F.B.F.! N 6.tXw.g O $.U ) P.' g L U f Q S.*.Z.+.;.u.D.rXS.jX",
"SXz.[  X} @ s e.! &X8X>Xy.( /.9Xs 8.&XK MXAX).*.f.$ s Q.:X4Xt.H.] P 5.G C p.Q o / 0.k.~.' d 5._.! 0.H ` Z S k.0.V.;.Y.) _ H.&.-.- ,.C.F.B.! q `.mXw.>   e.iX3Xt.>.~.f 7 cX7 L ;XU d ! vXx.SXB.u.=.i.V.M.:.&.cXD.M.hXe.E.>.2X^ CXDXHXl = ) n.) n H 4 9 K S z.% . B ! < ^ o.3.T L L v.=.R.&.D +XE.> C C d x.uXw.* >XB.v.B.}.A.}./.'.#XZ.E.s.' 1X` J ,X] * s 5.T : 6 4 J Q 9 w F ` B.i.( 9 B E.8.Z.KX~.,.(.eX:.B.' *.MXbXk.r.Q D L [ r.*XU R g H ` vXv.G s kX|.).[ q G ,.H.6.x x 3 e.q.] 1 5.P ;.^.^ X.X.f f d c.S ( ] V.G.bX;.&.[ ",
"Z.i L ~ ^ } % Y.V.;.R :X8.^.Z >X(.P wX7.rX~.S.i.,X' ! ~.L.NXv.,.Q 3.$.XX[ 6.*X3.+.g (.A.R.l A *.v.H Z.0.Z D I S A.0 V.G D.C u.e.e.G B B  XS G 9 F F tXiXP.K.q.4XpXeX4 e ` 8.X...e.C ,.MXnXv.V./.R.n.].bXHX$.A ! (.rX9X{ (.jX).n.3 %.g y mXmXIXGX! I.v I W.hX6.1 Z 8.P e.5.t.I O.5 T.t M 7 7 w.3 B.H.G.[ c.mX;.H a.H.!.e.E.~.:.[ B @XB.J i r.w.= ~ A 0., L.z.6.B G.! ` F A $ [ B GXvX] Q [ 4 V oXbX7.Q ~.oX!.#XE.r.G.PX5.L.g.z.x.w.*.p.k.P g.P.p.C.K.AXCX4Xn.H.V.^.C 3 hX=.Z B F +Xe.a e.U L A.' Q.[ s.f.7XDX%.&XU y.o.uXS.w.~ VX",
"!...u 8.f Y c P.xX` _ 6.k.) xX6.O.g.I k 0._.S '.zX_ OXQ P.oXCX/ eXL.w.V.~.Z.P U P / V _.Z.Z *.).C A 8.7XQ.<X( * 4XB Q G oX,X>.V.V.H ,.B.T.e.S M H ` F H { N.7 C.' `.l.K 7.7 P s.T H }.H.,.3XM.` ' ) jX!.Z.i.P.wXB.:.{ ` ' ' ' 3XM.CXg j N H nXPX_.D . 4X5XW.yX9 X w.I rXy.Z.Q.~ e / w.t w G H.M ) {.H.` Q  XZ.P.g.,.!.:.}.[ E.&.:.( #XE.>Xn *.O.z ;.t.6 L.J ^.M.{.,.}.o.2.>XQ T 2XrXe.[ ' V B 9 9Xv.S.`.S.vXC C.}.>.H.jXwX:XQ.Q 6.i.Q.p.Q i.L.W.! + ' B.) B.+X}.V.T.:.:.[ i >.> ! ` 5 V.e.6.tXtX^ P 8XsX$.(.Z.j 8.V.q.6...i.~.(.",
"P.R 6Xj.f.^ h e.w.Z.A + 8 B r.wXi.mX*X| ! k.mXL.~.! e.FXQ.B.NX/ S yX XH d rXo.t._.( ] vXA.}.8.H.m.W.l bXd.# > f 9.6 eXP.3XLXw.C ' ` F M.E.|.! G.H 9XS V ' A.C S >.[ $.wXk.| h K L ] ' p.,.'.(.3XW.Q.Z.7X] T D ,.B. XvXMXZ.eXw.' ' A.q.1 h K A ,._ & A @ mX(.M.8Xf :.OXT OXE.FXf 1 3 ] s.^ X |.<.F.G CX_.c.9 *.P 3XS.!.C [ F OXH ` ;.<.C.X.^ 8X7.H C $X[ P 9 ' m >.' F 3X<XI.5.z *.<X<X>.^.Q (.qXL.5X{.qXFXI.V.G i.S.H.` 8.5X9Xq.w.B.B.,X6 s ~.(.G.~.V Z.E.B.V.B.^.W.[.` A @.o.^ P s i n.V.V.t.q.T %XsX@.:XB. XeX$.Y.l k ! S.~.~.",
"M.P u %.R g % $Xt.M.>.4 q ] ,X_.!.SXo.6X1X:X6.0XPXB.w.!.:.qXJ.n $ 9 C B d &.yX^.~.e.,.y.*.{.-.H 7XCX<XwX1.> Y d.+ > SXtXbXGXgXXX8.d C.( |.{.9 &.C.C.H.$.;.|.:.$XV.,.` V.4X> a.y Z ! wX^.3XgX'.gXp.S.e.( S.wXI.B.J.;.B.] :.' B.C.B.! G ~ @.P h K %.! 3 9 Z 7.P ....0 B.x E.'.NX8XK O.pXr.M t d J n # _ - ,X7 i.6 (.F k.4 9 >.D.;.F B.z w.L tXmXFXi.' /.}.z B OX`.6 Z k.t.A.bXK p K.Z.)._.E.).V.hX_.<X,.P.V.' 0 {.eXZ.nXfXE ).C.XXM.V.cXP.{.e./.~.`.kX:.q.*.*.e.V.,.M.}.A.N < $./.T.6 : T.M.M.g a 6X3.%.l.P.,.VXnXn.U.&X^ 5.! ' B.",
"B T h %.U x.% D >._ ` w.@ 9.p.,X` PX7XVXDXmXn.n.V.H.zXzXs ) H.i.W Q.l.(.*.C D.[ B.).!.qX6.@XGX(.).HX5X2Xs 1 P B %   _.W.~.rXrXtX;.l 0Xe.B B.e.B -.^.>.[ A.$XM OX#XC S.N.d g dXO.CXwXVX! (.XXqXnX3X[ ` i ,.! z._ -.E.M.>.e.] ,.V.V.@X>.! e.P Y f & s K ] K } @.$.3X) :.0.E./.C.NXNXoXBXe.Z.@ t > +.6XxX0.A.B (.<X,XC c.C u m hXG + tXD ] }.oXfX)._.) XX&.V.3 S.oXq.B ` e.7 L.;X} 5 ) B.B.D.,.:.P.bX*.T L.8 ! a f E.0 _ ` u ~.:.~.P.rXV.kXOXR.F.C.R./.B.e.e.[ ;.,.B.M.E./.,XrX5.{ ^.K.x [ V.q.h.6X8Xf.I ] N.VX-.n Z.r.a.o.!.Z.Z &.",
"s 8.Z R i iXI g T.<X' ^.5 s.( 5.<X( >X_.H B.A.q.~.{.zXV.'.:.A.~.k.V v.S.`.p.e.9Xw.V.S.B.A.J.V.,.[ e.HX<X& z.l % 6 + I.e.(.L.H.' XXS $.V.8 *.F.,.`.] ` # { vXH.A.kX$ ;.g g X t g mX{ CXMXK.L.S.R.`.W.r.k.0 L U x.L.;.>.w.M.*.,.M.C.V.C.Q [ #.j.SXh & K ~ ..d.7 tX:.E./.I E.M.0.,.S.V.|.H.vX+., : a A.VXuXH vXp.*.s G A.` * L V.e.C !.m G.D.]._.eX).L.E.F B.H :.! ! e.A q 9 *.4Xr t $.G M.,.:.iXs.! T @.h < i s u ,XVXf <Xu wXG.~.3Xe.,.B.0X` H `.E.,.R.F.A.e.e.9X~.'.u.fXw.B. X(.AXa P Z tX! P g a.f.O.g -.>.m.2X7.U.f.+.K $.g K.",
"H 4 Z x X.x Y a.tXL ` 0.] r W mXUX5X! [.~.GX' >.cXD.Z.6.kXBXlXKXZ.`.w.w.e.Z NX9Xl.'.V.,.n.` ) 3X(.1XJXN.P.n.D...Y O.j.u ..8.~.L E.] P e.[ - @X{.>.;.*.0 M.B.V.>.B.@ A ..DXf.4.L q.m.m.J. XNXZXZXJXfXp.U 2X6X..] ;.] ! ^ B.I.D.,X4Xp.F.K c.f.DXHXU * & T ` K.0 ,.D q R.B.,.S.NX-.>.M.V.|.jX;.! g K ;X%XU m hXH.HXpXr.:.e.K.* 3 :.p.4 #X/._.L.zXS.zX3X|.}.J C.:.e.H G - F ! (.pXc / T.} U j 9X*X .q.e.8.r.o.~ i u  .mX:XI.I W.G.J.eX(.:./.0Xw.XXD 0X,.B.B.V.H.F.C.NX(.`.9XfX( ~.zX|.P.K Y [ K g O.&X*XU R o.R 2Xg c 6.a.U %., K , ",
"L.I c U U U.).G.B.# B._.z ~ v + oX[ $ I.<X/.3XNXrXtX_.t.*.' 3X!.5Xw.) /.' S J _.Z.`.C.~.rXfXFXIX2XZX0.@XlX$ ( :Xz.f.P 7.a.^ ! K F.V.D *.t.>.0 ,.vXV.V i *.T e.T.T.% e K U.pXs.x.Q.` V.B.C.V.V.,.V.m.6.5.l.D R T e.] ~ 0.p.>X] [ B.CXHXsX6Xk ' @X7Xt P { N.` Y.~ NX) &.m.C.fX@Xu.G.V.C.XX_.V.eX~ &XVX%.P :X] #Xe.fXB.` 3X` &.0 3XD.s Q T.lXMX`._.~.B.V.V.hX+ D.e.! C - G 3 ` nXl.] # K.] i }.cX9.>.w.B ` S Z.L e s.I 4XI.p ' ,Xn.:.,.,.F > J B D / e.=.` >.,.V.G.V.H.S.3XzX&.:XbXSXM.U U g s.a.K q.q.Z T L.^.A.6.f.@.4.U g.# v x ",
"w.p.5.> E.HXBX` e.] 0 T.$.A 8 B D.~.^ o % p p.>.[ 5.4Xs.7.lXMXxXPXzXw.R.V.>.0 B.V.m.V.0XzXlXB.qX(.V.V.{.fXQ o./ K.a.p y.I _ K ( H F t U K F.A.H.#XB.^.e._ 4 l 6 T #.} f.uXJX:.GXr.(.e.V.C.V.G.F.F.V.e.y.$.^ ^ ] ] $.~ ] uX] ! >.;.B.,.T / I :.oX*X6X! @Xe.,.F ~.D.u.0 *.B.D.m.w.i.&.' &.P._.tXnXSX1XV.yXV.^ _ v.e.A.W @XV M.CX3X~.K J B.ZXbXW.*.V.M.V.J.yXG q.~.>.A M F w 9 . J 8.6 d 6 ! qXCX<X4 }.V.C i 9 ! p k &Xr k.%X+.%X..4 < 7 *.pXj f : 4.I e.< h Z.D.V.V.B.rXGX;.M.cXiXA.` e.e.Z.7Xj q.B.C.@X6.c.J.H.F.U.HXf...g.%.R s ",
"z 0 ` W S B.m.) l.W.;.C V y.> s 9 #XP.1 U ( 0 3X5XrXj.O.k.Z.] nXZX3X,.C.hXM.' ,.m.e.R.,X9Xu.:.<.d eX3XQ.kX,.3X2.2X& *Xl.3.x q.D.yX] ~ N.M.:.A.:.OX' 0 G.e.L.B.t.wX..*Xr a ! H D ).V.B.C.V.F.V.M.B.E.P.<X^ ^ K P 6.' g.7XJ.G.cX! ,.V.-...U h T $.d.g *.` &.;.(.B.).&.A.&.u.Z q Z.v.D W o.*XK ,X7XzXbX( T.A.;X6.,.B.fXA ` B.k.iXgX~.[ S B.|.3XhXC.) >.V.H H.P.T.H.;.8 A.A.w.M.s T A s T 8 z...] t.J 8  XG F 4 CXs c @.;Xx s.*Xd.t ` ] 0 + @X6.[ & O.} 6.f x M.n.,.A.Z.:.@XG c CXpX[ A K ! tXe.Y T B ;.V.H.v.`.M.n.Z.%.;XE 6.T.T.[ ",
"3 7 u.X.~ /.i.y.V  XZ # g ! 3 u < r.).>Xp C PX7XAXKXDXxXeX3XGXe.zXlX! B.Q cX(.].m.u.~.>X:X^ -.V.lX3XlXt.-.vXBXCX(.f '  XK I.S.~.;.D. XF 6.;.:.F.P 8 D < ^ r.K.w.>X9Xd. .2 1 j.p 2.L.D.S.V.V.G.R.A.F.rX9X$.! K R $.x.6.t.F._.}.3XJ.^.e.g g j >.s c R [.q ,./ d Z.-.C p.m.qXK.;.$.3.5 [ e.yXy.8X6X=X1X:X[ P.Q  X,.m.NXvX` N.m.CXCXzX.XC ,.}.0.H 8 ,.H {.d 0 n.) #XD.M 6 { :.E.! & T [.qXx.! > M N 6 T Z.%.@ e 8.+.X ! fXv.; i.x.t.8.~ h ( B < f K  .3.2XU P n.,.>.,.-.Z.{.! 4.1.~ U E U F.6.Z.6.~ / P =.<.cX[.;.N.f h g  .R K q e.",
"C ,.:.V P G C.B. X-.s & # ! [ B @ 4 3Xd 7.<X7.nXZX,XP.fXbXrXNXK.jXxX,X;.C '.u.] ).L.zXd.3.P [ ' e.S.@X) :.G ,X~ : f ` _ y 9 :.u.XXV >.Z.s M $ M a d 5 @.s.i g 8.!.8.:X& 5 p o.@ f r.` ].B.V.B.B.G.F.e.>.] i K f 7X1X1XJ.:.~._.~.~.V.V.t.U j ! 2X#.;.yX>.Q.;.H c.:.G =.}.<XZ.$ 9.~ u [ V.V.H.C.g.dX*Xg s.x.;.n.C.~.).}.>.F.H.yXiX:X_.i.rXD (.~.:.' V.V.>.8 w 6 [ {.[ 0 {.H ` K t d [ _. XM.3 s Z 9 N y.j & : ~ ..C l.NXvX_ fX8 4 V.U.E s 6 j P K I v 6.K h i s Y.k.Q J ,.z.7X7.;.P.x D 0.e.Q.$.^ N.5.o   I - ' [ g } g e h 9Xg N.",
"F G.-.G.@ _ E ( P.w 5 & . ] cX;.p.4 M...l 1Xr.` V.NXMXjX3XQ.G.n.,.wX>XVX7XVXDXJXHXPXdX6X3.a I.y.^ q.G.V 9X>.4Xc.T @ + N & d [ A ' ` Q B.` H.[ ! i 7 & & j K : ` 6.9X4Xw g s Z e K W [ ` J C ,.:.V.C.e.e.q.u U a.8.0.,.-.gXW.XXXXU.H.n.{ x.f M.8...q.q.|.!.0X:.4 J &.).i.|.l.h ..f.] ,.R.B.G.A.u.H.A.U c f.V.F. X9X|.>.X <.V.rXzXZ.(.*XK +.&Xg G ` }.H.^.9 9 7 w H.}.:.>.[ A g I (.B.6.n S 9 6.Z Q G o.g t 6  X/.` q / 3X~.GXvXl H D.i M f.U 6 6 +.} A K W Z.L.A.(.x f mXIXL.:.,.A t q.Q ,.A.A ;XC.e.K &X& x h 5 h < a.u g q.~ 0 ",
"q vXJXjXF 0.7.S M.>...U % p oXSX< =._.) I.).B.! C ,.) yXV.<.` ` [ ( g 8.8X&XmXGXlX9XA j.K %X;X/ D ^ M.DX-. X9Xq.s 1 & 1 o *.kX X#X,.`.q D F T.T y f h s.R P 1 & @.~ 6 > +.` ! K 5 % 9.~.] w E.E.,.,.A.P.^ ..7.] CXW.qXjX`.M.u.XXvXA ` lX*Xj H.4X .j Z _ HX,XD.q W V C.hX:.A.p +.a.&XC p.M.;.S.S.G.V.g.K <XF.M.B.).[.|.q.9 u.nXW.(.tXK y.Y.[ g ,.V.E.@XV.[ w H q M F hXP.M.C U g 4 bX3X^ 8 T 9 [ ^ 7 a.6.s ] H.' M.M @ 0XW.R.{.^ C P.i K r r e U 6Xs.g., U V.C.^.V.] [ F.M.0XV.l f %.! ) P.H 2XVX' w 4.U X @ > g i a Z T F iXe.$.",
"] =.@XkXe.A.U # xX.X6.T I v 0.!.( B ~.4XI.&.[ ).` S 9Xi.NX~.JX:XnX6X6Xy.A _ n.` G.>./ Y s.*X;X8.P Z L.n.|.LXk.,XNXl f y L ; M.}.G.e.}.Q . :.[ w.i i , t j 6X*XZ   : ` 1.9 V U.i.v & % [ e.8 B.B.:.~.*.Q x s.0.wXSXF.B.E.R.xXL.C.U.D.I.R +.} M.2X .U U 0 B 4 <X> L p.n.G.Q.^.c f ~ P.gXV hX>.:.'./.A.L.&Xm.V.V.G.V.B.{.t.9 pXtX(.XX>.} B.V.B.] ` B.|.;.-.>.B {.A M $ G.U.kXyXI ^ (.l.+XG.i [ F 6 ] o ^ t.>.M.F. XvX~.L S !.~.&.2X$ ! u s.c I   U X.c.0.k.B :.C.V.A.B.A.C.M.B.d g 8.6.6.5.V.9 X ;.CXI.g o X 5 # 3 g >.' S <Xn G 0.",
"C r.0.@XNX/.H.% U.` D.tX>X3 d HXz.ZXIXGX! C <Xk.,X!.l.E q m w.^.` K F CX| H eXP.i.[ 4Xf.%.d.:X/ P X.L.:.n.|.mXP.cX..| g.f B A.[.|.8 B.i.6 q > f %.K y , * *XP %.i I wX] 5.l P.q.Z x k 6 H.;.B.&.}.W.e.; B o.uXm.,.qXD.#XS.J hXR.K e.L.%.} y.;. .a.x q.[ A C ,.F 4 NXn.F.0.~.f | f ~.E.Z B lXK.:.{ [ AX[ B.E.E.F.^.V.6.l.zXL.F H.9 <Xx _ V.$.l B.0 ,.M.s A w ^.H.;.S J P e.` K Q MX) |.V.B d ! % , % q.P.B.0X<X,XfXV.^.) Z.G.Y.<X~.k.f.mXa.>XK N >X0X`.C.H B.oXm.:.-.-.:.9 C p p A B.o.P a 5 X ; Z.A , < 5 h < & 5 J ;.K.] *.@ V ",
"] G 9 ^.H /.;.( x eXzXSX:X;.V + 4 W.MXMXJX<XZXnXJ ) :.` H s.( }.0 ..f P ~ >XHXZXgXS.G.8X] c.pX^ r.j |._ ;.:.JXl.3Xf K d.p ] n.B.H e.L.e.e.+Xs t %.K 5 & P g *X;X6Xf ' ! 6 8.(.: h g ] F F.B.F.&.G #Xe.,.r.wXV.C *.I.Z.n.H.tX~.XX0.D.D.p I 8.d ..6Xv.~.&.` e.&.i.K.V.!.F cXe.o.K s [.H :.S kXG KXiX-.9.G./.C.G.R.C.C.e.4X#XP.G +XyXA t P >.q.K V.9 H H.;._ B {.OXF [.q.> Q # s V.rXjXL.V V ! : : & o r.>.e.rX5Xe.:.n.@XR.q W.R.6.c s.2Xc.5Xz.l J ].LXu.ZXCX,Xi.fX<XeXHXrXl.Y.@ e & P T @.O.R K 9 0 a t l r s.k.U f } *Xx.#.e._ B.",
"V &.Z rX3XBX~.!.7.zX8XiXi.FXiXB H <.H :.-.,.W.$X=.V.C.*.L.z , Z.Q K g h 6.y >.XXZX5Xe.pX8.o.^ M.`.Y._ M.[.bX2X9X! g.JXdXp 9 M.V._ |.F.q.N.{.}.N h o.K , P K ~ 4.$.d G B._ w I.w g f A.,.4 F >.H C F.e.H.^ B ~.).' A.tXlXm.' C G.R.OXP X.K ;X( x 5._.v.V.` ' V.4X` eX<.R.^.,Xr.&XX e.MX) 6.m.XXXXxXL.eX_.m.~.A.C.G.V. XeX X,.F.Z.`.K.6.y ,. X[ g d   J H.M.d V.M.|.;.[ %.P [ $ M.$ ).lXq G.` U u t , +.! T ,XG.B.,.,.M.e.[.B.9XQ.c c g.2.l.k.l.E.J I.lX,X4XcX6./.XXFX}.yX[ Z.d #  .sX} Y a.h ^ %.u S U 1 I p > w.I } u *Xi ( ( w.",
"*.u.a.c &.uX*. XHXPXI.*.~.` F.wX&.).V B.` eX&.,.G.) eXJXVX=.0.K.T Y U Z Z g { ) lXZXHXbXA s.R %.9X%X~.H M.xXl.;.rXmXlXT Z 6 0 H :.B.#X0 T.S.t.$.9.K f ~ i & h 6X~ h wXg. X<XT.9 g I }.H }.! ,.) 9 ` ' ,.D.`.i.i.' - V.M.OX0 |.,.;.P.U E 3.Z.0.L L ( NX6.:.C.V.s.I 0.q :.8.qXT a.5 q C.D.,.tX~.,.F.M.~.n.V.V.B.n.B.V.9XP.}.,.m.D.~.K.l.g >.V.M.[ y 9 0 J }.' M.H.F.V.I.+.k.:.9 H.5.`.L.7.B.{.' 6.Y D | %.g 8.n.M.M.*.C.&.R.H rXl.x &Xa.:Xx./ v.R.*.<XeXHXY.xX8XA./.B G -.y.;.S 1X% $.5 3 > i 8 w.d D F ^ s.o.f eXz.3.k @ < R Y o.",
"J ,.G.2.*.P.Z.r.AX[.C.D.(.SXp.uXFXL.KXbXq FXJXIXnX9XXXoXGX@.v l e.Y Y & I +.s D.~.*.~.E.`.VX1X9.iX&XU.A.' GXtX^ AXU.M.h P A 6 4 B A.e.' [ B.P.t.%.U.% g @.U + ;X8.j ;X6.8 e.@XB.~ i ,.! F.E.V *.! ;.8 ;.kX+X6.V.}.:.V.S.&.G ;.z 5 D.U ~ !.}.K.8.f.~.=.).e.V.@X5XZ.L.s s ! H Z.Q.s.c ! H :.-.H M.MX!.D.;.,.C.C.B.,.F.v.e.E.w.,.,.XX8.g i ! ! B.] i : & 8 -.>.:.n.M.<Xi.a.(.;.-.' xXk.$.K 0 >.n ] 8.2XD U P U ! ,.>.F :.7.( 1 1.X.O.8.d.2XV.f.p.@X~.cXv.tX1XzXnXFXrX*.Z.A {.U.U.C d D.N.1 K X ^ (.Z.6.(.kXS.D ! JX2X4Xw.% h Y P U ",
"@.[ g t f.(.FXzX).v.}.`.BXZX(.u.lX,X,.E.~.' =.V d FX X@X).HX} f.t.@.8.o i L.%.h 0.^.:.a B.B.J Z w t U.[ J.vXGXlXrX7.-.s , ! M.] H r.yX^ q.e.e.A _ lX5.& Y g X.1XI.K Z M 0 ' B.J.NX..L.9 B }.[ G.8 B ` ] }.[.P.V.H.H.^.D.G M.!   % | x.] *.|.$XU.4.5.9X1X,.V.F.).1X,XV.] 9X&.A.|.L.y.5 `.vX0X].B.J.3X9X_.B.,.e.=.] ;.7X] ,.FXV V.qXzXg % Z M {.^.e.! Z h P $.V.:.9XxXrXx.t.(.F.M P.T.3 6 9 0 e.] D.3 K g.r.] A.B.$.T ] ;XX.x.*X..2X9Xi K.G q 7.3X).M.yXnXiXxX,X$.S.Z ).V.A.N.V H x w.;.#.: @ g !.[ _ &.kXNX&.K./.N.' [ i Y f P U ",
"M.XXN.f.z.&XnXU.{ Q.(.9XrX0XnXmXZX1XcXNXA.A.OX^.cXJ C.kX5Xg.6 *.C.`.bXV 1Xf.2X9X3X~.^.>XC A.SX0 T f 2X;.,.e.S nXbX7XZ.s | h.JXeX9Xq.(.Z.y.&._ 7 s Y.zXX.@.Y y.Z d (.3X( l.nXlXzXXX3XW ;.` P.D.}.&.;.9XB :.~.F.' 4 7 M.|.H.|.Z.9   c.(.p.{ M.n.lX*X} P.!.Z B.T qX|.i.H }.' i.n.C.2Xt.r F V R./.}.E.CXD.,.m.e.~ ^ P ^ a.R S ` B G.*.u.vXU.(.%.A D.g T f T ` A.^ (.D.F.B.K U.6.D.(._.>.~ C p B P.=.T.P U t.t.,.V.H.;.$.& O.h 9.: B n ' M.F.-.C.@ |.n.V.|.!.2XSXCXHXVXL.w.9X}.R & &Xt i *X%.8.p 6.xX,Xd r.W .XZ.`._.! T { U.O...f ] ",
"V.M.n.BX_._ *X>XMX` :.F.|.B.D.V.C.n.V.E./ u ,.F.GX8.B.,.V./ -.,.V.~.4X*.>.tXA.Q.ZXW.~.aX` ^.!.[ ^ +.I.-.bXI.! XX(.!.A.q.#.8XiX<X!.-.U.y.%.q.(.I.& P pX%Xa.g | y.N.-.JXSXY.<XxXSXlXcXx Q.q 0 H :.# B.+Xq ` P.:.&.;.` r.M 4 G.w.T % [ G.jXnXr.` R.7Xx /.0XF T 3Xe.A.v.0 :.` ,.( <X,.FXK , P.~.C.fXC.,.V.,.[ >.L Q P [ 3.f 6.E.H ( (.] n.ZXi.E.~ ~ h % K [ M d ^ P.,.M.w.U.0XlXs q.,.! ` D.=.2.k.(.yXt.x T.W.S.;.:.Q ] N ..8.y g B M 8 ; V.B.` *.A.,.V.B.C.t.l.rXbXGXZ.OXV.A.& f I ~ 6Xg , Q U.wX(.GX*.A (.'.G.}.C.~.N.M.T.g o.U g ",
"] Q.iX!.J.CXD.O.u v.<.` B.V nX).NXJ -.E.~.7.B >.:.B.M.|.P._ >.F.`.D.eXuX<XxXP.l.Z.NXF ' V.B.C.G ;.K _ &XwX..<XF.MXP.] nX6X%XiXlX).i.Z.w.R L.t.9X;XL.(.7X&Xf...uXt.wXFXZX` ] + rXF.H.a.( &.H /.~.` -.s K I [ ] e.H.F.tX9X0 oXe.+ g *.A.V.V.:X0X'.FX+.5.E.OX! w.&.v.~.[.=.=.q ( V.&.Z.H.Y Q V.:.B.V.C.A.H.Q e./ % X +.j 1 ~.:.NXC.] ;.,.G._.p.6.f $.* j ^ K d ^ r.9X~.XX_.tXbX(.t.e.S ;.wXGXs.5.Q.E.q.j T.L.<X2Xi.K S $.& 2X~ [ ;.H B 9 q B ,.D.9XR.F.C.B.<X~ VX`.+XoX5 n.%.u Y -X>XR ..x 5 9 d H H.) H :.C ;.ZX].>.F.G._ p %.t.K ",
"f.~.3XP./.gX'.pXD A.I V i.JXB XX0X`.gXS.XXe.B.B.J ;.V.+XV.;.,.P.W.'.5XMXGXrX:XL.Q.0Xi.W.) C.OXB N K &Xr.:X7XE.3X!.eX7.` K.&XY wXlXfXZ.i.Y.4X*.L.P.&.K.] ^ pX8XAXHX5X-.].bXT q.0 _ +Xf Z @XH ~.9XL.`.p P +.g x T ;.8 A ] C G.#Xl g ,.B.M.] >XL.F.MXs.@.) F.y.e.| K.;.cX=.i 5 X H ;.M.+XZ g H w.' ,.B.F.H.q.A.$.D s f.u 6 4 0 ] ` J B.W.`.~.xXV.U P y K U o.@.x g.3XrX3X`.0X).k.XXB.B.G.H.] SX).L J |.d.( < a.c.(.+.x.rX@.] D.y.M.! >.F ' (.M.V.|.' 3 A.*.] s.V.7 n.R.R./.T.U ~ O.U x ~ f U f z.MXPXPXx.2XCXz.AX;X' F m.>.L d V.*.",
"+Xx nXrXfXBX~.C.Q.P L L | V.&.S.e.3X5XJ &.:.(.*.oX) B.V.H.q.B.qX`.lXB.S.) mX:X@.tXW.S.].L.F.V.9 # Y ;XU.Y.1XnXnXgXjXp B.$.*X+.7X>X,._.(.!.! ]._.;Xi.[ 8.8.r.$.).fXSXZXkXV.kXJ ,.M.V.K i [ A.V.M.&.w.8.+.*XT d.G.,.! n s A :.B.%.f V.d B.P g rXn.SX~.O.C -.F.R.f 8.eX` :.A a @ } a.d ) -.U s.7.B S.,.:.-.^.<X# 6 : ..P : < z 6./.Q u.m.m.B.5X~ i K + S U P p a.+ B.,.qX_.eX*./ J C.5XkX X_ xXHX,._ ! [.GX..U j 5.8.U (.o.6 XXN.B.;.#XM.Q Z ;.M.H.^.` H 8 x.Z =.;.B.B.V.@XH ( x.^ ..8.*X&X+.P g.tXcXNXMXU.U ! HXiX4Xn.&.u.w.h e.V.",
"e.8.f.<X3XC.C.w.E._.x.x } ^ ~ f CX,XeX<X_.|.yX>.V.F.B.G.B.` C.5XxX5XV.jX,XjXDX} wXeXgX5XNXFXeXHXs.g T >XS A T.3XZ.}.r.6.@.D +.i.l.Z.ZXZXW.zX5XeX*.P.:Xk.pXuXjXXXJ.n.n.n.,.B._.G jXD.6 K z ,.>.-.K T f | 5.T x ,.yXA.;.! ! d C K ] M.F B K h >.' lX'.iXj [ F.|.K ! NXV ! .X*X-X8Xj %Xc z.w.pX..! ,.^.m.5XSXn iX%.6 @ K | f l rX~.:.- m./.S.nX7.u U.t I U 6X%Xx P H.B.F.eX!.OXk.=.Q.H.@X,.6.L.;.F.|.! V.}.D x.E 3XL.y.2X4XI _ M.M.V.V.w.;.[ S.M.^.tX}.>.T [ O.` e.B.V.^.+X&._ i.N.t.K.f.g f.h 5.T.^.M.H.] 5 D _ P.VX>X` g.E.K >.V.",
"G.s.>X0.` m.{.tXu.].FXV k T iXY xXtX).! (.G -.!.H :.C.'.,.P tX7XfXrX5X~._.<X2Xd.&X).rXvXvX<X0X(.d.x s.P X.U B.B.~.L.tXx./ Y x.#.XX).^.:.].SXuXc.:Xg.4Xk.S ] B.V.P.cXkXvXT.~.H._.-.hXq B.f Z.e.S K ;.R %Xa.x.# @.{ V.^.OXG.! C 5 F H.e.T.5 K ^ e.vX!.tXI.i ` vX~ ~ L.lX<XmXs.I U.P HXdX&Xp rXx.E *.H.FX0XbXn 9XVX3.p 3 | ( : =.! S.:.H ~.P.;.<X&XAXiXAX6Xf.j.+.6.F.n.n.cX5X`.l.C GXZ V.|.8.1X` :.F.&.`.P.>.~.`.V.vX{.XX X9X).' n.H.F.V.[ ;.q.M.;.e.+X X,.F | @.V.V.&.9 R.H D B.D.G.qX5.~ *XU t @ - M.^.$.: K ] _ q.tXvX5Xm.r.5.B.",
"V.a.9X,.C.) b.^.p.9 ,.q.u @ H P L Q ~.I V L.F ^.bXcXSXH R.l l AXqX_.wX3XeXeXf.f.z.c.~.i.5.` NXiX*Xd.K @.U :XS.B.S.`.5XB.@.l +.wXf.fX'.bXAXPX!.FXlXw.( =.] &.&.5Xn.' r.<.) ) -.q ! H./ zXc.T A.i.K M.e.p.8.dXN 6.6.G A.G.&.H - d 3 V H.OXY U R Z.V.xX:.}.6.5 |.p.P r.MXS.d (.#.U O.D E.nX| I.`.;Xf.[ 9XL.,.&.` T s + x e / L (.z B }.a 8.p.Q Q i ! q. X1X..| L g._.XXe.E.W.eXI.f / t.*.+XW.L.B.;.,.E.w.&.B.H B V.S.p.V.vXlXMXmXi.B.J.H.` ^ _ e.~._ w.d F.}.o.5.e.H R.-.H.6.iX=.e.m.MXZXpX+.%.%.[ H F F.P.P Y / 6.K ,. XCXD./.a ,.",
"e.lXC 3Xn.Z.eX{.rXV G J G s 9 B CX] rX&X;XO.N I 5.J.i.BXXXW W | XX7XI.iX&X*X*Xa.k.;Xo.wXcXr.B.e.*Xf...h.R q.J.J.}.W.~.' ^.W O.6.x k.qXSXDXzX8.9X`.g.z H.,.0 (.,.3XHXzX7XI.FXPXiX!.LX-.B.M.mXe.p.w.q.Z Q.$.HXf.E :.6 s eXL.H 0 |.< 6 V E.y.[ {.H.[.SXv.B.}.L ;.W.Q 7 G FXDXs.c  . . .xX^.D.T.P 2X7Xu z F B.C {.` @ f b.< / x S.5.( q.3Xr.i.~ 3.=XdXFXAXqX&Xf.a.x -.B._.S.P.*.$.X.7Xp.L ,.:XS.C.;.:.,. Xn.R.B.V m.R.0.'.E.iXtX_.S.n.B.V.P K D >.&.F.Q.V ' ,.uXl.&.[.P.:.C.PXA.3 p.w.hXA.xXc.]  X9 E.[ ,.F.E.V.H.^./ G.V.CXW.B.w.>.",
"n.$Xf V.A.D.~.XXD.!.e.n.V.D S _ ~ Z.xXfXi.l.f.s.L ;.gX}.gXK.l f.D ..R rXx.1XO.+.T E.I ` yX9XeXZ.2Xd.k.K ' M.V.V.,.!.u.3XV.t.| g r.g.W.iXcXp.r.S p.5 S C.:.H Q { iXxX<X4X| + : 0 S.xXg 0.V.E.H.kXq.E.P 4.%.%.wX6XuX) B + x ' 0   T i 3 F >.;.e.H P.P.o.Q ' ] k.cXA l y.n.L q.q.h c p Z r.^ kXU p 6.Z.< g Q B.A.B.> x.s.>Xd.7.- 0.U L.;.] o.pX6Xf.7.9XaXH.@.a.+.+.3X,.R.jX:Xi._.;.u.#X=.` P l.,.B.' V.n.}.u.~.C.|.:.Z.>.B.m.` G.!.` [ [ L K g e.&.C.jXtX0X4XL.eX~.9XG /.V.B.&.4X$.! F.v.I U ..U x B.t.-.-.:.:.' :.e.~.^.+XvXv.V.~ ",
"n.E.i wX~.M.)./.vX9 2 =.|.G j E.>.. ] ~.9XGX1Xc ] w./._.Q.h f zX8.FXwXq.E.D.s.3.6 -.F.Z |.S.eXW.2Xx.VXDX;Xn.B.V.V.V._ q N U o.| qX%XZ (.: 9 ( 7 HXE 2 t.qX<X1X8 8.>XI.$.mXaXo # 0 M.kX1XL.4X' u.r.!.A.O.} +.8.| ;Xz.]   7 k.X.| i Z 6.i :XU +.] *XpXQ 5.Z.B.$XeX).8 4 _ y Z (.Z i j u D G n.] , ! ^.H K 8.~ F.e.*.X.,X2.r.lX2.v.K @ Z S ' CX:X&X:XT.(.!.~.s.%X| (.).3X<XY.^ Z.9XS.S.OX&.0Xu.,.B.H ,.B.V.H D.S.D.! K.,.B.oXfXy.`.pX<Xt.j Y x B.,.C.u.G.KXSX!.`.W.vX<XV.!.rXuX^.W.f Z.T.} A.H.W.G.K.;.[ *.(.q.;X/ j *.*.e.p.!.~ L ",
"G.L.j tX8 /.S.V.kX>.1 & / g *.A.M.M.0 B.F.XX Xa.t V J r.l.| 7 vX4X' ' r.p.F l z.sXf.7 5 r.(.rXzX9.9Xi.! *.m.D.C.^.B.XXe.T Z [.!.n v.g ^ l S ] B.#XS.^.g.O.O.#.;.I.mXQ.kX; g.O.x 0 e.eX_.pXVX4XBXB.H.hXl.#.d.o x d.I h y.H 6.C d 5.B -.M.eXV.*.G.c.nXXXu.:.V.kXy.( `.x.6.x x.N W L.(.;X1 ~ wX| t P d 7.o.u i fX_.Y.t.P.~ P ,X8.^ 5 f.*X8X .p [ z.z.%Xy.q.XX5X&X| 0X).W.).,X<Xg.x P.).:.B.XXV.V.*.[ ,.e.:.D.!.).3Xt.t.>.T &.] ~ J Z ] e.h.*Xa.2X,.^.P.Z.` ZXPXlX9X/.M.<XeXD.NXPXPXzX*Xa.x.:.! bXW.5XZXSX%X5 W.u.B.C.E.V.XXrX&XR.E.",
"C.8.V.u XXm.~.{.V.] M N R ..E.F.B.B.8 :.V.e.M.L.p ~.] | } ^ T D.A.;.p g ..0.E J { e.4Xa.1.FXSXbXx.(.P ! =.e.m.V.G.~.(.H.C I ;Xr.F nXg N.9Xk l q 8 6 7 V rXu CXB V.mX>X0.L % ^ x $ 4 =.n.,.4XCXeXH.H.E.B.zXcX,Xz.4XZ.D t.A. XG -.! <X_ Q 0.0X,.eXbXSXL.F ) F.NXJX2X~ 9XkXp $.M.B B M B v 1 s s.6XwXJXwXHX7XI =XY.3Xe.9X0.y.qX4X] VXd.;X2X!.ZXb.e.B.iX1Xs.3XlX3XI lXBX`.).<X).x.Y L m.>.A.B.B.,.B ! B.V.V.3X'.`.D.A.Z.R.f L x K (.x.S. XCXpX2XZ.fXI.F V q 5XrXlXR.W.-.<X(.7Xi.U.x.AXIXIXFXAXnXAXlX_.lXBXZX5X#.a.A z H ' rXSXBX:.-.",
"9X` e.I s V d ' n.M.G 7.9.~.A.! ] 6.> 5 Z {.}.' L._ O I vX~.xX_ C g D >.r.}.<XX.F ` ` , h z 0XgX0.pX>XQ =.,.>.B.B.B.,.e.|._ fXW.o.D.%X`.[ ] f Q t g f ;.#XQ.yX!.( g.7X+.@.L @ k r.0 M ~.E.r.^.v B ' XX_ A.0.V JXCX0.M.` T {._ V.s l L.i K U W.eX-.D.0XR.5.9 C #XrXx.P `.j Z C V.C f ! yXP h e.-.>.H.^ B E.Z.U x 2 H C.V ~.L.mXlXNX9XiX9.g._.VX,.V 0 G l.^ ,XeX+.mXzXzX9X9X~.o.U U w.` M.M.,.B.) }.,.V.V./.`._.~.D.~.0X,Xx.&Xd B.V.E.F.C.w.Z.J.P ` |.oX&._.B.B.A.:.SX).y.=X-X%Xo.`.B.n.,.^.M.~.<XrXlX5XgXGX,X] V.P y.K ] g.vX_.fX",
"{.( ;.yXO.P.Q 8.n.yXw.4Xc 2XK ] ;.qX9Xi 5 s }.}.F >.d H 3XtX6X+.q.x #Xn.m.B.JXHXdXx.(.NX: | cX4Xl.iXz =.&.e.m.V.B.V.>.G >.' V.0 B.D 5 q.5XG.=.0XD.g T.< ] M.$.VXx.~.kXIXo.8.r 6 . @ ~.,XD.G.XXDXC 9 B.>.E.9.i C U.!.` {.J yX2X!.Z z i g + g %X:X3X(._.B.E./ S ,.^.Z.+.~...Y $.w.B W 4 7 5 T.y.! T m.B.M.8 F d y 8 ) &._ l 6.;.R.#XeXtXZ.%.).BXL.0.B.v.&X2X:Xl.d.<X3Xi.S.W.0Xl.X.s !._ H.B V.F F ` B.V.V.R.u.E.G.~.eXS.G.6.[ yXeXu.S.i.B.V.V.J.N.&.] <X=.^.n.lX` xX<X<XDX*X>X*XG.V.m.`.L.}.!.eX3X5XZXHX7X).~.W.R.V.H.;.6.} 4.0.d ",
"( Q 7.+XCXu ! B CX' B. Xf R U ^.M.,.+X[ r.p U q.! -.` [.Z.@ o z 5X{.A.-.F.B.hXB.3X5.` @Xc.L.5.L ~.A.pXw.S.B.V.V.V.G ,.,.,.;.F.J :.B.f g ZX>.CXPXnXpXe.o.s.P K ~.7 B.i.vXZX8XK 5 7 < : Q ! |.OXmXy.4 V u.V 0 v s ,.AX%.[ gXHXBXuX8X7XI f b %X&Xx.Z.D.B.>.V.:.Z.D e.E.K.i.tXx g t.f G J C [ ^.i.}.*.3 d A.i.o.~.$.i J ) f $.M.,.n.,./.p.U.%.wXZX9.<XnX1.!./ >X8.&Xz.CX!.t.3XeXr.f (.vX3XyXF Q $.7.9 ,.# >.B.P.J S.6.~.W.~. Xe.u.B.2XA.S jXU.xX(.JXlXiXr.B (.zXB.4X>X+.*XCX>XZX!.n.M.V._._.F.eX9XrXS.!.`.3X(.Z.D.u.B.V._.G.d.v a d ",
"*.D v.( KXbXf L.G.e.:._.g t S H.^.B.#X#XA.^ U e.H 8 F V.c.R 7.3 H F.hXB A.M.:.&.PXl.H :.L u.).!.tXP ZXL.e.V.:.:.|.iXK :.5.L p.m l.9 A.c E.;.,.{..X`.tX#.a x uX~.&.qX~.Z.AXiX6Xx 5 6 ~ t >.H.H.[ uXT C S =.q G t.I.tXmXCXnXF.XX9Xy.# DX6X*X>Xd.6.$.-.:.,.m.R.E.Q ' V.F.i. XX.p w.Z s H D.m + 0 ^ 3 - 6 Q 5.-.B.F ..: 7 U B.B.W.tX(.CXT 7.f.:XwXd.L.Q 4XSXjX+.5 Z.x Q mX4X3XNXY.f 9X[.~.e.8 i F p J H 8.[ ' t.y.F C _.0XV.V.:.).`.U.^ l V.` e.G P.G NXE.qXFX<X! f >XY.AXAX2XSX_.~.,.M.3Xi.jXP.rX3XeXqXuXlXeXNXA.<.F.).Q [ 7X+.: C ",
"9XF M.g S }.A.U qX3Xr.S ;X=X2Xe.M.E.S.#XbXeX7.(.M tXXX^ c w.;.{.(.9X0 $ G F.0 s A.F.M.C.>X).W.- w.H rXH V.u.gX!.OXHXQ F F z &.I.d.a V.6 ).6 _.E.F.E.e.U l %XS.i.:.C.'.,.V.E.x ;XQ V 7 1 d ` E.oX<XX.0 A.A.G |.3XW.b.}.4XC.E.GXoXU.L.h &Xf.&X&Xl.8.>.~.S.e.R.XXwX! ;.G.w.J Z.U i.B.J - G nXL.,.7.r.@ # >   ` ( q.c.e I u.M.A.~.~.Y.S.@.q.x 2Xl...;Xc 9X).vXNX4Xa.fX#.xXeX).D.x. .V.vX>.(.5.v *.7.9X:XP.9X3XI.P.Z > fXP.:.B.9X0XL.1XK > 6.h ! ,.^.H.D.:.-.H.g u 6X4XlXHXeXSXGXS C.>.R.'.L.B.W.1XiX,XwXuX5XD.i.,.B.F.[ 5 i h 7 o 6 ",
"i , *.:X6.D.~.c.U.+.z.<Xj g iXCX&.V.XXn.kXc.5 +.e._.9Xl d.fXt._ n.B.I.3 + N /.g 9 Q D.Z.` GX:.JXz.iX~ C.V.,.u.(.F.#XB.9 tX6.! G.` 8 ,.:.` 6.H G.Z e.B.T.VXj.eX5X3XV.4 F [ B.8.7.<Xy.P.D 5 [.tX).Q.0.3 ;.' vX@XS.tXzXS.S.).)./.cXt._.$.& x a.d.] 5.] >.i.n.{.B.{.|.K :.jX*.q g S ! ;.w.[ @X@X3XwXF g 6 : : 6 0 d F < | >.B.V.V.` N $.~ g j k.h +.%XO.r.1Xi.S.W.a.D.pX3.l.~.(.&XX.:.+XH <XCX+.<X%XuX*X .Q.iX| o.@.% y.u.S -.D._ Z %.:X[ e.U Z /.,.F.tX3X3XA.*X&XP.pXAXLXB.lX=.G.B.,.D.qXP.q.mX6Xg 3.(.(.lX!.t.mX! ; d @ . h u p i ",
"j c y.e.x ,.D.E.9Xf.;XK.^ #.d T.^.CX` +Xu.,.d.I M.cXH k CXZ U.*.B.E.] A.Z N $.8.& x ] P f -.' @XQ $   ,.C.D.R.&.3 @X}.7 ,.).` i.r.&.` E.E.k.0./ B.Z.bXgXbX7X9XeXB.R.|.XX;.Q @.} NXFX^.7 % H e.A.$.AX!.(.F C.lXH ^.NXQ.L.(._.S./. X~.cX%.u Y | *.] ^ y.w.B.Z.G.M.A.E...e.>.H.+Xi S ` ` C ,.|.IXw.9X2Xf 6 A ] -.B B @ h.6.V.V.;.h a.x.h. .I 1X} g +.c ..h.:XrXvX*X$.qXc.| 9.y.O.o.:.H.=.a.d. .,XZX3XP.*XO.aX#.+.x.I 7.r.L ^ ' l.5.7.] G.&.> L >.:.B.V.F.~.Y.%XvXwXFXHXzXk._.s.V.G.F.nXgXD.Z.C O.j.s.9.(.*X:Xi.@.! + % & @ , ..z.p ",
"g 7 - s S S.S. X~.x T ;.P ^ ;XM.nX<XD +XS ] D f BXHXe.5 ) $ F U.mX,.7.! ^ A K R K g ^ K U %.B $Xw.x I :Xp.V :.-.C AXzX>.&.iXCXjX8.) ^.ZXHXNXeXP ^.lXeXzXxXBXSXV.B.'.FXCXFXL.x.O.(.F.vXy.I ,.B -.C ' XX~.x.:.XX`.V.R.vX(.1XB.].~.Q.~.+XM.9...j Z.^ X.e.! > A.:.:.M.E.z.e.H ) +Xa.e.G.ZXr.,X$ E.hXM.# D / ] G.M.[ y @ N mXMXMX*XU L T %. .&Xx.;XO.a.#.+.%XO.= R.AXc ~.cXd...f.| F =.7.d.d.AXuXSXeX5XrX4Xz.s.t K h.5X~._.5.U @.l.] 2.W.S.}.[ w.T T M.B.rX^.+.nX5X5XMXrXFXHXI.0.V.G.H.` ^.u.`.~.x ^ A.8XJ.R ~ *XX.& g 1 . % f R K S ",
"8Xg.$ D o.NXV._.'.K U ` O./ [ V.B.:.7 F.Q @ c k.S V.S ..r.wX^ (.mXvX:XpXf.3 1 P Y K ] f o.f.~ tX#Xi 1 6.NXm C 0 2.eXXXeXy.u 4 *.! Q z ).rXwXSX'.,X`.W.3X-.).n.;.FXzX,.,.#XL.2 b P.A.qXvX| ~.P.` B T.|.<.NX< V.V.'.:.^.NXLXD.].'.P.,.:.G.V.L e D.U.L >.*.~ ^ &.,.n. XZ.: E.jX_.[ D.;.H.`.` CXZ s }.Z.J ] K.NX^.x j a 5 _ CX[.7X;XK [ K o.d.7X6Xa.%Xz.a.Y @.6 :.vXz.P qXtX+.8.A.U./ 3.f.x.kXGXZXZXMXlX^ &X;X%.| :XP._.^.).*.S.e.V.>.V.e.D.e.H.U.Y B.0.V.Q.1 kXHXFXSXy.U.rXY.' ;.m.V.hXq rX0X~.c d S v.{. XK a.U K R , @ & M Q 7 ;X",
"z.^ <XT 5XE.,.R. X] | k.a.T r.V.J.zX) 8 F 1 r > E.c.l.c.B.A ! e.q.V.g t.7X4 % & P Y U *X6Xi 7XJ #XZX*Xk D 3 7 V W.X Q wXSX!.z.3X_.=.5.( xX,XL.~.wXl.,X3X).!. XmXLXR.H.,.;.s.6Xi V.lX-.~.;Xq ! ^. X,.i.B.W.ZX*.,.(.,.V.ZXzXS.R.'.S.e.` M.yXs s F.D.6.( w.o.Q P.B.B.^.}.&Xd W.;.w.1XG.p.tXV.V A.C w g.<.hXr._.|.U.o L.4.;.[ { U.+.T $.K @.Y T.@.d.c f.U U i 1 ' yX'.a.Z.n.] _.E.! P &Xk.c.<.,.,.,._.cX^.;X>XT P.k.rX3X9X'.W.G.P.&.;.V.@Xm.q.e.[ h =.0Xt._ } M.M.NXAXzXD.eXLXW.5X~.D.OXrXT 0XeXp 7 2 9.B ' oXT.& s h Z , # M.q.7 7 ",
"I 9Xx.A.-.B.S.V.u.jXl x +.! P H.iXt.bX9 > h.> - s.L ( p ) V e.B.N.M.+.+.%.pXY f Y h X.d.| U ~ jXV.rXo.-X*X5 D ;.9XP ,X9.<X1X4XH.e.0.9./ L W.7.).K.ZX3XU.fX4X3X_.L.M.A.;.i.>Xj.f t.E.E.G.A.F +./ s ,.~.B.jXZXu.S.Z.e.0 `.!.B.r./.B.F.[ g qXV.` H./.R.*.*.8.Q B.e.V.H.H.e.x w.^.Y.P A.V.9 [ S.fX:.f t.<XV.,Xq T.P z.B.l pXjXfXuX,X2XQ.Y U K K.%.+.j.U U K ..: ' ,.!. Xf Z.D.^.D.+.U 2X!.=.D.Q SX3XW.S.kXS ,.V |.B./._.jXfXfXR.tX^.Z.B.G.R.u.G.D.~ l q...7.O.` qXlXBXbXD.zXbX,X!.B.F.NX9XL u.~.f 1 b 0.` M.e.$XA.# , & 5 +.^ R & & ",
"@ &.q M d V.,. XW.E.P.l O.x.x JX8.xX7.!.p h + 1.z z o *.7.- B.,.q.J.U Y ..;XY %XK P 8.a.a.3.c ~ G rXFX8X*Xx i.x.! w.).MXwXU.l.T.e._.r.D 2 u r.r.9X9X9X).zX3X<XS.v.M.V.K.Q.s...5 I _ $.e.i.~.K.U.I :.:.L.DXlXZ.m.v.,._.W.3XSX).XX~.,.! e s }.G ` ~.V.p.,.Q S ,.V.V.V.G.F.q.$.K $.f *.'.H rX^.hX#Xz.G L.S.hXiX4.U g iX&X=.n._.XXqXiXq...Y K K.E L f.O.P K P a.y.B.Z.oXx.9X_.A.z.D ~.AXJXcX0XlXXX'.;.Z _.L cX&.7 ! R.C.m.XX~.A./.'.L.,.).B.V.A.E.A.e.N.e.9XA.V./.3XR.!.FXHXbX~.).D.V.JX'.=. XR.E o.=X} C H <.{.^ , & 1 9.] U.%.U f ",
"o.I 7 ..I :.B.M.^.=._.7...i u X.Z.i c nXO.E I 1 c x * S.6.8 ' H $.:.N } I @.+.%.Y K ;X6XK K } y.' $.`.7.6XlXGX[ I.v.(.vXM.[ t.d u % p.~ u r l r 9.p.XXwX3XXX).5XlX3XW.4X7X!.P R X.y g ;.T { ;.-.u / 8.CXzXzXS.^.'.C._.NXB.0X_.A.G.H.yXI K C E.F ,.).E.B.i.1XjX(.-.Z.Z.,.,.V.G.Z.] 8 jXV.H.S.kX$XY.] t.9X$.q.I +.p *.P M.A.p.Z.^.T.pX+.K f M.+.R U } L ~ ~ d.r.n.Z.V.Z.l i K j.U.nX3X`.9XC.F.M.#XcXE.>.D.:.|.#X( R.C.].m.e.C.B.~._.Z.G.F.V.B.B.,.V.,.e.n.~._.).D.rXHXlXlX5X~.!.,.B.GXW.P.,.` ; s I y./ d Z N.$.& 5 # h q.~ g f Y ",
"9XD r.s.W >.~.R.D.Q.n.A.%.i D E H ..x a u L ..z.f.1.c 9.Z.{.9 ,XY.H O. .*XVXO.+.h K 7 i d.: @.G.` L.P. ...,XQ.I.K.!.wXP.[ , E g g u l b c k p u %.d W.U.M.~._.gXW.(.rXiX2XH.l.N.$.h. .iXS S.w.NXz.sXj.:X4XgX,.}.!.J./.R.3XZ.L.G.^.,.^ x 7.r.F B.vXvXtX'.C.:.B.`./.T.s.,.;.B.V.~.1 E ,.^.V.D.G.}.rX(.s & T Z.t.6.P ~ a ;.F.tX3XV.V.e.U Y U (.o.O.U K &Xg h ..6.A.I.V.C.g *X6Xc.P.(.9X).e._.B.C y.U $.i.0.w.^.jXu.D.M.XXu.D.B.B.R.e.>.V.V.,.B.,.B.B.B.,.B.tXR.J.nXMX9X).P.`.(.Z.:.q J ` .X=.H ; /.bX^ j u U Y ^ + f a 1 U 8.O.@.I ",
"!.( 5.rXE w.n.G.e.,XH.C [ [ / X._ i f %.| ..c.| I *X7.7.Q.n.,XpXnXAX>X%X&X;Xf.7.6Xd.} < y h g.G.(.nXXX+.O.mXHXU.<X/ wXbX` y K *XX.t x.>XI p . t 5 P :Xs.^ n.n.vXuXZXzX5XfXW.W.J F @.x 4XbXvXiXlXwXVX&X*Xz.&X! M.,Xm.V.^.fX4X4 :.s <X..K f o.T B.' ,.M.n.(.).u.*.`.] 8.e.B.M.A..Xg s.P T E g K.M.Q.l.j , Z $.-.[ | K ] N _ V.B.B.F.M.$.L ^ }.f R d.+.| %.1 U t.V.c.3X[.K x 7XuX9X_.G.B.P.V.! N ~ L l q.t.>.-.&.-.:.J.M.N.B.V.V.V.L.,.>.e.;.,.B.>.` u.3XR.,.~.P.n.B.e.A.~.).).<.R.}.*.C.V S.6.5.n.PX<XY p g P g & %.K ~ s L.[ M.bX",
"+XA.H '.;XS 2X:.B.M.n.6.g $.> K e.% I iXpX>Xr.l.d.x > o GXMXP.:._ :X+.*X>Xc.x.%X+.&X2X .O.g # wXH.S.lX7Xf.4XCX}.FXiXcXbX1Xt k #.O.>Xs.I O.} b #.f.>XpXM 1X[ T.bXmX<XeX`.fX5X9XnXfX7Xi *.` !.A.GXZXbXlXDX:X] L 5 s.w.u.,.E.l.Z.P.p h Y L x U K Z 6.) :.-.XX`.Z.u.>.q 0 M.E.B.<XK R <Xy.x I g ^ P X.T g T g g k.K.a.wX<XU.t Z.:.(.>.:.G T t.H.X.s.Z s.x %...# Q rX!.:.B.).:X(.eX(._.J.C.A.B D ^ & @ | i.iXw.q.G 8.H ;.>.I.r.-.,.e.;.Z.>.;.Q A.B.] y.t.B.B.Z.' 9X_.Q.W g.8.=.>.Z.0XS S |.9X` ,.n ;X4X# K 5 f h R i 8.i.%.[ bXi.nXe.",
"FX3XB.n.T w.5 ! i.{.C s g %.T x .X> x ;.V iXM.` i t wX5.MX) FXFXq.{ x.*X9.( K 6X6Xf.<XY f.E : 4 T 3XN.2XAXa x.tXUX!.) <X8  .@ X @ < wX} 7 x + , : > a c.2X[ eXlXiXeXwXrX9XlX!.Z.S.l.d.d.<Xs.i.|.^.tXzXzXnXL.2.g L 1.S B.}.XXe.NXU t U K K f 2XP.! (.P._ jX-.A.e.(.@XW.lXH ' 4XO.y.3XV.K h.g j ~ 5 P 8.2X[ 8Xf i t N.H.;Xd.q.xX X/.NXqX3XwXT.+.( q.j x a.$.$.tXP.-.B.KX&.i mX] t.gX[ H.^.tX%.s o.v f.(.t.wX2X7XzXVX<XY.] T t.e./ I 5.t.y.u ( ! q.t.L.~.B.~.e.D.r.K 6.jXlXa.J S.FX!.> S.oX_.J.4XmX;.g ! 9 y.$.i f g Z ! Z.&.~.[ GX",
"B.,.w.G.~./.U N 9Xe.>.@.# 5 Y ^ @XI.9.[ 4 H H G.6.i n W -.9 ' /.yXJ.Q Y ^ G K o.K 4X:X6X:X..d K.iXM iX] $.P h :.@XH 9.JX1X*X..k } 5 M y g 5 i f f t 6 ^ dXt.rXxXwX<XiX,X,XSXCX2X3XeX7X~ &XqXc ).(.M.H.MXbXSXpX3.W k.| I.u.0.(.A.] K U P K _ G.A.w.Z ~.B.;.A.MXeX0X(.e.qXeX,.Z K q.B.VX<Xr.O.P s.o.x h.e.r.T f d.I _ w.*XP i J ;.:.) ' R.3X3XQ y.M.2X....^ r.N.n.M.eX/.;.0.j.AX2Xk fX-.`.q.j o.R x &Xi.I.^ [ g T ^ iX$.$.K 8.&.%.I U l.8.L A.q B k.!.[ B.V.H.6...5.A.,.9XI.7.S.mX3XS.B ' }.cX,Xr.V.F H.a I.+.X.a.AXg.;.Z A F V.B.",
"jX/.~.V.R.hXr., q <XA.C X U t T D.5X3 B.F ! 4 OXJ q.e.V oXS ! ,.Z.tXY.X.C P %Xs L J l.x r.iX:XiX9 B.Q R h h U ~.u.H.w (.6.K x @.j g 8 5 f.>Xf.t 7 o.X i g P ` q.4XpX4X4XlX~.rX_.rX3X,X>Xx ^.H 9 P.(.B.XXfXzX,X[ 6.,Xr.*X0.5 ..` S U L K *.C.R.R.q.i T ! n.! > ( GXHX- 2.S P.%Xa.D.~.~.lX,.z.! %Xh X.9.T U sXt a.U q.,Xg K s.j y.v.W.9XqXXX0Xy.;.`.;.).~ ' e.B.B.P.` t.(.JXL !.wXp.Z 2.e 2Xe $.R U j N.e.] [ K R Y [ 1XY P R $.L E ..! X.| ) 5.s.z.$.l.:.A.V.[ g 0.` 3XtX9XQ.S.P.9XL.! _ ` 8.k.0 #X` k.B.h.a.&Xx.IXUXJXH qX6.L.oX",
"F.n.B.B.B.:.S.K T M.~.) 6 / h <X,X$XV &.tXlX] <XP.JX!.#XB./.0X,.N.AXCXVXA.A.sX1X1X!.NXpXmXk.CX~.n M.d @.&X>Xa.mX,.GXl.x.l.X.c 8X#.4.r.O.I c c h.X.X.@.l ^ 1XAXzX4XwXDXNXZ.A.M.=.D.Z.FXrXc W.:.` MXv.R.B.ZXnXNX0XG.0X|.!.V.s.U o.X.K $.A.B.,.C.F.2XT 3.Y *Xc.y.7 F G B C >Xp x [ R.-.Z.S.fXC.eXw.%.%.R s.+.g.g.+ c ! Z.8.K h.a.g.y.W.D. XXX'.w.oX,.xXXXL.G.NXcXJ e.5XCX6.G [ vXOX|.A : C Z 5 N ^ h i q.[ ] ] K T K ^ iX| g i.;Xf...+.q.8.p B z.>Xa.8.l.[ V.G.q.6.U %.5.i.9X_.~.K.f (.g 6.(.[ mX$ F.~.[ 5.] / 1XA.w.:.H.` V.#X; B.",
"9XH.S.C.B.F.] ..! w jX,.K.f f 3 v.S =.B.9 yX).fXrXVX3X!.AX}.zXjXI.[ e.B.V.V./ nXXXBXH.H.m.m.H.B.F +.aXQ g *X7XwX[.,.Z.g.0 N P I -Xb <Xc O.c c k %.%XU 5 Q Z q.CXCX_.m.W.B.:.l.JXeXBXA.G.K e.@ H <.n.MX*.,.<.:.A :.3XcXv.V D.G C /.R.R.G.,.V.C.}.^.e.d.a.8XN Z < e.@.K s U O.5 ` P.H S.-.A.H R.E. XL.w.g.%Xo.N.R e P ;.8.+ o.Y r.>.G.W.D.D.~.(.C.H.~.[.,. X{.|.! p.8X} $X_ ! ;.V.G.Z.d V s & 5 ] < h [ w.^ [ g ~ K T 2Xd.%.O.y.g.X.o.-.o.U B.+.X...O.6.] F.{.D.^._ <X(.7.5.!.'.vXf.S.x.%XDX;XV.A Z.6.j ^ F.e.F ! 3X(.S.@X]./.H.`.",
"G M.R.~.S.Z.Q i q.9 vXmXV.5 t > 8.j.m.B.G eX].5XCXeXHXvX<X<X:X.XSX9 [ F ~.u.E.E.].eX6.H |.B G 0.Y L.m.dXK h T 0 H.e.' 0 B w 6 f =Xf.lXo.X.x I P Y ../ K ~ %.` :.e.V.E.H S.SX[ :.;.:.>.B.P ! M @.5Xi.n.nXZ.~.).ZXS.:.vX8.( E.p.H &.R.).E.V.F.D.V.B.^.Z.<XP $.y.%.(./ X.*.z.rXL.W.$XF B.~.C.~.;.m.M.yXZ.t U P R %.g.Z f <X@.o ../ *..XFXPXBX! Z.B.e.A.H rX' :.,.hX< E I :.M.B G #XoXB.Z *.P @ h q.t , ] V.^ q.K / K D %.j.%X..g.y.~ q.Z R g hX..5.7.f.^ ^ V.G.e.F.@XJ.9XrX&Xi.- A.P.HX:Xt g.Y U f [ } U a V.&.-.rX'.gXjXeXG 0 V ' ",
"a ` L.x +.o.o.o.N.e.j Z._.0.6 Z ;.Y 1XB.M.ZXfX!.`.JXnXZXS.bXvX0X9X4 e.0.] q :.;.~.W.AX .t E U w.rXP.CXq.U K K q.:.e.H F 4 _ 1Xz.~ L fXx.^ g %.5.*X^ $.O.T a.' e.] `.NXmX~.9X>.V.>.~.~.ZXpXs.t.S T >XG B.kX~.V.:.' /.ZXN.H.9XA.F ! ,.H.S.C.E.H.6.A.W.S.9X5XcX<X4XT.V.[.F.jX>.zXKX_.0.9 B.OXC.C w.C.V.KXQ.h.P I Y | U.N ] _ [ x / e.wXM.B.A.mXF ;.6.+.f g x K ;.P.2XE k ^ ' C A.F -.OXs w.9 Q N ' g t q.F.[ N.K ] K K s.%.=XY [ q.Z.] 0 s i - ..8.6Xf P q 9XeX!.V.[.kX9XfX3XL.k.U 2XCXSXpXB.[ ;X# T 8Xx i }.AXpX%XQ 9.g.F Y.6.y g ",
"{ M.w.8.! A.A.&.G.^.^ N y.y.6 Z T $.*X) ,.B.tXHX!.eXgXcXeX9XvXbXn E._.m.NXD.s ! z.z.x.>X..<XP.<XiXV.V.e.U P R o.y T d ;.q D / L.SXP.9XNXS.4X2X3XR @.@...U K Q e.*.mXB.A.,.9X/.i.V.9X~.qXP.j f O >XI c.-.C.H -.&.wXGXXXH.e.tXfXd C.,.&.p.;.&.B.AX,X_._.uX).HXzXc g.+ B -.A.:.` *.}.p.V.` R.8 B.) M.,.~.A A.<X~ K j 5 kX%.t.] o.%.<X-.,.-.:.4Xx L.o.+...P Y f q.4Xz.Q U B.H._ H._ w M.:.C q ;.-.Q [ 7 M.V.q.M.K S f K @.%X+.f h 6 ^ ' H.9 j.rXh !.>XP ] sXeX~.W.,.V.^.GXw.6.:XB L.dXFX7X).o.w.T 5 i Z.x.! [ N.HXa.W x K ;Xa.U U U ",
"e.V.P.@.Z $.a.X.f X.y.s.8.7.U ! p ~ dX!.J.A.V.lXu.0X).A.0X0.P lXV.D.8Xm n.C.1 ] / U.pXO.;XI.CXP.M.B.B.q.g N g Y U U u X A Q @ L.p.'.nX~.E.2Xi.B.P P a U R P ^ ;.i T.V d ~.A.3XxX4X_.G {.M.g %.t & #.*XL.P.ZXgXZ.^.` ,.}.E.E.W.9XC S.&.G.Q ' XXkX,X5X<X>XO.>XAXzX9Xo.+ V.,.w.( ) B !.F.E.,.:./.V.V.oXqX!.<X~.!.g.~ g S.K.( t.y.D wXH N.r.V.$.| (.+.+.%...P a.( ~ %.6.V.H.H !.H >.` M F q M lX).9XB A w.V.e.L.O.*XY  .8.a.d.f 3 + & 6 e.X.x SXVX4X>Xg Z U P.i.!.,.B.}.0XBXtXJXI pXVXiXDX@.I @.X.X.>.^.XXW.G.U./.X.~ P X.R | T Y q.",
"F.U.e.;.F ~.'.NX<XI c r.A.T j 5 h / d F.A.R.G.V.XXS.R.V.V.T $.( w =.9XuX0 D.5 d e.B.CXmX X<XB.V.n.[ { K K Y Y +.z.1 g 3 4 f T t.6._.Z.Z.9XU.6.A.P 8.F X Y U @.Q j &.E.D q._.6.qXG.#Xe.B +XT ^ 2Xs ..lX` >.[ ;.F.hX-.M.F ;.B }.q.0 4 r.`.C.W.C.xXi.W.p.s.o.U g.dXDXx > 2.>.gXi.! q 8.eXV.~.@ ! :.R.OXV Z.Z.Z.0X9Xw.t.S.;.(.*.4 D l.n.F.,.E.r.| K.y.R } K R L ] B.e.F.>.|.;.l.H }.V.B D U 8.<X4XwX+.#.:X;X[ 2X%X;X&X*X;X*X+.R & K & q.H.X.1.FX1XL.T ~ h.#.9X9Xp.B.B.mXzXp.BXNXHXzXVXVXy.+.3.6...6.-.Z./.<X:.K.H.I.(.c.g K Y w.V.,.",
"6.M.:.^.Z.>.e.OX>.5.i.G B.Z.~ ] > '.,.Q.0XM.V.B.R.B.B.E.tX0.g U.0 3 B.:.,.h & B.' H.G.M.>.[ B.B.h U f U U L R g 7 y $.A 7 d % 5.Z 8 ~.0X/ g.] G.g $.T.g # +.K ^ f 5.Q +.R.R.`.J ,.B.{.` F.M & V.o.> B {.H ;.B.&.R.V.[ V.}.F B ,.7 ^ f S ! E.[.[.&.B.] l &XsX| wX>XCX1Xx.zXwXpX(.G /.7 ' *.~.3 = H Z W 5.fX! ~.'.(.yXV.G.e.e.^ P I F.V.e.CXE | Z.8.h.@.7.l.w.V.V.V.A.B C.rXI.4XeX(.k.&XAX#.PXFXCX7.d.:Xt.iXpX;X*X%X*X;Xf.f.U %.@ i $.M.f i 1.7Xs a 8X8.d.Q.~.3XV.M.iXSXHX4X<XHXzX-X;X6XsXDX5X@.:XF.M.B._.3X!.V.` / K y 5 g M T h ",
",.P.B.V.M.D.&.P.0.8.t.F.H._.lX&.[ m e.B.-.].w.,.B.:.B.C.yXq.] ! ,.8 @ 6.F h d [ -.A.B T Z h J.` U @.Y U ~ U @.@.g * < 7 6 +.e ..] 0 '.9XD.^ w.(.A.[ D.: S } * K g iXA.k u.B w.> V.C.&.V E.` a ;._ F 0 H ` &.R.~.A.V.w.:.@X>.F d S 3 ! [ C $ V.[ ` >.^ W P x K i.rXHXqX$.t nXX.4 9 W.5Xi.L.P.Q M ' Q.=.:.NX=.].9X8 qXL.' ,.~.~ 9.W *.F bXpXf t.P.` j h.9X).,.C.m.].cXB.V._ 3.nXzXiXP A 7 @ kXZ.XXiX..] y.F y z.6X6X6XpX6Xf.R S & . a e.@.o.Q r.:X6 AX[ x.).W.L.B.V.iX2XIXpXpXPXDX6XDXO.=XN.FXk.,.S.B.V.B.R.^.:.u U &X%.z.;X%Xg.! ",
"V.B.B.,.A +XjXP ,.C ! n.&.Q.# ,.|.T u.A.>.P +.8.u L.D Z q $.L.6.>.A.s 6 Z.T C { M ` C P R K r.P K Y P f ] e.S.U.%.K d.} P s t.P y.D !.rXG.] (.e.<XA A Z # g 6 d O.e.5.r s V ~.D 4 7 C.` t.Z H w.{ V qX;X,.,.C.qX>.D.] i.3Xy.e.' q.F 0 4 J q V.,.;.q.c.f %.g A.[ e.G.F.e.f.VXr./ z ] B.jX! N &.e.XX(.e.D H XX/./.( R.|.,.M.B.c jXwX:X1X*Xg._ (.S.} Y /.tX9X'.'.W.R.B.B.V.C.6.E !.y.B B.d   F qX/.] ^ ! ] ! Y.j 6X%X*XAXdXu %.N.& 5 O Q C 6 8.P kX%.4 t.(.e.#XL.B.A.y.rXiXVXDXCXAX8XDX8XI._.4X` M.>.D.:.,.B.e.B.*Xh.8.P x Q B.{.L.",
"U.q.e._ >.` |.L 4 > e.8 C G e.0 C V.:.~ Q z.k U.6Xq.;.I.vXA 8.l.{ A.1 ;.hX' ` H >.{.' 5 ] E f G.U Y R Y ] G.M.` G.e.Y.[ d s 6.F ,.P Q.R.J.P. XXXjXP.B s g X t R x ,.<XO.lXz *.(.&.0   9 iXl.3 S A.>.tXa PXp.!.! ].9XA.i.fXxXK.*.W.S.*.H 0 3 :.w.D B.U.E 8XB.:.' B G.A.w.vXz.*XZ.4X#   $XB.V C u.w.V.NXV ' Z.Z.(.9 [ W.>.,.oXo.~.iX<XY.q.V.T.r.t.+.U.` V._.gXS.!.V.B.C.,.E.S.B.^.).[ &.J : 6 q XX! a.9XL.`.a.+.E j Y ~ ;XO.p N ^ Y 4 A F Z $ q.t.zXq.FX:X/.] LXC.q.t.A.nXVXpXAXVX=X;XiXx.~._.6.] S.W.0.! 6.G.kXHX4X_.A.A.n.M.e.P.",
"5.6.w.P e.w.e.P > J w ' M.M.C 8 @ V.B.d.U f g [ T.P.J.^.` l.k e U i 1 ,.H.$X:.OX5 0 &.0 i g ..T ~ g K ] XXF.' Q 3 lXS.! ^ 5 i B.H =.Z.E.qXMX].).'.kX].0 8.f d d % kXuX7XwXr.D i.H.F.s 0 HX1X:.;.kX! :.l.9X(.).I.,.*.z v.u.D.fX5.)._.tX! &.8 ` }.:.V._ Z L.B.e.3 ;.t g x &Xj.a.G l.0 =.C V.C ! f }.H i.jXC rXZXcX*.r.`.XXe.Z U.mXP F ( A.fXjX! 5.,XF.V.V.qXeXgXfX' A.V.V.:.:.B.zX@X~.W.`.<Xs 8 V.] c *.B.V.Y.%Xr.K g ] 7 E  .7.8.L N 8 ;.G.A Z.yXqX9 V.FXI.lX~.B.>.[ R.A.KXMXO.*XsXzX4Xd.l.e.T ] 6.[ (.~.p.) _.lXzXC.:.V.Q L g 3.",
"X.:Xq.t # %.L.A X d 5 # #X$X' [ 6 /.`.U L P @.^ 6.;.ZXvXxXeXI } p.=.3 C.:.&.E.H e.B ( G.f 1.$.T K K p ] { OX! { 7 ! F.o q A.F @X,.H M.` qXB.S.R.m.kX,.C 2.$ T 4 : Z nX8Xc.$.) w.V.-._ 0 C k.) J hXP.e.D G.E.i.tXHXZ ` ^.&.fXfX5.).$ *.,._ ^ ` :.N.~._.A.`.y.*.z A O : 6X3.x 2.w.~ f ! E.9X[ S.F _ _ H `.m.E.tXNX3X> cX].GX0.^ *.@.8.;.*.S.! | (.(.,.V.n.}.gXgX,X~ &.C.F C ,.A.-.fX'.KX).jXI o -.T X *.A.n.N.N.SX..R  X# P I | 7.h P 8 C N.[ q }._.JXH A.M.W.H.M.`.! - 3XL./.HXAX7XuXlXc.Y.&.p.Q rXe.XX~.+XL.Q.bX,.C.'.^ U U | 1.",
"+.l.M.g N ;XA [ 7 5 d 9 [ qX`.rXmXiX] h f U K `.y.T.( A P.P.kX]  X,.&.C q C.@Xe.<.8 ] : -.*.K f K g < Z.) #X-.[ d B vX5.> s B B J &.V.;.n.NXcX`._.^.yXzXzXl *.] h Z D +.JX%.C qX}.+Xq.V.B.Q.~.Z B x ^ g '.,.] [ CX&XwX`.~.~.BX=.xXZ.0 _.`.] n A.M.A.e.;.| @.R.! @.o x  .dX*X^ W i v 9 :.}.0XOXP.;.n.A.m.D.).9XKXeXNX!.~.5X7.F.E.` n.(.! =.| =.]. X;.M.v. XfXwX0.P I.F e./ J B.P 3.f.eX5Xi.X., B &.% `.W.(.B r.,X8.U tXL.Z d.1X%.U y C q.s 9 9 F.e.Z.pX[ ! q.,.E.G.^ [ JXPXFXIXFX5._.9Xk.3.P k.y.}.Z.`.9X3XfXg.zXW.:.>.L ..U x X.",
"a.0.M.K 6 T M [ 5.d A d s.V H J -.[ g i f R f M.Z.B.9., / =.A.rXxXV.yX;.` 4 R.D.[ 1 D G ` q.%.g Y i ;X}.' ` N.R ^.F _.hXu > a   h ^ ! D ` 2.V.~.'.p.hXSXbX5.> T ] R (.g.1Xk.0.9X' V.H K.R.gXzXPX;XI D.g ~.'.;.iX>Xc B.W.S.u.! J $XW._.vXL.t.V.B.B.V. XE c Q [ 0 ;.| b e L : 6.d.7X: -.9 S.kX~.3X~.XXW.n.9X,X_.cXI.zX!._.U.g B.B.M.H w U p.=.D.3XF.:XR.lX3XrX;X] ] !.` }.8.V.V.f.d.d.zXgXgXs.o.G.,.@ &.NXXXqXhXD.! ~ yXSXZ.q.L.;Xa.h A #X:Xh g F.q.r.HXS ! [ >.-.+XZ.U 8.9X(.>.5X5XQ.qX+.a.+.I B E.D.0X`.S.vXNXCXW.c   l p U 7.+.",
"K P }.@.L.7 _ S q ! G.J H &.e.:.4 : i L U L f G 9 ^.F.E Q Q Q 9X~.M.H.F.}.D r.%.y.x t d e.~.%.x X.x 7 ,X` B @XA.D.s G ` R.H Z > Z.B.D...P g ] XXNXJXV.[.IXPX] G.w.^ N.2X2Xd.g 6.V.V.R.B.l.fX,X;.bXa.2.K P.P.I.zX7 6 cXxX<XoX*.T XX[.9 |.` F rX*.:.M.r.O.Y r.S w.Q.c j % f +.aX` 0 x.~.jX] kX9X_.` XXzXrXgXlXrXwXXX6.rXP.@.+.9 n.V &.a.2XAXmX1X(.4XZ._ 9XqX9X8.! ] KX=.e.C |.a.< ~ u U.uX(.jXXXhX+Xn. XmXA.V.E.NX6.^ B.;.C.B.Z.%.%.;XU.e.%.Y , M.q.U.U.d.h / { ! ~.B.` (.G p qXJXGXJX:XO.O.B i + ; G n.M.|.:.i.FX2XCX>Xx 4.z.h.E ",
"K 1X%.R 0 6 V.M.s /.e.oX=.J NXZXT U 1 *.U R R Z.> C >.>.<X(.D.e.B.M.B.H.jXd Z d 7 ~ u @ A.e.q.6.^ $.S {.5XB./.NXZ.d s H =.[ ` *.T.M.H.D.D.U ] d :.J.k.XX' yXFXx.t.H M.t.zX$.R A.-.n.V._.I 3Xx (.~.Q.l.X.t.*X2X/ +.<XC rXM.qXW.-.R.B.E.OXH -.9 q T.J.$.s @.T S.Z.BXc y 5 O.2XC._.V.t.@ A.qXB.AXn.n.~.0XcXuXW.mX( D wXL.mX%X>XVXpX6X>X7XzXL.N.C.9XmXVXg.M.C./.9XQ.6.{.3X4 V.gXW.H d.I Y (.9X(.,.,.n.<XS.p.B.M.n.V.F.OXe._ _.V.(.] Q ] tXP.Z.L # ;.6.U.P.&X+.$.,.T d 5.e.r.>.1 H ( / 7 E.7.> _ g P L.0 GX!.;.' B.A._ w s *Xi : Y Y ",
"5 P.D.T _ 4 ! {.> H `.GXn.q =.#Xe.g r.K 7 ~ ~  X8 0 C.G.3X,XC.B.B.M.n.,.hXi.8 $.9 s q.0.F.B.;.;.^ t.A.[.k.V.S.#X/.*.s s ,.B.T i.] H B.F.[.A.#XZ ' S.FXFX5X,.e.7Xq.V [ L.).S.A [ B.,.M.iX9XGX!.CXwXL.K.U `.Q.k.L r.B.! ^.S.S.v.|.W.F.V.+X! E.' V 9 M.^ K g r.iXU r.y * + z.S.` Z.NX<XZ _.vXV.G.H.R.R.qX_.jXHXGXi.k.eX9XrX*X=X2XZXDX<XAXzXuXu.B.(.A.,Xl.;.H.B.(.eXS.M.BX=.}.kXm jX5 c o.a.X.l H Q w. .2.9._ ` ! e.B.{.,.V.C.B.e.5.] ;.H.(.w.R p ] P l.U.;X%XR A.5 c U ~./ ;.K $ G.-.aXS i K P.O.t.qXz Z.kX1XE.E.G.a.mX@ & O.e h I ",
"a + [ d M [ F.A.B.F.<.:.cXxX;.bXB t 4X8.6 # ^ ` [ 6.7 H jXlXjX] Q g Z Q `.F t.Z.^.4 S 0 C {.;.B._ e.( 9X5X) ^.A. XqXA 7 y.i.! R.F.:.-.V.V.G.G.~ 6.i.}.JX7X0.T.wX+.$ s L.V.t.e.] d V.GXBXmX0.m.H.rX5X/.e.wXVX..u i.yX~.rXfX`. X(.).H.H.] u.D.P D > A e Y L *Xx.f.U g h s.t + V.E.NXeX0 zXB.V.C.F.XXD.A.3XtXFX!.Q.iXHXl.`.>X*XP. X~.9XlXnX_.B.zX(.).5XZ.cXn. XeXP.:.].5XA.A.GX) oX] K I P.&X+.1.*.[ o.7.*X$.~ Z q.B.V.-.>.P.>.B.,X] q.H.V.J.7Xx.P.a.:XdX:X&X@.CX_ # k o.B.9X,.0 6.(.z pXdX1 H : ` 3XrXGX0X;.ZXB D.zXmXVX4.t + ;XU ",
"T & S [ 6 t.S A.B.&.cX:.-.hXlXbX#.d.gXtX5.0 C H 3 0.~.-.-.~.B.~ L K x !.xXQ E.|.J H y e.B : B.V.[ B.Z.~.NXBXvXu.! B.).0.I.y.! rXlX_.*.` -.V.vXiX3.i.:.oX1X*.A.iXK.3 7 S V.A.}.;.B !.5.).tX=.L.J.bX3X/.0 bX8XuXS.A.e.D.^.XXW.,./.W.R.C.w.' %.U P r.P & I 6X%XO.@.Q u U :X. L `.3XjXn.1XB.,.B.V.F.F.m.,.NXS.R.zX,X~ A $.(.~ L ^.E.).gX'.'.A.C.D.(.XXHX] G._ ,X>.~.S.rX:XP.9XrXW.}.G.K i K.3XwX(.e.w.K 4X,.V.,Xf.e.] ' 9XeX4X~.F.(.:X,.A.V.E.0.2X~.z.HX8X;XL ^ D.R ..d.7 Q B.F J.G wXZX~ 2.i 1 a &.XXu.H ) _.rXT $.$.tXq.^ O & 5 U ",
"$.^ a q 4 >.&.0 u.V.G V.-.,.V.A g ^ /.KX_.` e.>.6   B.3XXXnXZ.^ T L f.t.OXV.}.V.` e.M _ ! # e.M.N.4XcXDX(.zXoXjX_.0XL.(.W ~.W.M.P.W.bXqXW.,.G.A.1.(.wX:.<X[.[ >.eX8.B i.C.G.E.B.E.H qX2XBX8.u.lX<XD.[.^ 5.x w.S ).3XcX^.fX3XW.3X'.F.w.6.! wXo.& t $.;X .*X;X! , u *Xq J w.Q 0 Q 8 L.T [ :.>.' ! M.`.W.Z.R.jX4Xe.l a.d.VX6XP fXHXGX~.GX6.7 B.i.u.9XxXx.yX` Q.3X;.5.p.6.5X+X'.`.W.D.x.*X_./.2X] [ e.i.V.e.mX4X| A [ zXgXlXgXV.~.u._.wX:.,.|.9X(.eXI.<XpX7X;X;XM.a.x f Z ! ! 9 rX!.! }.G.L.t.Q.(.F V.rXHXPXI.w.[ _ a K.q.Z K h i U ",
"8 q ] pX9X0 &.s H $X~.l V B.V.x g XXxX_.ZX' +XE._ 4 V B.C.E.H.V.>.y.*.F.J &.V.m.[.{.^ t K > @ e.L.~.V.K.;.SXS.w.mXVX4XVX^ rXZXGXZXgXrXW.G.V.~.Z.< D.}.+X9XF.V.@X~.mXS R.,.qXC.G +XG.B 7.q.kX~.XX~.V.U.c.mX7X' D u.).V.~. X).XXu.,.A.*.a.%.N ~ & t ..dXI } f +.%Xi l i.S 5.0 L._.y.Z K ! ! &.H.; lXcXgX#Xq .XNXzXj.8XI o.c F ' V '.S.@Xe.=.C G.tX XrXI.[ q ] mX!.,X^ fXW.' D qXQ...f.a.qXH._ *.4X>.[ Q.e.~.tX^ i k.eX~.eXcXeX).R.jXfX5XL.[.(.:X(.w.D.Z._.~ r.U.r.@.@.] ~.e.C BX|.;.G F.Z.E.rXB V.).:.q.r.[ :XY.I./ t.~ i g i d X ",
"i.6.] V V NX~.m ' E.fXXX3 H.M.P K y.,.3XqXH R.oXH H 9 _ V.R.B.;.}.B.,.E._ F 3 yXM H./ < K g K 2X| P._.! B {.eXlX;X^ ] _ ] :.,.,.0X~.`.Z.,.B.,.F.K ] kXV.XX).>.-.*.GXH V.Z.G.` q &.{.>.' C /.F R.V.wXp 7XH ~.oXt.W.&.e.&.&.,.R.W.` ` ] W y.+.U 3 t S Y.>X..*X@.d 3 C }.D.a =.r.C.qX! K P z V.:.7.8X^.ZXS._.Z.R.xXLXo.7.>X< ( ~./.,.! @XW.0 ( z 5 L.CXZ.Z.d D g 4XtXL.P.Z.@Xi R._.a.} *.>.V.q.y.6.,.P wX*.Z.e.] 7.O.<XwX).).eX4X'.`.cXzXW.|.i.<X5Xe.^.A.fXVX<XM.q.K %.` ' JXs s C.#XF C F.[.R.e.M.,._.wX%.] T.VXVX1XnXx 7.$.+.t.I ",
":XG.B 8 > G OX7 q e.W.H.` &.g , 7.rX(.L.,XQ.yX].`.:.>.G R.F.@X! G.F.D.! ;.M.` ` ! ` P 5 K 7.z.:X..^ e.=.7 G.eXeXA.*.e./ ^ M.A.0XgXR.' A.:.,.! ! 6.x S.0XjX_.|.#XXXK.S.yX0 _ t.d ` }.,.` ' ! B g Y *XpXwX2.H ~.hX'.L e.C.;.&.n.l.Y f E ^ Z.d y N k # 5 E @.5 M :.C G |.MX6.t.z B tXl.U ^ , ,.+X@X5XV.V.i.7 Z.S._.Y.0.% > y > s ,.|.^.B NX9.Z Q.v.Q._.Q 6.S f 1.l.d.).o.S.[.K.A.o.+.~ !.T.xX3XL.6.P.~ x.u P E E N | I.aX3XeX_.).lX3XfX(.D.M.5XZX_.B.V.E.3XV.H.].D.V.P.V oXGXxXl q ,.` M F.B.M.M.V.V.A.S.4XA.;.&.>.L.fX! Z P R yXdX",
"eX' S.*.9 C <.z /.V.B.u.V G.E ^ z.S.!.u./.).*.0 G H V.:.B :.M.@X-.nXrXF ) ^.|.n._ M.Y & % x s.>Xx Z vXZ.q tXgX&.J.M.>.e.;.D.NXmXbXcXwX<X8.( x l.8.| L.~.eXB.B.M.E.).~.@XB.e.] F 4 ! d -.V.e.U p s >XiXGXp.&.~.9X3X,XG R.].] `.L f K O.r.$.a.h h.y % h Y & + 8 V 9 ; e./.(.[ 0 ` W.5X7 }.z &.m.|.! &.NXtX~.B.!.5.^ 5 % a D T 7 ` B.,.C fXeX,Xk././  Xr.t.y.t.1X7.s.P.f &.3XtX~.4X&Xf.8.U.3X(.P.~._.f L 6X] ~ l.8X%XO.(.eX4X9X3X3XW.9X:X6.A.,XtXeXS.n.G.S.,.,.D.V.V.~.C C.yXSX!.H ;.' 8 H F.,.,.V.P.V.,.3X].:.A.bX_.~.(.d ' Q V.yX",
"bXvXjX>XC F.;.0 Z ( V.qXw.B ~ =.v.jXR.R.tXbXzX_.Q.W V.n.H C.S.;.,.G.! E.5Xw.oXL.! ..u h f i :Xa.c x.,XkX-.K.'.!.n.,.9XP.(.i.S.3X`.3X(.g +.+.P V.A.+.9Xy.:XF.F.H._.).G.R.OX{.>.P.D.H _ ` w.K 6.^.S H vXNXeXu.J '.5.D m C.u.&.W.U Y P X.pXiX@.~ ;X} * o y , h @ 7 3 - [ .XjX*.>.n x `.:.q > G.V.F.5Xs.L.w.*.+X:.d 5 i t ! [ 5 _ !.(.'.=.D.jX,.z vX5.<XW.d ] s.5X;XU.<XP n c.).(.L.-X;Xd.l.R.v.! e.e.Y *.P.M.P.2XwX>X-XI.,XS.`.k._.3X3XS.d _.<X).~./.B.M.9XfX3X` ,.,.:.W.,.B.BX0XZ q ,.M.3 A.V.B.S.B.M.V.G.XX/.oXbX~.~.A.` [ ! `.<X",
"K.C.[.LXG ! =.) 6 ) B.#Xl X C / # m.).0X_.~.3Xi.i.4 vXM.-.F.B.u.}.Z.D u./.fXN.:.P.j 7 B P $.(.;Xc c ;.A.@X8 eX<XeX XrXW.<X`.^.eXeXlX3.x Q [ =.W.,.;.yX5.5X,.V./.).0XC.Z.,.Z.F d 6.&.B f ] B.B.V.`.' ^.5XzXG.T W.I.@ &.`._.cX'.L Y ~ $.|.J.M ] 7Xx.Y j t _ 7 N # @   S OX_.:.{.S.X.- OXV.,.H V.V.{.C G.^.B D.e.: i B V.L i U P.).~.+ @.' &.B.=.e._.,X^.F H.k.i.1X:Xk.D.n iXl.9XU.%Xa.%X9XeX<XP.I $.~ K.!.C.uX<XmXwXk.r.p.8.Z.O.3XqXy.z.F.Q...o.K.W.,.,. X X3XwX:.` Q ~ ;.S._.SXu.J [ F.V.~.B.:.V.C.B.,.n.V.F.0XC.E.,.~.o._.mXlXiX",
"`._.hXJXD d _ Z P t.M F Y ' V.T._ G.D.u.}.*.'.Z.9XfXq F.m ; V.V.q.K T ;.{ }.M.:.$XG._ C 6.3XfXiX:XD e.&.gX0.S.S.^.3XmXnX' ' :.~.T.l.Y U &.=.u.^.L.:.^._.<X-.=.~.3Xm.u.l.Z.%.i Y y.}.F Z.,.F.F.B.V.C.H.lXMX*.^.wX(.^ d C (.t.~.'.u.C.F.@X}.:.9XBX3X] 9 9 V.N A Z s   . ' vXu.@XjX9.e.B.H {.V.4 ' M B.}.G.A.~.^.g i +.<X# 6.- N.Z.i.k.] _.=./ ] w.~.e.>.A.F ] 4X).5.u M.W.4XfX`.+.l Y [ /.B.C.x g.B./ D.XXC.eXeXeXaX(.`.w.I.).%XQ.0.$.V.tX}.1Xa.s.9.K A ! X.a.,X-.f D E u.B.XX0X~.|.=.V V.] ] >.:.M.B.' ,.;.M.V.M.J.rXKXY.}.3XuX,X",
"'.B.n.FX2X9._ ` 8.] t % , $.A #X:.V.V.:.R.L.3X<.eXW.F.=.B ,.E.>.# K P ] $.}.n.S l.-.Z.G.w.9X3XJXQ.S.J *.JX( 3XNXfXXXF.F =.gXA.C.~.9X%X| =.y.;.M.!.W.R.vXkXC.>.Q.Q.,.X.] t.5.o.O.H.[ 4 G H V.V.M.A.F.tXBXKXX.-.8.Z.;.! 6 4 ! D :.&.-.V.J.&.8 yXJXJXL.^ f N ] A yXU H $ B 2.R.$X/.p.m M.B.>.#Xe.G.` F.V.hXC Z.$.U j Z (.1XF l % [ e.`.XXqXe.;XO.5 ; C ;.V.R.Z.0.wX/ l.q <.5X/ Q L x ;.V.F.B.` s.O.:.I ;.l.:.e.eXw.q.[ G.! 1.P.>X@.>.D.C.A.'.).L.!.,X[ A.S./ X.s.P Y X.x.C.n.,.S.E.^.C.V ` V.*.F < > l f P P I s n.A.,.e.! n.`.NXcX",
"_.3XwXc.G f s s.7 @...f < i h C `.b.F.V.V.0XXXG.R.!.E.e.` ,.B ~.A h | 8.A ! M.F.).8.H M B.B.o.r.!.| x S OXzX'.>.V.,.).wXP.3XS.F.L.A.r.U Q ,.=.-.OX0.Z.].~.B.B.zX_.B.$.(.rXi S 2. XM.>.4 ; N.M.-.,.A.H.CXtXZ., p g M.d `.B e.A.[.-.B.E.cXi.B.F rXc.AXU.8.8 4 F T.$ M x M ;.W.' XX(.oXM _ V.B.*.M.C B.:.,.[.p X.g. XG s._ , e @ (.Q ;.D.XXD.}.5.g @ k > ;.C eX<XK.vXgXZ.w NX~ l x U :.A.u.|.G.g.z.q.c k.s eXeXA.m.^ U Z.mX%Xi.R >.W.B.V.B./.`.).3XtX6.V F x a.T P $.! `.).~.`.u.E.B.@X,.m A.}.#X1 % ~ ~ U U L X.x P g T <XfX(.eX_.",
"<XS.u z.Q @ % E g P &XK -Xx.$.h oXBXS.C.C.R.-.-.M.;.7 |.S A 6 S A K K / A y.q.>.:.G M G PX=.9 * / | < @ 5.zX,.:.~.fXP.e.rXeXp.B.E.~.X.U e.Z.gX~.F.I.r.iXwX,.7XH ' W.P.P.L.j.&X1 ;.y.^ s w S [ e.t.w.! k.y ^ 1 o 1 ;.N.V.u P.G.M.B.V.' '.bX:.n.,.H mXe.Z.Z C / e.(.8 A.B.( u.n XXMXZXG ' 9XXX(.7XFXH ` f T K x _ ` d S :X< x L.(.( =.'.Q.A.G.^.Z 2.3.% a.a. XL `.K.vXtX3 L.~ L K =.:./.}.' :.I.k.C.U y.Z.bXQ.=.M.^ U 2X8.1Xe.! 1XA.,.! e.S.r.o.&X2XY U U =.d.( >.,.e.A.!.B.e.).e.u.B./.5 ) C.|.~.U g ! ] e.q.(.X.U ^ a.[ E 2.I.l.",
"uX+.7.Z HXP F n ~ j K.N 5 d [ s B DXL.;.D.E.5XfXJ.+XQ V.,. X! P 6 ~ o.Y @.P [ q.e.6 ^ > 4 tXJX8.l.c R e  .p.;.~.rX5X`.] ~.rXlXD.~.@./ u./.NX(.m.cXu.vX:XD.}.4.}.' ~.u.W.E ;XfX8.' ! kXZ.Z.< U +.U f h.eXtXG.;.q.t @ 5 # | . & q.V.;.R.qX3XE.NXE.,.V ! 0.2.d W.B / 3 ! 6.(.k.e.  ,.,.rXrX(.!.1.I ] z.e.P ^ K wXJX!.VX%.p 1 P.NXD.S.u.'.~.~.>.D.xXlX;.2.ZXs.1 7 XX9XBXw.E.I.u o.: D ` 4 S.d { 2X9.A.l.).R.zXm.F.E.t.O.Z.e.{ V.4X$.u.] f g.k.+.*X(.eX1X>.Z.R.>.V.V.M.~.:.B.S.I.(.Q.M..X'.:.S.` ` m.w.U K K n.:.,.M.] [ N.S.a.&Xx v ",
"3X*.[ z ` vXPXmXL.2Xa.6.+.@...i &.i.~.' ,.R.eXH C.].5XM.;.,.A.F [ Q Z.;.Z.e.F.H >.4 i.B.4 XXZX:.`.g 8.;X/ 0 ( W.tXfX}.:.rXeXR.V.6.;.G.B.V.R.R.` zX,.oXbXE.@X7X:.^.F.L.3XzXcX0X).M 0 H.{.+Xt B A.B.lXQ.M.[.H.B.N.' T T 8 i N @ i =.B.D.).B.:.|.G.M.` M A S.V.A.F 6.B G ] F O.j g   _ 8.7.;X,Xd.Z e.1Xw.f ! ^.SXCXzXiXC ../ ( w.fX'.B.R.(.;.Z.^.nXnXG.7.S.d...t ^ P.FXW.{.3Xz 7 @ s ` *.T M.9X+.Y ~.9X3XE.NX!.e.&.G.;X<XU A e.4Xa.;.*.s.3.S.9XDXZX_. XW.E.C.V.M.D.W.y.| k.-Xf.3.B M.F.jX>.R.F.! R.F.e.U g D x t p g s f C c d.s.d.",
"XXCXFXtXF Z.P.W.S.J.K.M.e.y.Y y ! R.KXCX3X0.lXv.e.-.5XB.~.e.~.H.q B.R.[. XB.,.;._ B.>.@X4 H.(.(.t.7X-Xo.&Xx 7 T ].E.P A.P.).e.q.&.W.V.9X).V.|.nXZXvXR.M.C.XXz.3 0 - w.SX).'.(.vX<XM ,.B.B.! M.E.lXD.:.M.:.V.{._ Z.' N ! t.;.j t > Z ;.J ` 9 :.P B H.F.` ~ ,.` . *.p.0 + , : g r.} I.K Z B.xXA.u.'.D.A.~.W.|.tXT.mXI.| W.t.W.S.(.].].).C.S.~.9X;.9XvXQ.Z.uX6.~ U Q nXe.(.P.` q.@.h q S.Z.{.tXc | S.C.L.m./.GXNXbX,.eX(.e.h X.I.x ( e.a.R.fXzXZXbXQ.`.).B.C.R.].,.^ +.*X3.3.%Xd.>X&.!.~.>.S.{.:.B.V.V.$.U e.Z.N t R g 4.(.f u a.g ",
"6.:.,.#X,.e.' _ F J.N.M.N.6.5.p v.&.m.^.iXm.rX`.E.&.GXeX,.B F.OX! G ` B.V.|.|.d C ' B D.<.M G [.F.Z.%.x >.< z l V i.).B.MX6.9X5.&.~._.~.A.V.V.:.~.NXeX&.- !.<.A M.] z cX).;.cXlX,XG n.B.@X9 V.B.iX0.;.M.^ t.e.n Z.:.;.M q.e.R K : X E 7.Q.| f o.A V.,.+Xg.B >.d 2.A.3.t S & e.tXZ.A.mX<XH >.' J.yX).>.V.W.^.tX/ | ~ @.NXD.qXkXfXw.D.P.#Xy.W.@Xy.U.cXD._.<X(.0XuXU L eX3XrX|.g o.| A ! G H.qXh.I :.L.3XV.m.S.V.[._.,.Q.K.K z.! K 6.*.Y.5XbXZX5X3XS._.).~.C.V.=.=.U E 6X&X*X&X3.z.xX:X'.B S C.B.B.e.B.! V.+XC F r.6 VX  ^ +.y ..f.",
"n Q ,.,.E.,.J ,.V R.B.R.E.;.P I ! u.V.M.gX' V.e.m.V.ZXNX/.OXA.V.,.E.S 0 V.#XR.V.>.-.e.;.H {.,.:.M 5 @ h 3 U g O.o.PX,XS.H.A.B.s.6.B.V.u.V 9 ^._.wX^.e - G :XB -.B *.k.,X`._.n @XXXS.:.e.E.:.M.E.U.5 T e.x s.P > s V.F F A.'.~ g.a.X.o.! ! i . f wXT.xXC d Z.vXi.d :X5 x.T 9 &.` H B.B.F.yXMXXXZ.u.C.0X'.P.Z.w.g U / A q.R.~.).9XfX3XB.#X=.9XE.NX] }._.tX(./.B.].).Y L.P.H.@XK.O.t A.[ q F.kXO.c -.W.9XA.B.9Xm.tXCXE.H.W...~ ^ I ~ ;X1XbXDXW.AXgX9X0X).A.J.C.^ $.x P -Xv *Xf.#.| (.7.).i.9 q.V.D.C.' n.qX/.! CXCXT P  .dX} f > f ",
"S.5.V.e.OX).,XjX3XZ.:.&.B.}.[ %.f =.C.E.NXZX` B.C.B.E.fXV.H.#XB.e.@XNX-.z !.n.G.q.>.&.B.H.H J |.G.tX^ 5 @ +.g.k 8./ eXK.S.~.Q <Xp.B.V.W.;.u.~ f >.4X*.s B k.C.F 3 D 2X2.L.:.w.Q ] /.,.B.C.M.Z.BX_ 6.j ;X1X:Xh 3 : B 8 ,.^.x A ! 6./ ^ %.+.U | X ` 9Xq.] A ~ #XV H :XZ %X<X!.PXIXNX!.:.,.B.e.,.CXl.W.tXw.P.] | X.l.D.vX6.V.0X'.D.D.R.R.).C.W.,.).8 D.Z.XX(.e.>.E._.y.I T H <Xh.h.& 9XK.:.w V.+.6.R.V.,XB.n.MX'.B.C.:._.qXL.i U U a.l.*XiXbXgXSXW.).P.(.B.V.C.P O.U &X&Xy f.%.*Xj q | l./ ^ ] V.&.V B B D.eXn.) T 1X>Xt 0.2 Z.+ L ",
"Q / V ] fX' e.- rXzX9Xv.V.` V.W 2.i :.V.!.m.!.,.(.V.E.V.3XM./.~.&.m.R.cXW.fXG F [ M ( ) nXP.| p.>.Z.e.< | O.%.7X2XpXzXZX3Xk.I fXV.B.oX,.@XfXu.J cX!.H M Z.~ 6.[ ^.W ( b.zX*.T.~ [ T u.&.V./.3XK.8.7.*Xg.pX7.< # s F A B P.P 3 + >.V.A.F.A.q.f t & S V s 6 > :.l.P g.X 1 @XB.&.R.~.i.xXI.M.e.-.<X~.(.XX,XY.%.| h.0.R.*.w.].Z.~.cXp.S.>.:.}.G.{.eXAXI.(.p.rX0XxXP.P.6.+.8.^ w.U *Xe W (.eX>.f  .,.W.C.fXu.H.C.B.B.C.C.,.G.E.K R o.K.fXeXSXlXFX,X3XS.i.S.T.T.M.L Y O.o.h.I , 6X;Xc L p @.1 : ] D.~.9X*.9.' _.W.0 4 U F o O.+ I % D.",
"xXb p / !.E.9 w ` vXlXW.G G > ~.L.U > &.3XA.).C.M.V.{.fX3X(.V.B.J.~.Z OX0.9 ' tXAXmX,X_.,.3X~.<XK.qXP U k %.O.a.pXiX:X9X1...g.(.,X&.>.).GXkXZ.AXeXrX-.' aX<X7.q ,.(.x 5.LXW.T.k.] D S.0 *.G.w.u.r.+.| } 6X7X} > > 7 6 &.Q p.S - M ' B.E.$XF y i y I Q 3 @ > @ z.6 [.,.n.C.J.:.B.|.fXB.K._ [ q.9 9X_.A.d 6.I +.p.t.fX;.vXW.].(.qX X~.).3X9Xu.V.V.f.w.r.,XXX<XS.,XW.Q.d.! y ' K 7X6Xr.S 6.P 1.a.Z.Z.:.-.` V.V.V.-.rXjXV.V.V.L L *XeX0XZXlXgXBXgXl.L.K.U.(.~.N.Y f %Xo.*Xt p  .sX*Xh } g X.@ Q t.w.D.r.S A.D FXVXz.O.*XE 2.& _.8 9 ",
"` U.7 + E >X1XwXw 8 mXv.-.' H B Z.4X*XY.!.gX].B.C.V.=.e.XX].V.B.F.qX0XR.B.,.F V.F.`.:XnXCX,XB.^.GXBXz.l.@.| ~ 5 < Q V AX*XW..XtXrX(.2XK.,.r.PX3Xp.@Xn.=.xXcX,.0 E.r.Z 5.wX(.: 7.(.: i.V.B *.$.! g.9.~ p  .*Xb c E d B ; >.p.e.# ` B.V.m./.$.. s e k # @.5 7 j & i.-.:.w.z 6.0.A ! E.Q.] X.P q.' (.Q ~.: % v [ i.w.Z./.`.XXXXB.B.R.'.XX~./.fX` &.s ] I x.lXL.4XMXzXW.;XE O.< } %.t F }.J =._.!.P.r.V.-.:.H ,.eXw.G.:.M.M.V.K f.g.<X,X XeXAXbXAX4XU.z.s.Q.T.Z.U P d.%.$.| } O.4.%X .O.%X .@.0.A Q [ 8 ) :.P 2.P.0.4 . 8 ' AXuX' d ",
"M.7 q.d.7X4.:X1XR.C R.4XV.C B.ZX0.1XO.I cXm.V.B.m.J.SX*.M.~.R.R./.D.@XB.M.m S.9X~.~.i.M.[ rX3X<X~.yXW.@XaX7X).<Xo ( =.kXHXv.C.cXfXrXK.Z nXCX9X9XJ &.rXBXgXQ.V.B.B H ;.G.xXCXr.c P.o./ :.p.~.i.7Xg.g ;XY.3.*X#. .f...>.f ! 3X(.M E.;.n.oXD Y + P Z @ w ;._ -.0 ^ <XmXjX7X5.I.~ T ) n.` u T ! W.G XX=.` 5 < [ m Z.S.XX` B.C.C.G.(.Z.V.-.H m R.p.0.U iX>XU P.CXy.jXv.5XcX~.K iXzXAX1.6.K.@.E.0XeX9X'.<.E.cXrXXXoXP.;.[ ,.M.V.&Xa.f.rXaXm.(.tXcXxXL.L.1Xj.8.N.K.P g.+.d. .h.} Y I  .*X4.l f.p.0.` A.(.8 B lXr.O.p k > r ] K F - eX4 ",
"M.r.s.| !.1. .uXF.] ' X.0.q B l./  .;X2 gXW./.].V.C.cX/..Xv.B.V.C.A.[ +XyXV.R.F.H.F.6.V.e.e.F.-.n.|.lXF.H.[ (.lX5X~.>.F b cX>.qX8.6.l.DXW.9X&.,.0 E.l.SXv.#XV.:.B S.e.6.[ ] nXsXI $.( E.6...L.4X( f.U ] z.f.f.d.e ^ P.W.7 i.A.8.V.0X/.vX..t _ ' ` i @ ^ {.>.V ' r.U.VXHXlXj.7XW.m ! R.!.P [ ^.H NX,.p.g N |. X:.XXXX^.S.3X5XF.F.m.:.GXL.u.XXGX9.& r.8.< a K.4X@.o.8.0.5Xu.&.C.NXxXB.R.5X,.cX/.W.`.G.P.:.B.n.B.G.f L i C U.9.P g s.A D _ Q J./.(.L.:X-XO.%.g % A +.p 5 h h z.+.p } *X..i .._ w.B.J ; B Z.HX4. .&X7X. 4 ` 6.K 6 % ",
"4 K 6X&XO.d.~ O.7X-.nX4Xx.0.) p t z.W.s !.XXu.e.S.u.S.&.J.,.A.R.V.R.u.A.E.,.,.M.B._.U. Xp.,.B.C ' E.zXW.}.>.B.wX!.e.C.NX~ D 5X X9 8.>Xl.cXG.q G '.^ 3XbX'.B.E.' =.; A.[ e._.~.>X&Xs q ] y.X.Y.K.*.d.] A.r.7X} | p W t.d d 9 *.( ~.4 T / y e A.! 7 g d ] F [ H.G H.FX;XCXU.#.&X7Xz 1 J.R.e.`.+XE G &.!.j w G.n.i.eXB.B._.].S.!.B.M.qXR.NXi.3XNX,Xf g ^ ! _.s.2XiXW.=.cXrX,X~.V.q tXxXxX XF P.)._.W.A.,.` ' ,.,.}.i i.I.~ s...l.T R 6.i ] K _.H.e.i.;X8X9.3Xs.p M h Y & 7 3 @.K 9.I I l s x T a ` J ( t.c.8X*X} f 6 Z + d ' ] # e.",
": x.l D K y A O.CX7XG ZXmX2.Q U  .P :XX :XQ e.W.3X(.<X_.W.gX5X'.^.m.`.eX3Xi.B.V.D.^.&.m.vXeX*.|.A F.zXv.#XjX*.=.k.- B ).r.i.BXG.T 4Xk.6.9 D.AXHXCX XVXS.-.,.P.@.t.;.` &.B.~.V.a.1X~ 6.:.r.I U.~.P E t.! d P U iX1X;Xe.K.d 0  X6.;.o.(.L.O.f ~ h ' :.-.i.` [ M.9XjXT.Y U.l.t ..CX>X8.0.9 9 H NXB.[ i.a.@ 1.GXlXnX~.`.NX3XS.0.fX3X,X_.qX9XL.nXDXZX~ p.).A cXt.i.iXXXs 9.).S.Q S.' J.eXZ.` *._.jXrX3X}..X*.-.` mXcXbXd.U.~ y.$.3XZ.t.>X&X^ ! H B.u.L.>X*X;XY.I L C L U $.s @ F P S.^ g 5   F S S 8 ! CXMX! 7 > } I l.Y.j C a 6.p w ",
"l 7.g P P a.^ # F.tXAX0 _.pX% ^ f %.d.6X6 S lXB.eX3X3X).9XlX`.D.0  X~.S D.5X:.~.M.^.,X&.G.fXw.fXR.R.KXgX,.) hXhXJX8X< ^ !.rXs.,XAXeX! Z Q.B.;.A.Q V._ Q D Q.I >XA.vXP.i.5XiX5Xc.:X6.w.S.9...8.k.Y | g d h A.r.+ ! T ^._ F q &.6 *.8.e.q U c.U F B 9 Z.5.5 j y Z -.#XU U 1XY I VXL HXBXW.(.0.V.CX;.` e.g.p =.! G e.3X~.`.cXW ).(.~.~.e.XXo.9XkXMX9Xd.D _.^ 9XP.0.T 0.y.8.9.u.i.!.:.' P 2X~.D.n.V.^.XXF.Z.F.9XZ.D.3Xk.=XP.SXFXeXY.6X7XDXCXCXzXu.Z.9Xx.&X7XX.j L P , a ~ T * h M J ^ d @ @ $ P ! A  X3XiXIXZ.s.5.nX^ P f @ + T } @ ",
"i.C X.U y +.t.! 6 0.MXAXJ a.O.t ! P K.7Xk o.9X).}.SXlXeX~.D.).oX=.u.>.G.0 S.-.;.M.~.<XnX-.i.`.6.V.,.R.4XL.M.` :.d sXf.:X>X9X4XwXiXyXkXJ NX.Xw 3 H._ H.H l I ! ).~.eXcXzX1XS.AXlXlXe.e.~.[ s.&X:XI T ^ d 1 ] _ d 7 A - d B B e.G  Xw.0.l.a.0. XE.[ q.A r.& j h & Q NXT c ..+.4.>Xc 5XL.vXBX,Xr.+X[ ^.yXrXi p yXrXx._.gX/.D._.] ( /.>.MXrX3XD.XXFXeX,X1 !.o.p.eX).:X).Z.rXr.Q !.0Xy.Y...K.tX!.,.M.B.C.R.^.V.qX9X^.tX7Xf.PXzXAX*X6X%X,XuXuXbXeX4XzX5X8X>XI.I.+.s.U K s ^ Z u o.R Y.O.;Xc %.x.s.` t.! rXHX,.L z.o.K.8Xp a.I g 1 y u ",
"P w ! Z p s s.K.P.Z n.<.B f <X,.' G L.9XDXb _.mXwX5X).rXR.L./.~.*.W.Z.B.: P.R.! _ Q G :.u.Z.p.f -.0 [ <Xl e.G.5.p C *XW.U.HXpX5 B.B.n w.qX).Z.F [ (..X! g ( C yXrXeX3X`.wXq /.Z.V.~.).~.tX8Xc.U.A T s y.g P D P f @.k.T B A F ] fXZ 2.L '.Z.C.}.q.g.y.r.5 +.& j x.Z.9X^ 8.a.-XAX&XW.5 u.HXpXMX-.M M.n.}.<X2 Z NXZ./.tX~.;.>.-.:.G ; B.V.3Xi./.<XHXSXX./ :XL e.l I O.v 2.u u u / 3.W.7X9.9XP.V.V.V.C.&.m.V.B.>.B.~.l.c U.FX*X;XlXGXDXzXcXJXVXzX5XLX2X4.pX8.9.1 s < & 7 h I j 5.K Y ^ f.d N G 0 i.9X7XH.PXiX1XX.~ S j , P + ^ f y ",
"y.N B.B d.>XpX5XPXPX,XqXn.I .X>.8 p.` NXL *X,X,XfXnX0XlXH W.u.W.P.S.^.).3 6 *.U y O.@._.Z._ N pX1 x x u : o s 8.l Z.1XFX>X>X,.B.{.C.0.rX_.I.' F B <.B.A.I *.+ G :.qX5X#X_.` '.~.*.D.~.u.9XU.( A.! A V K K ] D T %.U.x.` ] jXP.<X<X5.j <XqXZ.F.G N U U %.+.U h , e ~ /.Z 7.*X6XzXzXzX:XAX4X1X_.qX:.E.e.;.J i *.,.;.B.0XXXp.9 D.}.G < gXW.P.L.~.Z.O.1XI.2.Q./ 5.O.6XO.7.Y | o v 4X(. XwXB.I :.B.,.B.V.,.A -.,.x w.y.g.>XK (.%X2X/.3XHXSXbXbXl.,X).HXSX8Xz.lX;XU 1 g i h t P 5 7.o.X.x.[ 0 9X~ A.wXpXL 8 g.bXiX@.5.| y & U x U x %.",
"~ A E.F.iXs.(.-.N.q T _ 3X} #Xe.S.(.7 t.9X+.a.p.9XA.XX/.w.fXA.,.] y.[ qX5 1 5 a.d.U g.P M [ # t E w.d Z (.(.D F d tXq.SX8.f.- J ` ,.7.u 3XS ] Z.w ! 6.M g D @ ` &.Z.0XV./.`.XX].(.Z.).V.rX5Xl.jXK.! B D f s B.6 g ` L.9.T |.{ ` G.P.<XG.V.).I.T g R ] ] Y %.K %.c q J XX5Xc 9.K.,XD.<X4XgX6.M.M.e.@X9 -.<Xj.( S.&.A.d zXC Q G.|. XT e.gX0 r.Q.k.6X| L 8X..Q l.2 z 5Xs.z.5.6.5 `.F. XE.R.e.f ! P.&.;.] i.X.X.E ] ^ l.d.0.! f _.L.V.cXVX5XW.2.GXmX9XPXU.H *.o.R + u 5 X.;X| I 1X:Xx./ T.;.C S ;.P.xX<XV.p.8.Q 6 5 j.N h U a.g L @.",
"r.[ :.A.F $.L.L (.6.$ tX:XZ F.yX3XS ] ` p.8.r 8.E J Z 9 L.A.R.V..X! ! :.U i p t +.t &Xj :.' ] % L R.H G E H ~ [ B ;.!.U.i.d u + q y.+.%.iXa 7 >.V.w $.g.*X1X:XP.0 >.E.R._.W.!.`.Z.wXG 0.A.}.P.R.ZXkXjX> 6 > tXN & >.lX( N._ [ U A.<X0X[.'.L.Q.g.K T $.q.@.h t f DXCXgXW.tX..Q ,X3X8.cXVXK.P `.V._.E.@XbXjX>X1Xl.p.vXi.NX<X9 &._.B aX!.9XL.8.7.s.h.x D 1.s.e g ..I.8.lXc.o.` ^ >.V.=.R.F.V.K...] m.e.H B.E.V.U d T . &XU.s.] /.3XvX_.nXoXzX>.H C a.w.iXP.P.zX8.DX6XDX:X!.l...6.T.*.>.M./.! Z 6.r.).8 ` o.F.T 9 & @.g , ~ L E @ U ",
"CX,Xe.N.|.4XfXK.F JX*XrXM.g J ;.0XA.x L y.I.1 r F XXe.jXF ,.Z.H ~ p t *.1 O.1 e t y g.g 1 t  .@ Q ,.d ,.U.] 4 0 D.yXmXi.` :.M.~.^.[ P % e.T 0 9 w.:.` 0 q ;.3XA.+Xe.C.~.~.OX0.5X! z.l # n.V.H.OX,.,.NXZ.' e.! T 9 $ mXt.[ g.d.a.3XNX(.d }.6.g.:Xi P e.w.P f + N 3 4 AXr./.I.'.2.cXrX<X_.] 5 ,.V.C.B.E.Q.mX*X .!.,XD =.fX,X).Z.W.^ T T [ 9Xl wXc.+.&Xz.u 4.r  .j 8.k.ZXQ u.&.lX/ OXV.= B V.F.V.H./.|.;.> :.- P e.[ w ^ }.Z.( m._.H.jXeXZ.LXV BX!.[.1X3Xl.B.OX! G 6.6 d q.] 7 ^.G..XJ H -.0 C L : :.` -.w V.6.L.h d +.@.] U L.O.>X",
"CX~.R.,.&.,XfXv.{ 2XcX:.V.~ R.P.F wX..x.rXnXz.a.} ,.^ :.B ! ..W U P 1 P s.R a.j 2 I.9X8.U.d.i i Z ,.A.|.3X1XB S.Z.K.lXS ` C R./.G.H :.F Z.&.;.3 F.>.M.d &.' eXuXp.] ~.Z.NXw.[ 5.E l.h 9 4 ,.B.|.Q B.|.yXA.H :.6.N < ( A.! O.l.L.W.NX3XQ.W.r.] T.T p >.>.] R f f a 8 :X! ~.BXHXK.9XMX] V.] : P M.,.,.,.mXW.I.8X8X:XGXZ.3XS.U.7XpXd.~ 1 [ r.l.r.uX .1XiXmXc p x O.%.r.Z.i.0.}.H.,.^.{.M.9 n.n.0 B B ' ^.] X 6 + V.A.q d ` E.M. X X`.:.ZX8.IX8XNX5XT t.0 3 ` ) =.8 e T.T w.&.J B.`.oXu.}.jX:.5 :Xt.` ! D.q q h T @ 6 U %.[ R e.E &X",
"3XC m.W.).jXNX( H.wXV.V.-.` xXNXiXU iXr.] NX~.~ 1 J < r ..( 9X).nXK.c.s...: x , I yX^ 0.q.M ] ^ ] 9 @ 0 ,.}.N.B _.rX_.i.H *.q.B.0 N.y.Q 9 e.0 H _ A q - - G 7 <.NXHXlXe.jXr.&.8.6.;.o.Z ] Z.! u.; 1XBXbXLXF F B.,.' d *.D._._.D.t.'.A.qXrXI.T Z T X T.^.g 5 y f h.T 7 Z.V ' JXs qXG.` C.P u g 8.Z d.`.! @XmXzXzX:XxX9XZ.x.+.I 4X:XbX1 I.g.[ K rX..(.wXJX:XK K g P k._._.B.`.@X8 J.kX_ G ^ y.N.H   9 ` ^.> : ! ! {.P.oX6 G.~.D.,.R.0XbXZ.L.0.oXXXN g ^ ' V.yX*.T.1 A.F d H M.D.] R.B.S.,.eXQ [ d w >.G.t.# 7 G.u T %.[ A y s 8Xs.",
"e.8 2.0X'.].<X'.yXoX`.B.zX5X*.:X| 2.&.J d BXFX6.g k 4.p / z 0 w.A.0 iX:Xx P Z 6.! 0.] 4 J M # H.e.#X9 ,.{.; G.F.B.).tXZ.! 5.5.V.M.i P U.A H H C e.F ! ;.! - A 0 V.J.V.).` zX>.s 9.V XXl.a.k.mXbXMXc.(.0XvXZ C C F 0 [ T *.z `.qXfXH 9XD.XX^ ( d q @ ) >.A f D Y ] [  XH ) ! P.K.5Xe.! {.Q i ..X.Z L B.P.' aXAX1X7.M.x g f ;.[ M.V.kX| f.g $.K ' ` n.' V :.D 9 CX/ d wXxXe.5XqXA.M.yXS.^ M a.k.s T.r.w e.w.q >   3  XoXF ; B.^.0 4  XtX4XLX9.oXZ.[ x I ` M.@X*.' $.}.ZX*.,.XX6.u.D.A.fX3XBXG }.V.;. XC Z.@ B [ D 8 / G.G.^ P.i , ",
";.d @ kXXX~ eX[ V.( W.G.:XtX!.o.!.i.x.8.S.( ~.).i 1., z PX(.J ^.GXjXGX).~ T t ] :XwX-.` M.'   # J D.0 V.fXw B.G.,.&.<XP.D.P d _ G.A.4 ;.! J [ ` ` q 4 ,.>.B.0 ` ) 8 C.KXoXE.FX*XS.B.`.ZX1 f ~.0.mXZ.D.(.L.x.6.Q > * ` T.qXL / R.5Xe.A.=.oX` G.;.T.g g ! Q 6 ! % Z X.JXU + + k.0.^ A.-.B.o.i 1 L *.7 9 6.-.a.i.4Xs [ K D A A.B.V.A.~.r.a.%.N h iXIXJXD.L.rXt.iXmXP.` V.:.&.S.>.B.n.rXr.y.Q f Q M ` _ x 6 ;._ A - - F ! ^.9 ` @XG s ;.w.gX!.zXV.E.` T @.` -.H.@XV.F.V.-.H V.G.).S.3XgXeXi.R.B.B F J :.e.A.[ F ` ! ! _ H.Z.*.G.] 6 ",
"9 F C $ Z.<X6.wX:.rXZ.B.jX9XmXG.!.).B XXtXZ.p.V.Z.fXU D cX`.(.9X~.).9XZXF V.Q 8.H - M 8 V <X9X8.i.>.V <XyXV Z.Z.:X4Xy.*.,.S 8.G T.+XF $ J 0 F V.8 N 4 [ Z.G e.J e.C B m.B.l u f V.S V XXl.t %XCXk.Z =.r.&Xz.~ S F @ ; 7 3X_.B.W.p.8 V.:.J.^.B.V.` s T 9 ,.: >.T S 7.qX<X~.s.o.mXj $.e.` X.& 6 o.H.bXgX!.{.^ ;XbXU ;.y.P +XD.q P.L.u.jX&._ 2XK `.k.oXjXjXtXJ.n.vXlXW.W.*.S.vXV.,.] $._ [ A % N ' q.;.] * 8 [ N   q *.B T B V 0XA.S ^.-.jX!.lXB.V.e.w.F ! >.&.C.=.i.' ,.F.`.zX9X4XzXgXvX,.! V.9X6.~ G *.8 &.q F./.:.*.` ,.A.F.oX~.",
"] >.q 4 s L.^ t.! *.5XA.] H 4X$X!.0.H ^.eXqX4 L.P.qX<X5 u._.w.v.p.1X5X' ` C.*.5X&.! >.V.8.{ 0 ;.NXzX3X_.{.G.q.iXI R P ' d K K ` 9 ;.;X6X;Xq.C A.A q 9 B.A.;.F G G - q D > u L i B.`.8.H d 1.f.&X8X1X:Xj.*Xc ( Z.u.S ~ ; L.J B.NXe.S.! :.F.{.,.^.Z.H.' w A.` _ B 1 ( cX0X` K y.DXc f *.a.U K e A.&.ZX;.e.G.y.] M.R.J.F.qX~.oXrXMX~.' W.HX,X(.P.rXt.:.C ,.;.H :.' E eXMXNX0X).r.q.~ S T T 5 y s 9 0 J V   $ q C # 0 B C ,.0 S XXG.B.V.9XE.XX9X:.F.V.H L.` ) VX1Xi.P S.<X3XgXlXlXbX3XW.@X! B 0X;.tXY.B ` B ' 3 M.e.:.~.W.:.! D.0.6 ",
"e <X! S ,.F.xXiXx g *Xr.p.u.ZXC.zX*.L.( {.V.Z.p ~ ,XL.o.~ CXwXiX4Xq.&.<XOX:.kX{.;.S ` P.6. XV.9 -.:.' M.M.A U.S.s ^ ..&XF x f s.c y.x.E < w.A F ' ' G |.|.!.' ! F 8 ' E @ i D i 9 G.ZXVXd.pX4.!.| / x c c ..T R.G.B =.Z > z |.ZX*.,.e.> H.#X;.A.{.S.M.C Z.P.[ t.6.a W./.qX! :XL.h 5 [ I I q.c.,.i.i.`.A E.L.hXB.u.M.V.V.B.W.-.P.W.BXrX~./.!.zX:.E.C M e.}.;.H.] 4Xq.L. Xe.tXHXr.h.h.;X;X4X .j 3.@ *X+.@ & & F ! V B ;.|.s =.P.0Xe.R.L D.F (.9XC.hXlXCXrXNXkXW.XXcXNXrXkX9XMXtX9X`.M.F.E.0.M.H }.0.Q [ C ` &.9 [.'.hXrX~.`.nX<X&X",
"7.(.(.s F !.rXU.f o...iX@.L.B.S.nXp.@X/ }.[ y.x I VX8X4.X.' y.^ 9 +.;XV.R.V.M.G.M.` G (.V.q.DXs > H M.6.i.5 G ! K U./ s r.a.i +.% & P 5  .(.:.B J H.,.B.^.vXeXM.R.B   2.I + g @ z >.(.rX/ o.Q U U *.7.O.4.k z Z S ` q 3 l *.; 0XW.D.E.$ M.|.~.N.M.t.[ M yXF ~.).BX3XrXD.hXiXq 8.% g Z.*Xt T #Xr.-.}.V ! =.J D.,.-.` ;.B.~.ZX(.HX).~.L.S.u.4X:.|./. X+ >.B.e.T ~ ! -.MXzXC V.*.HXAX%.@.~ E  .I @.| x c t @ . > B.>.- V }.>.(.3X0XV./.G !.|.(.B.V.L.:XwX).J.'.`.&._.3X' B.qX=.4 ,.S.,.u.F.BXV.V.NX).iXx.T H H ' B.C.C.fX0X@XJ.q.8.",
"d./ 2.9 V O.7 p.P L i.(.>X*.,.p.~./ u.R.J A.8.l U o.R P y.V.d.u Y j.Q ,.] >.B.:.u.V.,.Z.G.B.*Xa.2 L oXD.t.l $ > c.! ^ Y L +.& i % %X*Xy I ^ ' e.G > V.M.H.G.! B e.M.R 8.g.g y h q y.(.Y.H.,.t % i D s a.} *X4.2 - M.[ ` 3 <X! / e.B.C E.,.}.NXF.H >.[ C A.F =.W._.AXP u.C.gXMXe.% U T.SX0.B -.).F E.i.B.>.,X8.D./ y.iX_ HXnXU.+.x.y.>XCXI.-.E.:.C.OXq -.] C Z.&Xd e.Z.' xX:X( *.s Z L.6.P y g Y ..p t Y : 5 . M ! C B.m.e.~.fXfXgXM.l.Q D.xXV.A s.s &.[ u.m.R.XX].C.XXw.V.@XC.&.W.~.XX,./.-.M.XXG.t.bXk.u.) 8 V.m.<.,.m.,.C.-.u.",
"nX! Q 9 S / f O o E XXZ.V.-.BX:XV.I.' A.' ` l ( X.l.L./.'  X| S ^ K q.&.A ! G.M ( &.|.i u.Y.O.*X@.K 6.i.Q d ' <X] @ ;X:X9.i p + t Y 8.sXsXX.' ,.G.H.V.~.A.H.@X` y ;.Q y i a M R ] (.U !.[ T.I > f %Xa.b U 7Xg.> r [ J -.B y.<XQ ! ! B C.B.&.' E.>.! ' M.B ' =.e.D.~.= D 7 NXJ  XP N.}.JX!.fX~.<XL.C C (.t.7., 9 E z.6.o.L.l.o.f.k.8.%.f.d ` ) tX[ OX&.` i.Q R ..y.8.6.i.S.wX:X[ ] X g P R ~ E r.Y *X%Xh + % s 4 3 ,.M.e.C._.'.}.;.' P.Q Z.;.>.CXS.# u.s H S.A.m.C.'.'.~.C.XX^.E.2 Z F.V.F.'.e.,._ I.mXn.kXF.@ H A.m.V.V.R.,.lXvX",
"J.C + x.(.t > 6.h L C.fX&.@ fXL.E.!.' ` ^.}.4Xl.8.Y.t.t.! tXl C w.e.oXOXB.r.P H M.Z u.*.i.9.;X@.7.S 0.6.1 oXC FX!.] , U pXU j f p f.6.$.P P 6 L.-.,.B.,.M.G yXA y [ A & . % F M 8 ^.( Z.Z.:.f 3 1XiX%.x 7X..%Xs.f V.! s 5 M yXD.~.e.z m.e.e.m.tX# e.,.[ ;.[ :.S V._.M.[ S 7 ).vXlX~.t.-.=.S bX9XXXQ 0.X.I.I $.`.k 8.T.O.^ 3XW.).(.L.tXI.4X4 9 ~.,.;.cX4 0 T P T q.Z.w.3X!.rXBX! oXT ! Z K ..Y i.#.#.@ X g & # M 4 R.E.].J.'.F.B.9 u.XXP.s ` o.,X&.8 B.! =.3XR.u.V. XS.V.H V.-.C.) S.G 8 R.fXA.}.lXx.H.G.V./.{.+ d ~.w.,.KXzX3XGX",
"] ,.U.B C e.H >.@ T F.v.L.; ).FX^.3X` Z Z.e.9XQ.T t.g.i.) }.(.C C.J ! +XB.) 9Xf G !.B.P.0 >XpXg d F 5 ;./ V.s ~._.G.K.1X1X>X+.} +.y q.K R I.P u K.w.F.B.J.B.@XM.& N.d N N O 6 d # ; ~.( *.[ XXwX@.<X( | & R 7.I v q B.U : # -.Q G.,.&.V.R.(.K.A.` = F F ' J :.w.,.&.w.*.<Xi.J V.tXwX` F.^ 7 A.mXP.q U x (.h.P vX6.9.VX| / 9XeX_.Z.wXAX:XQ.G V H B.f E.R.-.9Xg @ 8 ( l.@XiXSXLX_.{ $.T./ p Y @.U.u 3.T * a % ^ y.l ` D.XX'.m.,.H.7 > *.i.i A.iXp.;.R.Z zXS.5XW.;.m.V.).D.&.H /.+Xm W.F.9.(.m.Z H xXeXB.{.V E.:.z.>.9 kXfXXXGXW.H ",
"4 (.` 5.F ! ' 0 < p.hX).e.V S l 4 p.&.] ` >.$.C X.] q.f :.6.tXK.q u.,.:.~.( B ( B S W.R.iXpX` ! 0 ! 4X2X^ ,.C *./.P.t.N o.;Xa.;X8.A ] Y U i.>.s CXAX-.B.B.;.6.S.y e.` N.A.s . Y K O   7.I 7.z.rXcXy.a.s t O.U < o 2.Q.~ i < K S ` ' q.e.' p P $XyX9 C y.M.;.H _ F 5.t.eX:.S.F V J A.e.H.] D 7 6.6 5.L.P (.c.j.9XL.5 K p $.tX`.W.lX9X# bXJX!.|.9XC c.H.) (.yXH 3 0 7 *./.`.AXFX_.V.[ w.Z U f f.U.j ^ ] : d p `.CX~ D.S.V.,.|.yXbXZ.A T.3Xd G ..u.0 m.W oXfX_.mX0XV.~.S.V.NX'.S ;.! cXhXi.] F > m gX,.V.y.~ s.7.9.B F ) R.B.C.+XB ",
"P S ^ - ,.` r.I.V A ).<.5XF K.B./.r.` : e.q.h g j 7.y.s.[ t.) cXq.B.M.|.:.w.] 5.< P l ;.!.P.PXzXZX7Xk.4X(.e.0 V M.[ N.U.L.h.;X;Xx.(.N.5 5 f ` 0.>.{.l.` B.P I yXq.r.S.G.A.X * & > s . r 1XI.B ,XSXT.` A f.j f.U j > 0 i f < r h T 5.K Y K l 6.&.OXT ! s ~.iX8X:XZ.F + J wXr.L.-X6XE K.i.6.eX2.(.U.rX5 p.tX>Xs.qXg.] k.Y w.^.~.`.Z.kX>.<XnXW.|.` $.g 4 B XXyX-.> &.fXZ.B.a xX1XG [ 7.t.s.;X8X} _ # ~ P.j Z u Z.H 0 u.*.e.V.M.}.A.] J 0.8.H Z ^ D 9 3 p.B.B.V.B.,.V.u.,.u.hXjXGXi.E.V.F.!.,XB.0.k.' H Q.} I  .E l ,X' V.&.G.&.JXA.",
"S D e.w G.B.>.=.'.0 hX0Xe.tX4Xr.V.iX(.+ q.q.K & c x.o.5.~.t.# H.+ G.V.' tXZ c < @.[ a + z.CXAXPXL.FX&Xc.^ NXXX,.9XP.>.;.w.` K y.6.t.T p f @ 0 ;.;.|.L.D.P O.r.kXvXD.{ s f s d Q d s 9 % $ ] 6.O.5Xw.$.| R I &X+.L ( ! g u < k 1 %.T _ K e.I :.,.^.eX{.Z.y.A C P A ! d B.Q.iXVXpXL 4.9 xX<Xr.q 0.8.vXl.Z.P.2XE {.2X5 _ N M.D.;.W.Z.cX9XbX8.q /.1 G.pX: $ P.A.@Xs V |.0.` e.^ zXG.V.U 8.K 6XL g / N t y.L $.: T.CXC.0XA.F ,.,.*.p.O.PXL.4 9 x.l q 7 ] :.S.,.:.B.C.m./.! C ! C.R.B.m.`.+XfXk.P l x.n.! =Xd.I  .3X>XP.>.e.' 0.|.A.G ",
"< i.0 B ` ,.[ D.W =.a (.D.JXCXP.tX!.N.X.P ^ R @.^ p ^ U.@ >.# $ 4 > _ V e.l 5 > :.FXT.u , c [ kXC rXl.T.s.JXA S.5X(.;.V.T.q.%.Y.Z.tXZ.i t , ; F ! B.2Xd.2.7.S.V.:.#X) f s :.G S _ M d % 1 3 s o ,Xo.8X+.O.Y.x.9.~ ] P 5.i 1 ..r.A A.6.u u.D.` ,.;.&.0 T 4XU ..+.w.~ x x.z.HXI.d.4.-X7   3 C 1XL.B H > 6.iX>XK ,.[ h.q.e.>.~.wXqX~.ZX5X9X8.f ~.:.G./.GX< I B.n M F >.C.&.-.SXSXkXe.k.U L.%X& +.& 7 @ ( ~ ^ e H  XV.^.}.:.>.*.dXx.x D.9 k.7.v.# + h % H W.Z.(.bX:Xu.u.eX/.z H  Xw.*.~.F.5.*.*.r.k.S R f.3.6.2.x l.T (.z c.0.! ,X&.",
"g Z F q X d F _ @.o.3 S.B.|.H ,X&.NX!.M I.] g Y U ~ # e.^.yXD.U - H 3 ^.^ s.9 d 0 v.qXp.8...o +.c 5 g.p.s.i.FXxXrXeX).9XR.F.w.e.V.^.=.7 P Z m }.M.i.,Xa.1.D.,.&.M.iXg.g.8.H ! s 6 M # X & s U.e >Xi 2XI x l L.8.&.x Z.A.! H 2XH B.n.( L V.B.,.e.eXc.:X;XO.L a.lXyXN.8.x.sX .dX6X*Xa.D a i N x 8 f S.*.( P.3X0.G.w.6.*.qX(.M.T ,.>.M.eX2XI Q V.&.H ,.GXA.[ 2.O.5 l 9 C 1 9 8Xz B.V.0 8.u e 9.(.<Xg o a w._ ! G V.B.n.-.` ..sXP g < ;.<X%.U l.d f K D x qXtXQ.V.NX!.|.jXu.'.r.9 R.C 8 P.=.y.i.5.c f 7 c 7X Xd.2.6.:XJXAX;XZ.mX_ ..",
"I.e.Z 6.X N Z U U eXw.Z.B.V.,.MXwXe.P.0.F *.%.D h y.N. XjXH.M rXQ 3   S K iX] H o.U A tX0.# 1 %X6X*Xf.:X!.>XzX7.=._.,X_.B.E.E.H.E.jX}.G.V V @ ) 7 P 1 +.c.>.H ) L._.O.7.I.H y.2XQ F d # h y.*.4.P &XE Z a t./ M.(.U z a K 8 ' C ,.w.g o.W.p.[.eX*X*X*X>Xc. X9XbXW.M.rXHX>XVXAXiXa.7X| U *.4Xf.f v / _.0X)   0 ) 5XB._.~.A.e.h { Q t.O.1.+.,.}.;.H H.F.vX=.<X^ % i ] C i = A.K.C.V.x.aX[   U t.U.9X# q.M.V m G _.cX_.rXx *XP o.>.^ q.PX4X9XM K P P d :XP =.u.3XkX).V.'.KXNXcXB.,.V.;.i.P.S z <Xa.U f O.$.R.5X( -X%XzXAXiX..P U %X",
";. X6 @ N R s q 2 w.mXvXB./.` C KX1XZ.K.l.fXq ~.w.i.<.B.H.{.r._ ^ A ; 7 ~ F F ` ! x.L 4 - % v O.8X*X6Xv.VXP CX&XQ a.>X&.;.&.,.,.M.M.[ oX>.C ] XXyXqX} +.} +.$.F.B.jX6.wXq.-.B ~.Y.6 C ! f ! t.| 7X<X^.f + x.0 vX4X!.k.f f. .K 7 ^ U 7XwXXXD.}.cX:X&Xf.S V.H._.eX(.>.S.FXc Q A g d.z.3.U x ! ^ x , < ( 9 H.] &XAX>X'.SXC.-.$.U ] T $.&XX.Q ,.A.}.` >.E.] 8.5.^ h U T.|.I.B @ NXB.{.A.e.J T @ q.' 7 A.H.6 5.cXeX_.~. X~.U L u.+XV.^.~ U.Z.>.s a # > 2.k. Xi 4 ] _.!.C.XXgXW.H.#XV.&.W.S.x.;.l u.v.] R ..w.NXB.k.FX*X7XDXL.#.5 # o.",
"L.i...5 6 K.M.J W @ m.S.,.' ) ,.F.tX2XvX`.gXc.0 &.H ! K._ T q.[ e.l.u D x B.=.f <Xe.] s > 1.c c b :X>Xc.wXvXwXzXJXVXw.B.B.,.:.B.M.,.; ` ' T 7 ! ,.2XO.z.a.! ~.V.*.yXiXZ.! ;.4 ZX~.M.# H P ;.[ } <X/.(.K.u I.P E.FXl.~ 9Xb &Xz.P w.BXbXbXfXS.G.GXZXpX6.j ! V. XMXjXXXT.9 M t., f l *Xx.K a.K a 1X( *.p E.[ Z P 5 (.'.J.XX] C X.F K T P f P e.~.&.C.C.e.L Y ` L `.&.` V.E.6.@ e.-.H [ >.A C ` ] <Xg 4 M.$ ! G.R.}.~.t.;.x e.B.>.V.9XOX) s Z.k.P U 8X~ 5 ] *.V.B./.).>.m.q m B.}.Z.MX7.:Xo.&.C ;.8 ' ;.|.W.hX|.k.GXAX8XeXB.F h j 7 ",
"e.i.x.N.x.t.P.yX! c :.P l ,.OXB.R.0X,XD.m.5XjXlX,XHXxX5.] #.x A 9 ' 8.>.o H i.C (.I.l.!   f K e f./.S.ZXz.mXv.8.(.e.M.V.B.;.! ] [ V.9 0 V 0 - # - s.<XzXrXB B._.) n.J s.M 8 d y._ N.0 hXA.Q ^ k mX`.) ] 2 ..Q nX0Xr.u BXAX6X} M.M.eXeX3XgX3X:.,.F.N.e.T T M.B.J.kXzXJX:X1Xx.d.U K $.*X%Xj.9.h CXlX2Xx q.ZX>XP < : _ &.! ' q 5 $.f f K g S B.-.&.M.}.kXT U ] K }.V.V.NXD.<XT ,.M.] 3 ` 3 8 -.B B 1XL.tX%XJXrX~.A.y.e.E.R.^.C.zX) d ' Z.& @.T D 6 ^ F g B M J J.~.).;.&.B.B B.cX)._.P 2.( 0 V.G._ t.{.M.H 8 E.SX!.n.V H.H._ ! K H ",
"s Z.A :.C 5.).@X&.k.LXtX6.~.,.G.,.lX5X).cXi.(.BX3XS.H.-.(.1X@.Z q j < q.Z e.~.` 6.<XH F 9 & ^ 1 2 z 9X>X/ 1XJXiXM.&.P.*.;.Q.s.&.;.V.` i + 9 &.8 6.P.~.9XNX0 &.V.>.B.0 >.e.[ :.=.1XV.;.` yXt.Z.k F.S.U.s.+.k 8.*.XXjXa.X.`.pXj { lXeXzXW.(.W.D.V.M.w.*.P ! M.M.B./.).R.w.Q.s.| K U K.$.DX6XK K t ;.~ 7.e L x z z.L _ q &.T B.y q.U N U ^ ( W.G.,.-.Z.t.] P [ K :.B.hX~.#X_./ _ A.' F 4 F 4 9 ! e.w.D.w.z.,X>.B.9Xp.] H.F.F.C.+X_.L.S 7.& g / : P T q.5 Z H 9 V M zXp.'.vX! W eXlXuXwXW Q F 0 V Z 7 Z.M.H.D.S.AX!._.eX[.rXM.T Y U ",
"f N.Y.S.w.N.[ M.vX4XzX<.R.B.` ,.B.n.#XgXQ.>Xj.iX<X,.&.E.kXf lX^ M.Q : ! &.[ 9X9Xe.;X_ 9 9 s C d @.O.$.uX7.a.0.*.*.~ %.~ ~ 6.s.l.R.}.w.9.i T 0 ` 9X( A.`.~.B.,.B.[.+X] ` H R.V >.6 ` ` _ 7 p lXg.4 ` ~ !.5.x y.0Xw.m.vXV {.s.K A aXzXbXzXvX!.S.W. XK P $.e.` ,.B.F.m./.H ) P.;Xq.8XCXPXIX .K e.U @ d.} p 1 *.] V < 5 i L 8.>.K _ K x _ T.u.H [ H.[ M. XM.R ;.@.Q >.:.,.5X,.>.B.{._ wX9.[ F :.C C y.cXH.G rXqX~.B.H.G.A.C.C.zXrX:X4XCX%.f x ~.9Xi G ` A e.G J >.M MXq._.NX3XbXwX5.(.2XxX8 d >.[.F ! A.M.H.`.vXbXbXbXB.{.C J.$XT g ",
"T ` >.D.S.t.I.] 0 k.] ).W.~.u.P ;.,.B.3XI l &X8X3.: < K G.<X~ ] ,X6., ! vXFXH Z.HXAX<X$.7 >.! 0 ` | iX&X>X4.~ ~ Q d.~ $./ ! e.k.F yXbXz.W z s - S NXA.cXn.,.B.B.C.^.D.OXD.L.Q U X X 1X5 # T  .> ,.*.Q.i.Q ,X! fX9XbXi.Q.A P K } t.nXlXeX3X(.0XzXn.x P n.V.q.] M.V.m.@X}.u.hXrX@X8X_ J.|.dXU A.Y.i ..f.c.d ,X&.B S b.6 0 H.{.$.$.K x y.A..Xn.-.:.n ` >.F.e.N.[ N.g [ ,.NXH F cX(.Q.FXmXpXJX@.` J l.` M @XB.9 F.E.;.F.rXC.'.gXn.9X' L.r.%.- d ~.U.^.6 0 _ ,.A.+XF <.] n.kXP.cX^.p.(.^ w.G 4 0 ` tX`.;.V.M.D.NXB.e.w.;.t.{ V.` yX[.",
"n.2XZ.H.S.i 2X%.] A.E T R A S :X..^ ^ k.*Xx I Y.8.6.1 P e.`.9.g K s.k.t.d ;.x 8.u.! ` >.+ 0 ;.q e.6 4 H.=.5.Z L %XU [ G.2 ^ ~ <XT <Xx.+.>Xs.Z H 0 ,.<._.R.R.V.V./.J.J.|.C.PX5Xf.x . u @.pXDX..f z ~.s.0X/ !.'.9X`. XGX( g.U ] *X!.;.-.XXHXHXrXm.] g [ ' P Y u H C.B.m.B.V.Z..X<.HX9XT B.vXbXHXSXL W.,X~. X X8.B <XiXC C.0 V.C.C.6.o.M.G.G.B.&.y.G.`.:.B.C.V.e.C.U g ] ,.^.9XtX(.0 C :.-.&.2X] B B.F L W.4XI k.&.-.u.3XlXgXV.C.e.^.H [ >.H f K.o.[ F J 0 F n.A.|.G.*.B.M.B.V.;.E s.x.%.[ ` G q B.e.B.T.:.:.-.e.3XFX&.E.~.R.B.V.+X",
"#XS.V ^.aXR U k.F }.tX6.K +.a.c j h T R &XpXd.9.z.;.0 s P.^.P.1XGXiX.Xw.B.c.z.l Z q B.B.w 8 ` 6 S.T.# F.C.p.R.W.P.[.F.L %.:.G.vXH.M t.+.d.e.$.6 d :.' ` R.F.H e.V.C.n.E.J kXAX&Xe e * 2 ^ T.U.5 >.G.B.vXr.G (.`.u.}.#XZ.jXD.A.g ` :.V.m.,.e.-.[ P y.K.Z T ] W u ,.M.,.e.,.R.E.:.vXgX,X) }.eXMXBXp.Z.` ;.^.GXNX!.V.#X@ C ,.B.R.V.R.u.F.G.V.V.[ A.F.B.B.B.F.A.C.>.K X..._ ,.H.B e.H &.! &.=.|.0.H u.u.( 9XlX:X9XbXSXrX:.S.B.B.C.V.~.A.H ,.D.e.J ;.q H >.D.,.F.B.V.R.H.F.S.E.F K Y.g _ o.A B V ` B.[ >.n.B./.rXHX5X:.:.F.9XB.S.>.:.",
"^.qXe.! 7 N *XK.D.` ^ ^.s.8.p.+.>Xd.~ ~ f.Z.MXiXc.6 *.  _.LX&.p.e.0.B Q Q 8.7.iX0.6 [ H _ d ' [ e.F + n B.&X3XcXi.F.e.E i B.q.! ^ G.t > w PXN.S 9 OXB.B F.-.H + E.,.C hXZ.e.%XP +.u e 1 I s ~.A G C.! m.vX>.S.Z.B.9XH.[ oXR.e.x ` ;.e.m.C.V.U ~ e.T Y K S K x ^ C.V.,.m.w.p.gXm.ZXlXzX3X:.`.D.NXZXHXbX*.- ).*.lX:.B.~ S 9 G.V./._./.>.A./ ^.B F.C.F.V.;.M.V.*.~ K R ] K 6.` 0 E.&.-.{.B ; H.3X4X3Xr.&.~.vXx.wXxXW.A.` lXF n.V.V.hXZXw./.+XH.q Z.7 3 u.R.Z.}.,.R.C.V.V.V.] U g ! $.P & %.*.x 3 A B.B.V.B.G.B.n.,.,.M.,.V.D.B.=.^.",
"5X_.<XT f *X .R e.a g e.Q.S.`.l.%.x.;X0.] F.nXpXH + H DXbXbXZX,XJ.IXAX4X2XlX9X1X8.e.&.J ;.> ` F G :.B B.kX&XX.rXG ,.e.~ U ..+.x >.H.P 1 c # N 6 B.F.~.' H C.e.7 H +X;.:.^.ZXzXx  .b x @ I t A.B.;.8 -.M.C.C.qX'.3Xu.C.rX&.H.e.5 S >.`.L.G.( ] V.e.~ U / X.U T m.V.V.B.C.XX*.lX'.~.}.ZXgX,.B.B.G.tXrXHXgX(.XXeXI.) Z SX^.n B.R.BXV.e.;.*.*.hX>.B.C J B.R.B.F.^ K Y @.p.8.$.R Z h :.E.cX).q ; rXeX5X1X&X<X).Y.:XxXW.,.( L.D.S.3XzXbX3XP.` T *.$ C H @ V.C.D.Z.A.&.B.S z *.8.[ I $.U.] % s kX%.9.wXgXe.M.V.,.B.:.f ! ,.,.B.XXC.B.3X",
"0XXX6.T } %.Y @ , %X} K.u.y.(.(.<XQ _ bXS.vXGX`.P.] 4XeXV.n.C.B.H.#XP.P.P.1XgX,XY.K.V.q F ! H G H ! ` B [.CX:X*.V 6 V.V.[ S.K.] H vX).s.O.e K ^ ~.W.F M ' oXkXV.F.B.V.V.^.N.6.h.=Xb j e k 7.9 6 OX_ n &.R.C.m.,.M.vXW.E.M.F.yX*X] >.V.(.i.u ` e.A.B.$.Z.~.V.V.B.M.V.[ B.i.wXAXe.;.M.n.B.[ >.n.V.V.,.[.SXt.P.E.<.F 5 hX@X-.-._.e.V.].&.;.B.OX;.E.#Xu.,.,.V.R.o.! $.6.e.5.q.8.Y U &.B.V '.OXP 9XlXtX6Xf.&X;Xz.s.(.(.}.5.u._.9XbXgXeXgXzXJX[ 8 6 A A.X C.<.D._.vXqX$.R j _ K.6.K U &Xo.K T u.iX} :XlXA.e.B.C.^ ~ P P M.,.,.].B.C.CX",
"n.V.Y U.e t ..7 6 & :X~ bXZ >.L.q.H.A l.`.H IXHXD s c.F.C.B.,.,.M.[ e.-.(.CXGXxX;.-..XV.B V.d !.T.M > 0 &.FX8.^.bX5Xs M.vX~.JXNX,XfX/.6.+.} c ;X4X5XD._ D.! B S.G.(.H.N ] P g K U uXU r y $.> 0 R.}.,.V.B.V.V.B.,.:.gX:.B.B.E.^ Z w.G._.).~ D ! e.H.H..XR.m.B.,.B.N.U ] :Xv.! ! T r.n.n.r.tXcXL.:.B.;.nXfX3X@XV.4 u.;.F.E.H.F.v.e.R.&.B.R.D.B.`./.6.>.:.M.M.] F ] ` e.;.F.T.e.y.w.V.` [.&.l.(.~ _.f.&Xf.3.%Xa.:X5X_.LX0.P.B.kXrXlXeX3Xe. X' 7 -.L.@ G W.p.[ H._.A.^ U T ! s.k.+.&X+.x.w.D.9Xc e u >.] w.V.=.*.^ K T ,.>.,.m.R.' ",
"$.g P (.| L & N Z 5 H.M.i.e.e.qXF S.Z.D.lXm.F.p.V J > w.].].F.G.qXiXMXzX0 ,.|.B.u 9XyXyX' C B F V.Z.6 H }.;XD.:.PXzXA.w.!.:XZ (.l.! eXZ.K.O.*XDXM mX0.] x.nXVX0.9XA.F.K 9.g 5 , 7.<X] Q [ _ e.- 4 m B ,.` F.` B.>.,._.A.u.V.E.H i A i.Q.).0.f 0.,.V.B.V.e.E.M.M.J.[ Y [ c.h.~ ^ %.9.6.Y.%._ :.<XD.B.;.c.6.B.,.+Xe.4 3XF B.~.E.9X`.F.}.B.B.C.A.V.W.6.B.M.V.V.L 7.^ [ A.B.C.H. X XE.B.H B.6.c.7X&XrXd.3.} | >X3.e.eX' NXW.~.i.~.MXZX) W.3XeXwX'.Q.W.l ].jXnXE 3 { G.o.K [ w.Z.9XY.O.U.P.kX^.JXxXf.p x u *.R.Z.~.^ K K K ! T S s D ",
"..L K T t f g.yXN % @.i.w.&.tX9X9X7.,.uXn.i B.&.XXw.- + m ] IXAXmX>.hX^.ZXB.~.@XG n.m.|.[ G - 0 &.B.' F H.CX>.<.XXcX] (.5XBXtX*.( 6.I.zXHX8X .pX5.p.FXAXI.pXQ 7 B.] U g _ ^ d u A.H.Q Q ] G ! H [ m 4 @ = 8 B.^.,.,.}.,XZ.M.FXHXsXiX5XbX(.i.;XT :.A.H.`.m.C.B.B.A.V.@.[ k.wX:XM.^ z.c.[ R P ).i.6.F *.c Z [ ,.V.:.SXH ) V./.0X~.m.e.:.:.,.u.B.>.A.,.` ] [ ,.f i.Z.V.R.m.,.B.ZX/.n.E.U 6.X.I.l.%XrX3.s.l / U X.s 7 ` >.P.'.U.-.8 *.bX8.1.4.o.B k.L MX1Xz e.t.K.iXwX/ .._ n.[ *.P.Q._.e.~.R.B.#X8.4.*Xr T -.H.NXS.U g P l.~ ~ U P ",
"^ g g &X& N.A.[.^.V ^._.O.l `.nX(.A.zX:.hXeX] #XrXrXL.2XG.;.zX) rXpXB.S.DX<.m.H &.V.&.OX#XI.SX5.G.}.C.@XOX4 HX3Xl.FX&XCXAX2XC uXiXPXpX(.U.' 8.%X| ] P.w.i.7XF F *.l | ^.CXeX_ ! D.l.e.M 7 C > 9 B ;.! 9 9 $ [ q C.V.D.!.S.NX0XcX1X4XI.5XSX,XD / -.V.H.A.G.3 B.V.;.H D F 1X:.,.G.e.G.G.G.B.~ L.=.U.& 6.c e ] Q B.5XV.A.&.~.oX_.B.9 n.B.R.XX~.D.>.P.! 2.K ~ $.! A.~.H.V.B.e.,.m.R.V.E.( B.I I.6.a.3XO.O.6.^ U i &X#.L.^.qXGXq.;X&X3.2.dXa.DXK.g 5  .>X@.dX&Xy ^ iXwXo.R [ *.^.e.C.R.^.R.D.e.V.R.B.t.DX#.I [ ;.G.V.y.R h A.*.^ Y K ",
"h s...K g ! S.H.>.H.P.R.`.F.p -XZ.F MX'.] H.`.|.hX' S V.{.AXlX~.wX,.w.vXAXPX( G ,.&.,.B.hXFX5XW.! B.,.:.}.D S.PXAX@ w ;.E.xXS.[.H [ 0 G ` x %.;.:.H ` F P.1XrXiXvX| c x .XZ.' s e._ M.[ Z.B 0 0 H ! *.k.@ - - H B.D.:.D Z.5.).'.4XU.*.V.zXx.p 7 - =.q.G.@XH m [ ~.H ^ CXxXb.V.G.G.].A.B.R.H.B.B q.[ 9 I.P &.0 [.zX:XM.F.E.E.KXlXu.FXZXXX^.].~.~.>.%Xf ~ B.H.G.D.V.~.NX[.3Xm.V.M.,.'.d.zX*XW.fXuXFX8X&X>Xu T.w.MX5.8.] s ..V.bXFXL.x | %XK U R % @.>Xj T d.d.[ CXL.O.K >.,.R.Z.V.C.tX].V.,.:.,.#XH iX;Xi R j A G Z...x ,.! y P u ",
"Y.t f f...-.D.B.^.>.g.;.e.M.V.; 3.S e.H.u.!.M.B.|.@X>.B.n.J.<.bX~.>.D.MXyXDXiX8X,.) B.e.A.'.XXR.,.m.B.3X,.9Xi.fXyXV # ;.' B.:.@X}.' 9 s Y Y P.#X` ' T % O.d.iXZXNXbX2Xx K N.5 i / + `.Z s q -._ i.7.!.K.w C :.` >.T.G.Z.9.C.jXfX(.V...B.@XU.e ^ *.G 4   k.NXeX0XV.R.I.V.,.lXn.V.F.,.B.:.7 d Z.F <X+Xe.K.6 |.M F.m.jXw.V V.V.oXrX'.C.V.V.V.qXNXZXrXd.x.M.e.V.,.' bX_.n.B.E.,.:.:.rX2Xa.mXT jXR.R.F.BX}.FX~ [.[.CXrXl.T 4Xe C 3X~.eXq.O.#.K ~ g.j q.pXK K ..S %.O.I #.K V.,.C.F.R.C.A.A.*.A.;.w.-.4XzX$.R Z | $.d ;.a.| Y.D ] 5 U ",
"$.N K %X1X!.Z.M.H.A.X.^ g <XR.>.z +.o.' 5X).V.C.B.{.V.M.M.V.FXFXBX>.P.F.FX1XHXIXQ.H ~.`.8.8.K.r.:.;.~.E.H.'.XX>.C.,.d XX' ;.;.M.vXH.T E O.i.B.yX|.H y a.a.K P U.4X/.xXP R a., , Y.> t.^ 0 - N.L.JX8.r.Z.>.n.` + ;.' F rX,Xu.*.*...t.x >.|.2X#.x 6 ' ` v.k.3X(.D.}.W E ;.:.M.,.F B.,.w.r.~ L K.$.h q.#XiXB M.8 n.F.R.FXm &.C.` F.R.R.R.H.C.V.V.V.q.g MXlX!.A.V.wXL.-.^.M.B.rX].0X:XY , d p.-.C.V.e.V. XJX5.|.M.Z.e.D.iXr.V *X5.:.}.>.zX} K R $.U q.VX#.P h ~ 6X} ..a.K V.V.C.C.B.F.C.*.D ` T ;.[ 9X<XM.T...K h 1 K a.4.#.e x -XK ",
"tXt *X>X&XI.W.e.B.V.L.%.K A e.{ yXp.E ] G 9.e.,.e.V.V.M.B.B.V.M.}.^ B.e.e.Z.t.^.ZXFXL.u.O. .8.L.T T w.V.V.e.w.qXE._ w.w.J._.~.~.M.e.a.&XSXQ ,.V.E.hX% U U K c h.] =.( P.X.pXE R Z ` _.w.N 6 3 ! yXx.( 7.u.T.N.H ` V H 9Xl.] z.;X} <Xd.F oX7Xx.z.C 5 x.o.xX9.^ L.R.L.T i ` F.H.J V.*.e : 8.j d M o Z kX5X}.' 4 H G.C.e.G.bXB.F.V.B.V.m.M.G.V.C.u.] ] ,.B.kXQ.S.3XB.m.n.,Xn.:.~.'.J.q.*XbXlX5XR._.i.,.*.uXI.' w.<Xx ~.PXB ] L 4 r.*.|.AX! t 8.t.@.e.xX4.s 5.[ u.GX$.l.i.;.&.e.n.V ' ,.^ g ^.D ` T ;X8.[ ' H.[ + g d...6X8XsX-X6XdX",
"~.T t U U.L.! F.C.H.^.e.p ..~ S V.; <.s.9.P.( a h e.! ,.,.n.M.V.B.q.F.;.] K [ B.G./.mXY...O.8.X.( u =.,.S.kXQ S n.0X9XS :.lXW.~.r.o.I.9XSX:X[ u ! Z.;Xp ;X*Xa.3.f v.~.m 0.`.HXR ~ Q rX/ -.` + e.~.rX5 H + 7 E.V.H a iXrXxXz.&X..6.wXi.U.cX(.W   9 iX9Xs.x lXeXy.B.cXI.r.S 0 G.6 z T U 5 h D ;.q . ; C fXS.}._ @ G -.T _ [ ` ,.V.V.B.V.,.C.F.G.P.P.<.V.G.' cXeX~.e.Z.&.!.V.B.:.C.W.fXk.zX9X]./.(.W.L.iXFXl.P.t o.x &XC M.9.u z.9.| bXzXE.> >.T.[ e.rX6Xf 7.<X>.G.AX` ;.V.ZXCXcXmXY.i.+.i B.] [ K ;X..(.F C e.P v t  .bXFXAX%XsX1X",
"Q.6XU L z ,.( Q n.' A.+X;XU.4X6X, VXE D.3XcXw./ U K t ( ~.vX9XP.:.` -.y.Q g e.F.B.B.lXVXf.d.g.../ : P D.Z.S.^.yXKXZ.Q zX3XW.~.~ O.! /.5XJXKXmX..Y.;XU X p 4.O.6Xh 7.5X` H.wXp.i Y Z N.gXtXq.> ' ` [ 3 O o F 0 ` G.d ZXL.qX1X;X} e.A.i.e.GXcX8.@ u v +.,X=.lX9X<Xr.qXV.( ).< oXa % K l + 5 *XVXh + 4 i 0 (.;.;.' a > p f O.Q B.,.,.V.V.B.V.V.>.V.C.~.V.XX`.:.V.Z.=.w.M.E.`.V.eX9XNXuXx.gX(.' M.cXcXtXw.@.s ^ +.6X1 4X  H ( 3.1. .2.j.&.E.*. XZ A.H.eX8X| g n.qXu.:.:.ZX:XD.u.S.] I x ~ X.e.~ N.K z.&X&X~.N.|.e.f I 6X| ~.2X>X..VX",
"k.U O.x ,X7XB.>.Z G.B.[ LXH.] P p d |.F ,.P.D.&.T e.7 K.vXZ - _.wXxXe.e.<Xg rX;.~.-XzX(.*Xz.:Xe Q : 7 e.>.C ] <X5XHXuXI.BX}.S *Xd.eXvXuX*.}.yXL.a.7.UXf.U x.c  .3.&XH F B.B.[ } U iXzX3XBX<XP.-.M.! A - O H F - 0 &.~.vXC.AX4Xg P.~.Q { n.jXW x f I X.CXL e.H.<Xp.Z.5XjXuXC L 8.g K ^ < X k Q I z.&X4 =.( [ ! oX: f @ K L ( C ,.M.V.B.B.C.E.! ,.B.G.V.V.C.~.W.B.l.3XS.C.C.:.OX-.Z.XXu lX,.(.9X_.!.[ ] %.;Xj K 8.c ^ 2.+ Q j.I.z.c L 4 ' Z.{.A.s ] 4Xf.j.7X5X<.V.rX/.' +XlX).gX:X3.E E e.A.P.A.U 5.pXlXeX{ 9 w.` U } j ! ] x Y +.",
"%XU s.h Y VX{.d kXrX9 @ l d kXP 4Xs _.Z.Z.C JXNX4Xw.l > E.>.G A _.qXhX0 :.] P._.Z.t.%.(.t.l.T c x < l l > d C qXtXvXJX5X,.A.U | 8XxX9.P V.,.! #Xw.U l x.| h s.+.} e.V.3 ` M.$.K =.R.rXfXkX`.~.r.e.Z.r.N p [ ` - f ,X!.rXp.B.3Xg.o.*.O.~.G.oXw.j x L.ZXcX' -.<.FXk.p.S.C.cX:X| h i [ A [ c p : X + P ~ *.p.S > ! Z ^ . t , _ & T ` B.B.,.B.E._ [ B.V ` n.' V C G.w.3XB A ` 9X,.qX~.R.f (.[.S.(.,X!.Q T P O.s.Y K h.i 5 E g f I | x *.i.~.w.B J i.D P ;XSXlXeX!.B.,.m.cXS.n.tXjXnX8X3.] ` V.e.,.u.A.).bXBXOXA.7 0 G r.6X*X4.-XU s.",
"pXt.X.~ f 7 R ~ q.9X0.F v.9 *.*.kXGXV.9 o.F ~.E.E.hX~ s t.x g * 0 z 5.H H w.d _./.H.iXl.y.I R g W.e.T w.d e.w.` ' M.A.M.tX!.Y ;X:XzXFX@ :.+Xz B.u.Q K K *Xh s.K 2.~.M.-.w H.$.k =.XXu.cX!./.fX~.).~ $.5 7 B u.S eXZXAXvX5XS.5.5./ y.x D.H 8.S.x.% S  XS ) w A KXFX(.1 '.eX@.a.5 | q.0 B x.7 A + % Q ; 7 a 9 + < + ! y ] f U L D ~.e.n.M.,.V.Z.F B.,.V.HXv.[ 9 ` 0 Z <Xv.S.F *.jXV.Q 1 V.E.XXXX3X3XzXx.8Xd.O > y Z ;Xg 0.! 5 1.k s B :.,.u.,.tX[ ] P 9X4XW.<Xp.6 B.R.A.'.D.&.M.B.vXcXw.BXR.u.:.:.B.lXbXV.{.w.` N g M P.-X=X4XR &X",
"4X:XL.ZXIX .c `.l.e.hXwX:.Q Q ! ' GXw.BX7XC &.,.F.@XA.G.;.P @ a H }.&.&.~.e.S.s T.A.F.G.x.+.Y j p.P.O.P z q.; w.) ` &.>.H.t.U d.7.z.[.0 ` B.*.B.A.Q 6 U f.h p a.f.P.~.<XU.n.AX} iXCXDXtXpXw.a.i.t.6.K ] ~ ! A X.iX_.) H _.B.8...X.i.s.(.p.;.S.] O.w.q.M.Z.; i wX4XBX..eXvXK.P g ~ a.@.aX2Xq Z G % g 2 L d.h l o.y . * + R e U [ >.` q ^.D.B.Z.] =.;.V.` lX,XZ.$.t.5 u > B.9X!.S._.f 7.,.B.] oX(.vX9X.Xx.%.k %XO.f d A t.] K O.< c ! M.-.;.D.oX] U ^ P.L.!.<X,XZ.0 V.'./.w.(.V.B.tXfXvX,X}.0Xm.w.~.bXM.J { ' _ / w d T.4 -X&XO.%X",
"1XBXr.yXwXpX-Xf.f x -.e.e.( 3XS }.R.F H 9XZ.! J -.H :.Z.V.T f > ' V.,XC./ rX;.0 C.M.M.{.{.sX:X+.U Q X J XXB B 7 ' ,.L.).E.D.w.dXO.:XB.E.V -.C.V ` *.C ..I f i . 3.L L _.XX<XY.%XL.K.>XP.zXVXO.E l.I x ~ @.A.R.o.> Z.~.B.FXzXQ.d.| >./ `.3XJ vX~.T.O.G 0.}.- h s.BXSX~ lX,.:.A.o.s.+.8 $.^.q 9 ! B.' ;.9 %.F T ^ (.s j f h , @ h ;.Z._ 0 e.E.G.! F [ H.:.GXK._.U.I.o.o.t.Z.' J jX` ^ Q V.@XV V.` ] $.8.%.Z 1 t c g [ c B l.~ 7.E % ! _ M.J H R.u.t. .y.yX).Q.9 XX( 9 m.tX0.V.G.*.' -.` J.zXR.!./.cXwXD.@X[ ' L.9.Y.9 q P dXs.wXsX",
"AX+.s.rXP.1  . .g L t.B.r.W.-.B.C.kX^.C B.&.] K > ; B ] H B.L   B MXSXB._.H *.J B. Xr.:.n.Q a.f.a.P + 6 S G P.~ ] T.y.p.V H.F +.6XV.B.F.G.&.;.OXV.d H T i l R 7 i w.  [ =.V.mXuXe [ ^  Xr.] ..VXHXHXi ~ g Z 2Xl.u.Q.Z.V.G.R.(.f.I  X1XZX3X' S S.[.;XO.V S.4X7.I.eXFXW.gX:X:.` &XO.|  .n _ _ @ * ;.[ G.A.w &.*.- [ ' q T P h & y # Z : C V H &.u.6.8.|.C }.mX0XU.:X& C e.w.H.G.|.V.! ! ' [.>.G C J > > X.~ 1 5 ..h _ a.{ ' Q r.g.k.zX~.B.) V.R.G. Xz.p.9X`.nXS.hXG.G *.].P.> fXgX'.MXgX9.hXu.`.E.:XL.&.#XC.d C $.Q D ^ T pX| PXIX",
"e.Z.`.dX5.7Xv zXU X.6.oXx.l q V.e.V.}.V.C hXK P x , S M H >.e.E Q.I E 6.*.e.R.W.G.=.W.Z._ K #.E L.pXt s 0 n Y.<X/ oXrXK.` jX8.} ,.) E.C.] ^ ^ #X X>.B.a & O.u j > B.J 0 E.C.S D.e = D./ -.S > -.' T 8XN.L.0 4Xk.` LXK.m.V._.I.U Y ZXpXrXvX,.).q oXAX>X/ L.~.V 6 ` < v d.iXiXzX*X&XO.Y.# 4 N B 9 B ' B.G.>.F V.F H.{ M S 5 & * g i Z Z d L l D ` ,.[.e.H '.e.;.U iXx 5 ;.s P M.B.F.w.! ` ;.E.0 s 5.....%.Y.g X c %.H +._ / x P +.w.xX<XbXgX>.n.jXSXlX6XrX'.hX) m.R.`.3Xi._.!.nXMX).rXbX5X@X!.i.kXlXD.V &.>.F A _ B @ [ rXB R A t.",
"Q B F.bXSX%Xn :.q.] 0.3X).w.7 V.,.&.oX0 F =.Q 7.U @ L -.` A.9.1 ,X*.vXs ~ < 5./.w.p.P 8.^ h *X| P.K.U h K k % e.X.GXMXQ.6.7.o.p F ` B V d s ! |.e.A.C x.K e f +./ F F ` J H M B.r x -.7 v.l ] 6 ! M g.8.G.S p (.P. X5Xn.A.hX<X7.p *.=.].,.W.gXp.xXFX).} [ [ M.7 U 5.7.VXlX6Xh.S dX>Xs [ 9 N * >.H.) B.&.OX#XB :.e.A.A.' 5 3 + > F ^.:.; &.R.&.G :.C.vXB.m.C.r.e.Q s.& F ~ L M - ,.S.7 A.B rXy.# o e f.U @.I p 1 } w.4X' 9XU i 8X1.<XZX5XQ.lXx 0XzXbX*X5XB./.'.,.XXfX`.w.S.:.S.hXO.CXL.!.m.v.vXF.FXgX! q :.9 a T s Z 5 ^.! V.f.t.",
"wX! F (._.u.O.iXQ A.>X~ I &._ 4 [ Q R.Z T 0 1.8.y.a p w.}.Q &.5 T 4XS.H -.1 d.K./ a X.I ;Xh i K aX1XN.(.K.g # $ 1XZ D.Q.9.E c r P ,.B E.g P ! XX^.Y.s U 6.U a.3.:X).eX`.~ ~ B _.p |  Xx.I a.A.S 9 H 2Xy.^ [ 9 4X9X3XW.`.W.~.<XU.2.9X(.bXNXlXwXc.:.vXwXs.o C ' {.f.x ^.CXeX9XAX#.;X3X@.7 B d 6 $ 7 q 0 V.C.G.H.}.G 3 C.{.Q & [ 0 _ @XV.B.C F.` C.V.-.M.C.V.cX;.v.^.K 6 s ~ uXV.9 w |.U ` M.ZXF.s / e | U %.%.7 % 5 F 7.x._ f.K L :X<X,XCXAX,XSXcXfXjX&X-.m.C.M.n.C.o.u e k.! B.^.V S ( ..G >XZ.W.E.BXlXv.R g @ p ] > & w / [ ;XA ",
"0.B.H ~.].W.7XB <.rX! Z.=.:X6X} O.U r.o.4Xd o.C ( E O.i.9X( P Z ` !.P.s D.B @.X.6.x O.f.P a.c ..E.#Xe.B -.Z : : >.C ,.I ` 3Xc.c I ( hXJ d : ;.F }.[ ] K 2X..O.a.9XSXNXQ.<XK.6.w.c K <Xk.z.x w.K.P 5 t.vX=.9 Z / jX5X_._.Z.u.F.W.x P.A.A.jXBXZX/ q V.mX5X@.+ ~.H K.I G.wX3XK.3XH.g.: q.5 P ! 5 e.z 0 . ,.,.d |.E.[.F A.B.e.3 F $ ` ) fXSXgX=.C C.C.B.,.B.M.{.,X<XeXK f A M H K.- 6 H.5.w.M ` {.` *.x t h i $.u 5 & $.@.;X! *Xy K ' FXAXJXAXoX*.M.B.C.] H ,.+X&.w.< j y O X -.Z {.e.S.e...F.ZX:XyX_ yXU.wX1 $.6 x i L u M [ ~.-.1 ",
"Q n.` B.u.XXvX[ ..vXA ;._.,XbX*X%X&Xa.k.k.iXg.6 Z l.rXI.JXSX~ 7 G `.0.5.^ mXt +.Q.| x 6Xg.p g R |.N.G.# q.S g N C Z.,.s mX8X:Xp u 3 B.:.] Z 6 B ^.^ P 2 @.1.a.~ [  XjXS.;.<Xd ! : 0 t.t.x 8 F ` 0.D Z.! ..3 w.I./.AX,X3X!.:.F.3Xj B.^.^.D.! vXy.e.FXSXk.P.2 C M._ K T  XeX,X:.:.V.hXt.R , 3 q.! >.F > 0 C.0 ] 9 D.{.M.H.#Xy.0.F 9 xX5X(.FX^.9 M.C.V.M.B.M.V.F &. X;Xq.` N T.<X] - M.T w.n.q M.>.-.A N p & Y.%.5 @ K.i h.5.s.6Xd.` G ) H.~.0X,.^.e.FXk.l S n.&.| ..< h + X s.[ _ T.{.Y.D H.E.o.~.Q GXnXr.} % e *Xx r.X.P 7.U ( E ",
"7.` _ B.BXV.hX&.2XO.9 y.NXBXbXVXpXVXDX/ 2X~.Y.<Xy.o...nXcXKX7Xe.S i 3X/ C _ u @.Y.i =Xz.X.K & e.n.kX}.Z.G >X$.Y 9 [ [ ,.:X9.>X3.v i.F.R.G ).eX0._ %.Y.h p a.K y.P & (.XX(.r.d Z 5 ! B.r.T + ] n.' [ C e.p.0 9 i.Y.).aXlXlX,Xn.~.2 ~.~.V.qXs P.a.Q 7.8X4Xq.y.u 5.c T M.G.9XM.,.! :.;.e.tXf.s T._ u.d H ] OX}.[.G V.B G ` e.s M.0 3XlXi.u..XC.E.m.e.C.F.-.) F.B.=.w.8.<XN _ 7 M ` 3X}.9 f >.6 4 B.L._ ' s.+ g g $.i U.t.wXVXp 7 T jXZXSXbXlXeX1 iXV.yX9Xx.%Xr.d.1X7.g 1 < D 2.: 4 B uXt.J 0 BXP.` C.{.<X4XVXg.m }.` B.< >.z.a.*.%X",
"2 ! ! P.BX<.G.S.IX(., 9XeX] 3XFX4XbX8Xl ~ ! uXCXlXJXW.$.eXNXJX_.r.( u.yX!._ ! X.U dX6XQ.$...y M.,.q _.SXAXi %.P D # ! 0 6.>XVXr ] ).vXQ.J W.5Xt.U ;X7Xc v O.3.I.lXk.wX( 9X).=.< g s B.tXL.2.(.'.-.V.z jXp.*.e.-.Z.)._.xXcX_.S. Xp :.;.C V.9 Z z.7.4 2 x.P.m yXL % B.yXHXeX}.e.L.$.P.V.` N ~.%.7 B ( D m D.,.kX=.M C.A T.H.q V.y.c.ZXrXQ H MXW.` ,.m.-.B.p.V.).6.M.g $._ %.B._ [ |.H.|.A.V.Q n H B.B.^ 6 # Z t A +.U.%.t.T.7XpX5.R.u.MXP.S.jX3X  V |.KXbX1.c K *.P.e.B ! ^ E 3...4XZ.` 0 AXBXD.o.,.).L.).cX2XB ` 7.Z.' ` kXd.j | ",
"v r.F >X2.C C.ZXI.K X.< eXB.' B.oX3XrX4XY h ] rXU.cXG.vX!.>.E.GXNXW.(.9XC S.B.Y a.7Xr ~ L ..5 F B F G DXH.T xXU.@ i.i ; B j.O.*XX.rX3XcXc.GXJXzX2XY.k.s. .v ;XL.r.(.p.tXZXiXCX3.d g Z 6.0.r.2Xe.F C s (.S.A.W.&.-.,.B.9XtX~.0XS.a ~ S.G.B ` D ..d.:X% 6Xk w.R.>Xp :.XX(.Q *.e.] N.+XOXV.9 ! A.T 7 # 9 7 w F E.,.i.! *.vXyX,.e.H c.9X`.Z.0.^ Z.ZXGXFXVXnX1XfXS.w.V.K 8.A @.;.V.G.H.B.}.+X#X>.e.m e.V.A w P.! : y.D A q.] M.x.8.e.rXyXfXq.vX9XA.$ m 3 ] V B.S Z 8 ,.[ ;.! V.B h % H ` y.,XcX`.cXr.;.eXNXo.P.k.V B ,Xi.~.B e.gX..x ",
"+ L.iXAX1.H M.H.,XP X.O u V.V.Z.,.' H bXeXI  .i.L.A.T.e.GX1Xe.e.fX3XlXFXt.[ GXD x 4XK 1 0.l ..V s d  X'.;.q w.U.r.f L.f : K b b v f :X~.S bXPXIXlX3X:Xi %Xp fXw.r.V.e.S.K.9X;XwXrXjXc.p.i.).zX4X^.F U 9.8 9 w.o.f :.n.F.z u.rXNXK.3Xj.' n ,.y./ s.,X*XI o 6.*.fXl.V.!.e.L K T ` T J e.Z.D.' ! *.6 F B q B ` ` qX7 V 7 H yX5X&.D.rX3X9XlX0.q.s H C.6 `.G G ZX( 5.[ U ] &.9.<X,.A.V.,.B.) #X` ,.s ` B.Z.i e.{.C yX*.' V.e.V.[ T.F.V.#XV.l @.t.AX;XSXB k.w &.4 y.E i.P.F &.e.3 {.c 7.fX0.!.XX=.`.:.;.`.NXwXd.;XN 9 K.] yXD.s LXA.% ",
", !.e.7XX.e.V H.y...A t X - 8 G q ' m V &.4X1 1.v.` ,.:.' |.s ` ! (.).^.w.F kXCXy.E *.L P Q p.Q B x ).cXU.M.4X+.! L.E ] q < -X%XsX@.FXrXeXFXAXHX5XzXZXY.a i D.Z.A 8 r.Q _.[ R mXcX~.y.t.eXk.uX8.$.Z._.-.G.0 U.rX8.b.;.E.0 C H }.XXFXBXFX+.%Xy.Q i.^ a.U  .1.( _.P.}.).F.+.K x f T ;.H q.T G.;.qX> : K % c A.^ F.P.&.u.,.V.NXn P.p.&.D.i.L Q ^.^..X5 6 :.F 9XtXo.H Z >.q.u.<X X).].,.V.C M V.S.s $ ` vXf G A.B _ e.B.F.H.V.P.e.V.J.{.A.# 5 @ x q.B.W.] 8 =.` x.z.l.}.; M.e.&.2XSXDX4.3.w.u.R.r.<.R.XXD.GX9.p.t.N :   $ +XV.JXF ^ ",
"..g B.d.~ q._ B.,X7.r.d # 5 !.q 8.rX2.w.V V y.X.' >.D.^.D.Q @.U ~ q F :.K q A.F HXp - 7 r.r.2.r.D 0.m.~.wXAXyXpX>XAXf.p s 1 r *XzX1XXX:.`. XR.NXPXDX=.:.e.A &./ u.p.i | t $.( /.vXU.e.$.PXHXQ.eXe.3X}.;.C }.Q 7 '.jXlXW.^.M.`.R._.wX3X3X0.tXk I P !.iXG.g.k.;.~.].D.B.L.3.U X.3.&XqXN.T / +XV.' A.g 2 1 r 7.tX_. XqXw.A.(.GXx 9 5 F 7 ( c 5.p.w.;.t.1 C C kXlX2XG r.B.&.,.e.e.^.9XA.tX(.` A.` V.X ! G.2XH +X&.,.d Z G ,.B.J.>.F H M.$.^ u S # D :.XX9X~.^ w.c.+.4.'.C d D p.i.p.~.uX^ jX XNXf H J m 4 /.8.C M.T.a O o H H gX5.q "
};
