/* XPM */
static char * W_xpm[] = {
"256 256 605 2",
"  	c #7C5552",
". 	c #885856",
"+ 	c #6F524E",
"@ 	c #815754",
"# 	c #855855",
"$ 	c #735350",
"% 	c #73534F",
"& 	c #745450",
"* 	c #7B5552",
"= 	c #8B5957",
"- 	c #6B524D",
"; 	c #835755",
"> 	c #7C5653",
", 	c #7F5654",
"' 	c #935B5A",
") 	c #8F5A59",
"! 	c #955C5B",
"~ 	c #8C5957",
"{ 	c #945B5A",
"] 	c #915B59",
"^ 	c #805754",
"/ 	c #7D5653",
"( 	c #765450",
"_ 	c #855755",
": 	c #965C5B",
"< 	c #9A5C5C",
"[ 	c #6D524D",
"} 	c #67514C",
"| 	c #985C5B",
"1 	c #825754",
"2 	c #8D5958",
"3 	c #8D5A58",
"4 	c #925B5A",
"5 	c #7C5652",
"6 	c #895957",
"7 	c #865856",
"8 	c #66504B",
"9 	c #8F5A58",
"0 	c #895857",
"a 	c #70534F",
"b 	c #785451",
"c 	c #985C5C",
"d 	c #7A5552",
"e 	c #9A5D5C",
"f 	c #68514C",
"g 	c #815654",
"h 	c #7B5250",
"i 	c #664D48",
"j 	c #875453",
"k 	c #60403F",
"l 	c #63413F",
"m 	c #825351",
"n 	c #75514E",
"o 	c #6D4343",
"p 	c #5B3D3B",
"q 	c #64413F",
"r 	c #845452",
"s 	c #795451",
"t 	c #593D3B",
"u 	c #1C100F",
"v 	c #64403E",
"w 	c #885857",
"x 	c #6D4644",
"y 	c #2A1918",
"z 	c #523231",
"A 	c #845352",
"B 	c #754F4D",
"C 	c #4C312F",
"D 	c #2B1A19",
"E 	c #684341",
"F 	c #895856",
"G 	c #5F413E",
"H 	c #291918",
"I 	c #4F3130",
"J 	c #6B4D49",
"K 	c #49302F",
"L 	c #301B1B",
"M 	c #644240",
"N 	c #835754",
"O 	c #2F1B1A",
"P 	c #3E2D2A",
"Q 	c #644B47",
"R 	c #805250",
"S 	c #422E2C",
"T 	c #251917",
"U 	c #61413F",
"V 	c #785551",
"W 	c #5E403E",
"X 	c #48302E",
"Y 	c #784F4E",
"Z 	c #885453",
"` 	c #543433",
" .	c #36201F",
"..	c #4C3633",
"+.	c #7E5250",
"@.	c #8A5856",
"#.	c #764F4C",
"$.	c #533735",
"%.	c #19100F",
"&.	c #623D3C",
"*.	c #8B5756",
"=.	c #8A5957",
"-.	c #634744",
";.	c #342422",
">.	c #412726",
",.	c #784C4A",
"'.	c #885755",
").	c #774C4B",
"!.	c #7E4E4E",
"~.	c #8B5857",
"{.	c #70504D",
"].	c #563938",
"^.	c #170E0C",
"/.	c #543936",
"(.	c #885654",
"_.	c #7B4B4A",
":.	c #3C2323",
"<.	c #412A28",
"[.	c #7E4F4E",
"}.	c #694846",
"|.	c #3B2624",
"1.	c #462929",
"2.	c #744948",
"3.	c #915A59",
"4.	c #442D2C",
"5.	c #110707",
"6.	c #33211F",
"7.	c #674946",
"8.	c #7D5451",
"9.	c #331D1D",
"0.	c #553433",
"a.	c #6A4D49",
"b.	c #815452",
"c.	c #503836",
"d.	c #180F0E",
"e.	c #502F2F",
"f.	c #734947",
"g.	c #905958",
"h.	c #7A504E",
"i.	c #4E3331",
"j.	c #331F1E",
"k.	c #563936",
"l.	c #79524F",
"m.	c #784A4A",
"n.	c #34201F",
"o.	c #33201E",
"p.	c #6B4845",
"q.	c #845654",
"r.	c #7A5451",
"s.	c #7C504E",
"t.	c #563836",
"u.	c #1C1211",
"v.	c #5E3938",
"w.	c #74504D",
"x.	c #583635",
"y.	c #0E0605",
"z.	c #362120",
"A.	c #664946",
"B.	c #241313",
"C.	c #493330",
"D.	c #6C4E4B",
"E.	c #754D4A",
"F.	c #462A29",
"G.	c #311D1C",
"H.	c #613F3D",
"I.	c #7D5452",
"J.	c #513432",
"K.	c #201010",
"L.	c #553D3A",
"M.	c #71524E",
"N.	c #724B48",
"O.	c #422727",
"P.	c #3E2625",
"Q.	c #6E4A47",
"R.	c #60413F",
"S.	c #241615",
"T.	c #7D524F",
"U.	c #784B4A",
"V.	c #3B2221",
"W.	c #35211F",
"X.	c #7B4C4B",
"Y.	c #804E4E",
"Z.	c #442828",
"`.	c #3C2423",
" +	c #684745",
".+	c #714444",
"++	c #231212",
"@+	c #291716",
"#+	c #754847",
"$+	c #5D3B39",
"%+	c #1B0F0E",
"&+	c #653D3C",
"*+	c #7B5351",
"=+	c #77524F",
"-+	c #643C3B",
";+	c #150B0B",
">+	c #583534",
",+	c #774B49",
"'+	c #412625",
")+	c #362523",
"!+	c #6B4946",
"~+	c #804E4D",
"{+	c #372322",
"]+	c #6D4946",
"^+	c #8A5554",
"/+	c #211615",
"(+	c #6C4342",
"_+	c #261716",
":+	c #46322F",
"<+	c #734F4D",
"[+	c #7E5653",
"}+	c #583F3B",
"|+	c #281918",
"1+	c #472F2D",
"2+	c #77504D",
"3+	c #7D514F",
"4+	c #432F2C",
"5+	c #6E4443",
"6+	c #7F5653",
"7+	c #4D312F",
"8+	c #593F3C",
"9+	c #6B4342",
"0+	c #261917",
"a+	c #4B312F",
"b+	c #664340",
"c+	c #543332",
"d+	c #7B514E",
"e+	c #553534",
"f+	c #5D3F3D",
"g+	c #79504E",
"h+	c #402725",
"i+	c #3B2524",
"j+	c #6D4947",
"k+	c #2D1A19",
"l+	c #482F2E",
"m+	c #7D5553",
"n+	c #5A3E3C",
"o+	c #4F3432",
"p+	c #79514E",
"q+	c #49312F",
"r+	c #2A1C1B",
"s+	c #503936",
"t+	c #825452",
"u+	c #744F4D",
"v+	c #523432",
"w+	c #281817",
"x+	c #744C4B",
"y+	c #44302D",
"z+	c #2F1D1C",
"A+	c #5B3E3B",
"B+	c #8E5857",
"C+	c #845855",
"D+	c #382423",
"E+	c #674745",
"F+	c #604542",
"G+	c #372624",
"H+	c #452B2A",
"I+	c #5B423E",
"J+	c #71514E",
"K+	c #855654",
"L+	c #724B4A",
"M+	c #674744",
"N+	c #57423E",
"O+	c #6A4C48",
"P+	c #845754",
"Q+	c #61413E",
"R+	c #77504E",
"S+	c #614240",
"T+	c #402A28",
"U+	c #3C2726",
"V+	c #5C4340",
"W+	c #614542",
"X+	c #2F201E",
"Y+	c #2B1B1A",
"Z+	c #42302D",
"`+	c #714E4B",
" @	c #613F3E",
".@	c #291C1A",
"+@	c #412E2B",
"@@	c #7F514F",
"#@	c #533433",
"$@	c #0D0505",
"%@	c #2D1C1B",
"&@	c #372725",
"*@	c #573E3B",
"=@	c #72534F",
"-@	c #5E3E3C",
";@	c #2C1B1B",
">@	c #6A4E4A",
",@	c #583736",
"'@	c #140D0B",
")@	c #543C39",
"!@	c #3A2121",
"~@	c #2C1A19",
"{@	c #583B39",
"]@	c #66413F",
"^@	c #2A1A19",
"/@	c #3A2524",
"(@	c #664643",
"_@	c #72524E",
":@	c #5F413F",
"<@	c #271716",
"[@	c #4B3230",
"}@	c #160B0A",
"|@	c #361E1E",
"1@	c #684744",
"2@	c #251817",
"3@	c #70514D",
"4@	c #4F3835",
"5@	c #724B49",
"6@	c #3F2726",
"7@	c #3A2423",
"8@	c #7F4D4D",
"9@	c #45302E",
"0@	c #201312",
"a@	c #583937",
"b@	c #835453",
"c@	c #6B514C",
"d@	c #221816",
"e@	c #724E4B",
"f@	c #382523",
"g@	c #624643",
"h@	c #623C3B",
"i@	c #1E0F0F",
"j@	c #5B3B39",
"k@	c #352221",
"l@	c #231816",
"m@	c #5F403E",
"n@	c #664B47",
"o@	c #2F1C1B",
"p@	c #5A3D3B",
"q@	c #714A47",
"r@	c #3D2524",
"s@	c #402726",
"t@	c #6A4643",
"u@	c #351E1D",
"v@	c #322220",
"w@	c #634743",
"x@	c #47302E",
"y@	c #7A514E",
"z@	c #905656",
"A@	c #2D1919",
"B@	c #674140",
"C@	c #805351",
"D@	c #452E2C",
"E@	c #0E0606",
"F@	c #734C4A",
"G@	c #321F1E",
"H@	c #573937",
"I@	c #6D4F4B",
"J@	c #724544",
"K@	c #301B1A",
"L@	c #533232",
"M@	c #845553",
"N@	c #5D3C3A",
"O@	c #1B0F0F",
"P@	c #472D2C",
"Q@	c #6C4745",
"R@	c #694C48",
"S@	c #1F1211",
"T@	c #4F3533",
"U@	c #573433",
"V@	c #704A48",
"W@	c #402625",
"X@	c #573735",
"Y@	c #493431",
"Z@	c #684D49",
"`@	c #75504D",
" #	c #503432",
".#	c #261817",
"+#	c #835654",
"@#	c #815250",
"##	c #1C0F0E",
"$#	c #603C3B",
"%#	c #6C4E4A",
"&#	c #523634",
"*#	c #211312",
"=#	c #533634",
"-#	c #654D48",
";#	c #6B4947",
">#	c #392523",
",#	c #4A302E",
"'#	c #8E5A59",
")#	c #80504E",
"!#	c #3D2827",
"~#	c #3F2424",
"{#	c #754A48",
"]#	c #78524F",
"^#	c #4E3432",
"/#	c #1A0E0E",
"(#	c #664341",
"_#	c #211614",
":#	c #5C3D3B",
"<#	c #190D0C",
"[#	c #754B49",
"}#	c #3F2625",
"|#	c #3C2625",
"1#	c #281716",
"2#	c #41302D",
"3#	c #5C3C3B",
"4#	c #130B0A",
"5#	c #603D3B",
"6#	c #6F4946",
"7#	c #472B2A",
"8#	c #6C4A47",
"9#	c #744848",
"0#	c #301D1C",
"a#	c #7B4D4C",
"b#	c #764C4A",
"c#	c #362321",
"d#	c #644D48",
"e#	c #4A3230",
"f#	c #4F3D39",
"g#	c #4A2D2C",
"h#	c #3A2826",
"i#	c #865453",
"j#	c #402D2B",
"k#	c #0D0606",
"l#	c #7F5452",
"m#	c #190E0D",
"n#	c #3C2524",
"o#	c #6B4A47",
"p#	c #513735",
"q#	c #1D1110",
"r#	c #452D2B",
"s#	c #5F4441",
"t#	c #805553",
"u#	c #694745",
"v#	c #734C49",
"w#	c #47322F",
"x#	c #6A4141",
"y#	c #140B0A",
"z#	c #5F3C3B",
"A#	c #201110",
"B#	c #533533",
"C#	c #7B514F",
"D#	c #4C3331",
"E#	c #583C3A",
"F#	c #644E4A",
"G#	c #734F4C",
"H#	c #7A4C4A",
"I#	c #342120",
"J#	c #442A29",
"K#	c #372423",
"L#	c #7A4C4B",
"M#	c #714947",
"N#	c #322522",
"O#	c #56433E",
"P#	c #7B4E4C",
"Q#	c #875654",
"R#	c #543836",
"S#	c #795350",
"T#	c #815552",
"U#	c #180E0D",
"V#	c #3A2624",
"W#	c #3B2423",
"X#	c #624743",
"Y#	c #644B46",
"Z#	c #6D4846",
"`#	c #3E2927",
" $	c #6D4B48",
".$	c #60403E",
"+$	c #664A46",
"@$	c #432A29",
"#$	c #694643",
"$$	c #46312E",
"%$	c #2F1E1D",
"&$	c #533836",
"*$	c #75514D",
"=$	c #785350",
"-$	c #5A3E3B",
";$	c #2E1C1B",
">$	c #6C4847",
",$	c #3E2726",
"'$	c #774F4C",
")$	c #533835",
"!$	c #1F1312",
"~$	c #503533",
"{$	c #59403D",
"]$	c #845252",
"^$	c #4A3130",
"/$	c #7D5350",
"($	c #4E3533",
"_$	c #1E1211",
":$	c #76514E",
"<$	c #593D3A",
"[$	c #563A38",
"}$	c #63403E",
"|$	c #281A19",
"1$	c #6E4645",
"2$	c #644845",
"3$	c #3B2625",
"4$	c #6F4947",
"5$	c #6F4F4B",
"6$	c #573B39",
"7$	c #513936",
"8$	c #6E4B49",
"9$	c #422B2A",
"0$	c #5B413E",
"a$	c #5A3D3A",
"b$	c #6C4D4A",
"c$	c #2D221F",
"d$	c #6A4946",
"e$	c #251616",
"f$	c #654341",
"g$	c #775250",
"h$	c #2A1B1A",
"i$	c #7E5451",
"j$	c #392524",
"k$	c #5D4641",
"l$	c #472F2E",
"m$	c #291A18",
"n$	c #593C3A",
"o$	c #523533",
"p$	c #805653",
"q$	c #704A47",
"r$	c #6F4A47",
"s$	c #241A18",
"t$	c #5E4945",
"u$	c #4C3B37",
"v$	c #65423F",
"w$	c #271A18",
"x$	c #71514D",
"y$	c #4A2F2D",
"z$	c #261816",
"A$	c #5E3F3D",
"B$	c #3D2726",
"C$	c #332522",
"D$	c #5D4441",
"E$	c #251716",
"F$	c #30211F",
"G$	c #70504C",
"H$	c #543B38",
"I$	c #261A18",
"J$	c #4E3230",
"K$	c #603E3C",
"L$	c #6A4644",
"M$	c #372221",
"N$	c #301F1D",
"O$	c #442B2A",
"P$	c #6D4A47",
"Q$	c #301F1E",
"R$	c #6A4846",
"S$	c #3C2624",
"T$	c #62413E",
"U$	c #231615",
"V$	c #634441",
"W$	c #46312F",
"X$	c #674442",
"Y$	c #422A29",
"Z$	c #533E3A",
"`$	c #140A0A",
" %	c #5B3B3A",
".%	c #7A5551",
"+%	c #744C4A",
"@%	c #311F1E",
"#%	c #63423F",
"$%	c #533B38",
"%%	c #543635",
"&%	c #442D2B",
"*%	c #2E1E1C",
"=%	c #0B0505",
"-%	c #6F504C",
";%	c #624B47",
">%	c #4D3231",
",%	c #5A413D",
"'%	c #170F0D",
")%	c #392221",
"!%	c #674643",
"~%	c #402826",
"{%	c #432927",
"]%	c #6F4846",
"^%	c #714B49",
"/%	c #3B2725",
"(%	c #684644",
"_%	c #654845",
":%	c #7D504F",
"<%	c #624B46",
"[%	c #40302D",
"}%	c #2C1D1C",
"|%	c #4E3634",
"1%	c #6B4846",
"2%	c #302321",
"3%	c #644844",
"4%	c #704D4B",
"5%	c #3D2625",
"6%	c #221312",
"7%	c #342321",
"8%	c #452E2B",
"9%	c #482B2A",
"0%	c #4B3834",
"a%	c #352220",
"b%	c #5B3837",
"c%	c #2C1C1A",
"d%	c #35201F",
"e%	c #362322",
"f%	c #040202",
"g%	c #714C49",
"h%	c #7C5250",
"i%	c #573B38",
"j%	c #4D3A37",
"k%	c #68504B",
"l%	c #775451",
"m%	c #774D4B",
"n%	c #67504C",
"  . + @ . # # .   $ % % & & & # $ * = - $ + * - & ; # & @ > , ' = ) ! ~ ' { * # ) & & & @ & # = + , @ -   ) ' ) ) ' ' ' . ) ) # ' * ! ~ ] ! ^ { ' ) ~ ) ) * & )   / = @ ' { ' ) ) ' ( ) * = ) , ) @ { * ; * ; #   . # & * # . # = ' ) ) = ' ) ( ) _ ) , ~ @ _ # '   # * ) : ' ' ) ) . : * @ ! = ' * *   # . # * ] ) ) ) # ~ _   ) # ] ' * = = = ) * ; . ^ _ * @   *   . ) ) ; & ;   & ' @   . * ) # #   & . @ ' < , # * ) ' & * ] ] ) ' @ ' & _ @ . & & * & . ' ) * * # # ) - _ & % = #   . [ & = + - & * [ & * = & @ @ ) , % $ ",
"% @ @ + , @ #   , & } . . & % [ @ = = @ = * $ # * . . ; ( * * ' ) = { @ &   . # ; & ; ] ' # * ( * @ + , ( * ' ' ) _ ) # ' = < ,     ' ' ' # '     #   ! ) ] * # # * . # , # = ) ) @ = , ' . ( = . )   ) #   = ' * . # . * ) & ) = * # # = = ) ) ' ' . ) . _   _ = ' ' ) * & ( ' ) { ' ~ @ # ) ) & ) # * , * * *   ) ' # &   & * ; & # ) # = ; = ] ' . ] ) * .   @ @ )   # / # ;   & ! @ @ )   * ) ) # ] #   # * # , , , & ' ) ' ; . ) & & ' , * ( $ @ # _ ' . * * ) . @ = @ ) , } & % & ; @ = , & * + } * $ * & = ) _ @ ' ' $   ",
"  * . $ . - # + & ) * * ; ] . = @ , ' = $ . ( & & & * & & # ) ;   ) ~   , { & * * / , , * & , = + - + . @ = ) ) _ ' ' # # ) * * % & ] ) ~ ! ) # ] *   ] &   ) ] @ . ] @ # * ) ) * * ' # # # { = | ~ ) @ ; * . ~ * / . % [ . * * * &   * = , . : ' < _ ' | ) . ' ) ' = ) # @ ) = = ) = ' ) ) ) . ! & @ *   ; , . ) ) . ) * * * # * ) ) # ) ' = ) # = ) ' # ) = _ * * ~ * ] ; & ) * * % # # @ _ & ,   ' < . ] * ] & & * # * ' # @ . & # ' *   & ) , % *   ) @ ) @ ' * @ @ )   ) & & % +   ; , * % * + + # > & $ $ ; & # * ]   @   ",
"* * . ( ) # & + ; ; . % & = = ; = > * = . _ $ + ) = ) [ & ) & ; $ . _ @ , # < _ . * * * ' % & ( . $ $ + ( _ ( % * ) '   * ) * # * ' ) = ' . ~ ) ; 1 ] # # * ] * , ;   = # & . ( ) ' ( & ) ) , ) { ! ;   ] . ~ & .   # ; & % & , . * # & = # ) @ { | . ) { ~ ^ ) ) @ ' _ = ) _ _ ) ) , { ' ~ . # . * . & , @ = & ) < ) ' . * ) & #   . ] # ) ) ) ) * * = ) { . ' & . ! ~ | ; % ; & # & . . % @ % * , #   ) ) * ] * # ; ) ( @ @ _ & & , $ * ) *   & % & $ _ ' | ' .   _ ) .   ,     * %   # , % & + % $ & ; + % & # * ) ] , & . ; ",
"# .   * * @ % & *   &   * ) ] ; . ) # = ' @ ( & = , * * + ( # # % # + * & ' * ' ) = ]   . & @ = . ) . + - & ) ) & *     ' ' . * * _ . ; . # ' ) ~ ! *   ] ! # ; # _ _ ' # ' @   ) = ' _ ~ . ,   ) ) ) < ) . & & * # , * ; # [ ; ) * & %   . ) ) # * & < ) ) ^ & ( . ' 2 _ = _ ) : ' # @ # # ] ) # . & $ * * , @ . = = ) _ $ ' = * * . & * . # ) , , @ = # @ ) ) & ' ) * 1 , 3 ; # # . . + ; * * , # * # ) # ) # ) @ , * = @ ( 4 ' $ ) * & . . . @ *   _ { ) ) & ; * ' * ! ) % % [ , # # , = * % + + . ) * & + # ) ) . , * ' # ' ",
"# + . & * # + + + * &   & * ; %   ) * . , * * * * # ' * ' $ = = . # % & & : ' ~ ) ) ) ; ; , * & . * @ ) ) ( ( ( % , ) ~ * . ) * @ ) ) ' ) ) & = ~ * ] ~ {   = * ' * ) , * $ + @ _ _ * '   # @ '   ~ . ] ] ) * # . 5 )   , 5 / ; * * & * & . . ' < ' '   _ ' ) * _ ' ' ) ' = ' : ' ) ' @ * < # = .   @ % & @ @ + & ' ) ' # * = , # * * ) & ) & ;   * # ' : _ < { ) , # ] . % % * 1 ' ) . & # ; & ] . ; # # ] .   ( @ 6 # * ( @ 7 ' & = ; * ( # @ #   , & # ! . ' ) ,   * # ' & . ) - * 8 * * # & # , # . . # & ] = _ = @ * ) ) @ ",
"= $ & ) _ ' , _ # & ; . ) & & ; * @ , * * * $ # # . = * . $ * . , & # ~ ^ ) | * * * ) ; # & # , * # ) @ ( ( * . & @ * ' ; # # < < ' # _ ' = @ . . ' 9 ' ' ; ; # * ) @ ( $ ( ( _ ' ( * ) !   * ' * # . ) ) * % ; & * 5   ; % ; # & + & . . = , ) _ ' ' ) { ! )     ' ) @ @ = ' # ) * _   & # . * @ * # * # # # * * . = 0 = @ = , ; + & . ; # . : # & ! ' ) . @ &     # ; # % & / ; # & * % % * . . = ) ; ; ) ) < : _ & ) 7 ( = _ > * _ @ _ _ * _ & ' . _ # ) ) ' & *   *       & ) ;   # # % & & * ;     = # , = . = @ * * : ' @ ",
"* $ - . . # # ) + * . * ' # & & & $ - = + + ) 6 & . # %   ( $ % ) * # * | . . * * #   # = # & & % ; . & + ) @ ' # , . # & )   ) { '   ) = : : # ! ~ ~ ' *   1 1 & @ ) * ' * _ . @ & &   * # { * ) ~ < . . ! = ) ; # # . & & * * &   , #   , & ) = . ) @ ) { * * @ ) @ ) ) # ' < # = * : @ ' !   * { ,   * @ , = ( ' = = * ) & #   # * & ; )   ] # ; # ! < & , * * , * ! # ] ] & # / ] ; & % + & * % = # # ; &   = * , @ _ ( @ ) _ = ' @ * # ) @ , ' ' ) * ) * @ . ) ' ' ' * # $ ) = # , ) .   & , ) # * # , # * * , $ . # # @ @ ",
"% * [ ; * # # / $ a   * . & [ , ) . & * ) % * $ , ) = ( # * , = ) ) ! ' ) & ; &   * . . % % + # _ * + * * ( ( b ] # $ ( ' = ) = * . # ) = # @ . ; ) . ; & 1 ; . * @ ' ' ) # & & ' ) & @ @ # , @ ] # ] ) . . ; & * # ; & * * & ; * # & & . ( _ & ' c ) ) ) ) > * , ( : , . * . ) ] ] ) ] , & { . * , = # . # ) , @ ( = ) ) @ b $ & & # & / ! ) ) ] ! . ) )   # ) . * ; & . = ' & @   ) . [ # & # @ ' @ @ > # * ) =   ( * , # @ ) @ , & ) * ' ) ) ) ) ' ) ) @ ) * # ; & * ) # * _ # # ' ) . @ , % @ '     *   . & = & . . @ * * * ",
"5 & [ , # ) / * $ & & , } + + & ) $ = # . . * > . ( , ) ) & & ) # ' < ~ : * ] , ] ] , & & & & [ = + , * ) , , , # # (   _ @ ) ) ' * @ ) ) ' ) # ' ) ~ ~ * ; ; & # & * ' = * & ' @   * @ # ) # * 1 * ! . . ) ] * & & & %   * & & . & . # = .   = . @ ' ) ) @ = = ( * ) ( ; ) ) ) ; 1 @ * @ ' ! ' ' @ 6 @ . , # _ ' @ . ) _ _ @ _ % ;   & * . < ] ~ . ' . . & & ; & ] . * @ @ # ' & # # # & [ } * @ ) @ ( $ & ) _ ' * * * * ,   , ; ; @ # * = = ) _ ) ) < ' )   #   # ] # * . * & . *   # # # % = @ ' * * # ) ) % * # ) & ' * # % ",
"= & / [ % % . # . % % % & # % * = @ . & # ) * ] 0 - + ( ' % = # & ) ) ) ] , # / @ ] ; * %   ) % & & @ + _ _ @ , + _ , = ) ) ) : ' . # . ) )   '     ] ) &   . ; , { * ) ) . # * #       # * { ' . ; ; . ~ . ]   * # ; ,   . * & * * # * _ & ) & * * # : ) ) ) _ # $ * ) < . ' ) ' '   * # @ ) @ $ _ _ @ @ = = # _ ' ( & . { { '   / * & ) . ] | ! ' ! ~   ; & . % & * &   & _ _ 0 0 ' = [ & ; * @ b = * ' * $ , # ' ( ) @ * * & & ; & # ) & @ # . * # # . # # '   # # ; , _ _ ' ] *   # ~ . % & * . ^ @   .   ' # * & , # & * * ",
"# & # 5 * * & + ) % # ) & . & % # _ @ & ) = . # @ , @ + $ , * * # ) {   * ] . 1 , # # , * ) = ) ( = $ * - = , $ ) = , @ * * & , # . ' . . * ' @ * ] ) ) . 1 # + _ & , = = . &   # ) * * &   * . & 1 ) . ] ) = ) , & . # * / ~ & = , # @ = ) ' { =   = = _ ) _ ) # ) . ' ) ) ) . # '   ! ) . ) # * # *   = ) ) ) ' _ @ . = { ) ) & ) # ) . ) * 1 * ' ) ) @ & # * [ % ; / % @ , ' * ( 7 ( * * , 5 $ $ , * @ ) @ _ * * , ) ' *   & + . # * ) * ' ) =   { . ' ) * ' #   * # '   = @ ; , '   ; ' @ . * + ) ' # ; _ { ) : ' * @ @ ) @ ",
"; @ * . ; . . ) [ ) # . > + & * 6 @ ) = 7 = $ = $ @ = * ) ' * * . , ) ) ~ % % * & % _ = _ = ~ & = $ = + 7 = ( 7 > ] ; ; @ ( = @ ) ) ) * ! / & * ; * & @ % . & ] )   #   ] * % ) @ @ ~ ] * ! * ' . ] & * & #   . # . ; & ) & * . * & _ ' 6 ' ' @ ) : & , : ) * = . ) * ) # . = @ : ) ' ) ~ ) ' # ' # * = ) _ ) ' ( ) ) ' ) . # & !   & ) ~ ; * & * * ) ; & # ,   [ [ & % # & @ @ _ *   ) * .   ) , @ @ - @ @ : _ @ b * * # * # , * # = ; * ~ . ) # ) * ~   * ) ) # * ; ) = @ # & ) ~ ) ) . ) ' ' @ @ * @ & < = * ) # { ' ' ' ' ( ",
"# & & = # 1   / * . ) ; # & , * , @ * _ @ 7 = ) 0 + @ * % ) # @ ,   * / ) * /   + & @ ( , , * _ 7 a 6 * @ # 7 @ = # ) * * = > _   ; ] ; * # ; * # 1 ) # ; # * / @ ) ) < ) ; @ # = _ ' ) | % ' . * ) . * ) # ; # / # * * & ' ! . . , * ) > = ) = ( _ * # & ' ) ' ) ) ' # . ' $ ) ' _ ) ' ) < < # ) . { ' ) ' # ) ) : ' ' ' ) < = . . * . ' & % 1 * ~ ' ) # ] ] & , % & [ . ) ) * @ ) ' * ; ) # } + . _ * _ ' * & , ) ( * _ & ) @ * , & # ;   ! ' ) ) . ) . ) ' @ * ) ] / ' ] ' @ & : ) : ) ' ) ' @ @ # _ * ) ) ' @ ) ) _ . ' , _ ",
"] = . = * ~ ) ; # ] ' . $ # @ + ( & _ , , * ( ' = @ , =     & . , # * ; # & & ; # & & = @ ) ' ' ) $ , ) { = ) ) * ) ] ] , _ # $ ! < ) : & # ~ # & ) ] ] * ) ] ~ ) ~ & ) ; * # ' : )   ) ! { ! *   . < ] .   # * * = * * & * # & = , * @ & @ ' & * * , = # : ] ) _ = ) { @ = ) = ( = # *   ] ) # . ' ' : 4 4 _ ( $ = = ) _ @ * # ; . . .   ' % ; * # ~ ' * & # * [ ) ) * @ % = @ @ _ * , % ; . % # * , + 7 ( $ = ( ( $ # & # * . . % % % & . *   *   * & ) = _ & & ) ! < # ) # ' * # ] = ] ) ] ' ) * , * # * < ~ _ @ ) . = _ = @ ",
"@ ; & * & # ) * ) ; @ @ ' * & * = @ * 6 @ ' 0 @ 7 _ 7 a @ & & & # ' ) ~ 1 . % - @ & ) @ , ' @ ,   @ * * # #   ( * @ ; ) # 0 ( > & . )   ]   1 ; # ;   ] ] . ) ) ' ) ! ; # # ' < @ @ = ) ~ '   ! * ) ) ] ] ; * # ; & *   _ * *   ' ( ) ) # * = * # # & * & ) .   ' ~ ) ) * * * , = & * @ ) # ' ) ' @ . : _ # ) ' * _ ( ) : > #   ! | ! ~ ; / . ; & ! . ) * =   , [ # = & ( $ $ * # ( , % + [ % . , * ) $ 7 = > * ( ( & , = @ . ' ; , [ # ! & * & / ) * * _ ' < | ! ) . < # ' # * ] ] = = # )   ' ) _ ) = < . . ' _ = , = ' ' ) @ ",
"& * ) *   ) ' @ ) ' ) _ ~ # # % ;   ' $ = @ * @ . . . % . % , * & # ^ ' ; #   . * . . # + =   ; * , &   ( @ ) ( $ * = ) _ # $ $ @ ) { * @ * ; , ] = & & *   !   * * % * ) . .   & ) ) ~ ) ~ & ' # !   ] < * / ; ; 1 # ; % ~ . 6 6 # ) # . = & ) $ * _   &   * = ) @ , ' * ) = ) = _ 0 d = = = * b * * ) ' ' @ ! @ , _   ) ) ) @ ' ' ) # & * %   ' *   ] ; ; - . ) % * = * ; = + ' * # ) % , ) . @ & % * @ , + $ > = _ > & ( = & # = )   & ' % & ,   ' ' ! ) ) # , ' ' c * ) ) @ ' ) & : _ ( ' > = : ) % & ' # ) @   @ . ' ) # # ",
") * . # * ' | ) { = # ) ; & . ; # ; . , * & > & * & # % % / &   )   &   . . & % + & * * # & ; , @ @ ' & @ @ = _ ( > ' & ' % } = ,   & * , * #   &   ) ' & ; , < ; & & & ) * . ~ ' # # ' ) ' ' ) )   ) ] ;   * / * 1 * & * ; ; ; ; ! ) # # = # # = ! & & = # & * ' ) _ ' * $ _ * 4 & _ > > = @ @ ' = @ . = # # . )   , # ' ) ' * ' ' ' * % + ) *     ; *     + * # $ $ # # & ; 8 1 )   * & # . ) . + % * & & ) + # = 6 & ( 0 & , # $ = . . # @ ! @ @ @ @ ' { ) ' @ ) _ @ ) _ ' _ ) : ) 7 = ) * ) ' ' ) = # ~ ) . * * )   ' # { * ",
"; @   & _ ' ) *   _ ' * * . * # # # . # @ ' * = 1 # * . # - ) & ' ~ # ~ & & % - & # $ + & . & ) & * * & + + , ( $ + , & * * = + + % & # * @ & % & . % ) *   & ! ] ) . & ) ~ * ' ) ' # ' & *     ) . # ) % ) . ~ & * # ;   * # = . ) . ; = & , = * ) b _ . $ * * _ { = : % . * : @ = , _ & ( : ) ' ' * ) # . ) & # # # =   { ( @ < ! ! ' ' # * % ) / * ; ) % & ( @ $ * * # $ & + % . * & + ) ] , _ _ * $ @ $ % * # # * # 7 $ $ a + # _ & $ # & # ' @ + @ ' . ) ' # = % . @ @ = c 2 _ : 4 = ' ) 4 { { . ' & | ~ * . . ) @ c = & = ",
"# . @ * ~ ) # . ' { ' ' 1 1 * 1 & & @ # ) + @ $ & 3 / & [ & % # + ' ) & # , + + $ & % % } - & ] & * [ % @ + ( @ = $ $ % , ) & $ # % @ . * % . * - . % ) ) # ' . ] ) ] . ) ) ! ' { ) ) ) ~ * @ ) ~ ~ | / ) ) # & ; . @ ; % # / . ! . # ) = # ) =   _ ' @ @ * ' = ) @ ' ) # = : # = : : ( ) @ = 6 | @ _ ' ) ~ ) . # ) # # ' , & ' ) # { *   ) % % ; , = = @ + , $ * % } $ = @   * . & + , % # # * # # = @ * @   & * > # # @ $ > , + $ $ # = & # * , = ) @ ) _ '   ) ) ' _ ' = = * = = _ c _ @ 6 &   @ _ ) ) # . ) { { < # c , @ # ",
"~ ' ^ ' . . ] ) . ] @ ' * # , &   # 6 ) ' ' * % . ) 1 . ; ~ ) & # . _ & $ $ # ) = ; + ; ]   * ]   , ; , # # = ) , 4 # = + & ' + ) & $ . ' $ .   + & ; , ) # * & # 1 ' * )   ) ) ' * _ ' ' ' & . = = @ * ] ' @ . & * ^ . @ * & * ' ' ' # ) * & ' @ ' ) ) : ) ) . . . ) ~ , ) ) . ) c 0 ) * ; ) = _ { . ) ] ~ . ! ) # . # ) ) . ,   ) ) @ ' # . & [ # # , - ' @   @ + . * * ; & %   .   , $ $ + ; =     , = = _ $ & # ) > & [ % ; & ; % % * ) & & # = & # & @     ) @ ) : = # @ 4 @ ) ' 0 # = @ = , # . # { ) ) . . . # < ) { . ' ",
"' . # ) ' . . . ) = < ) ; * & ) @ , # + * ) = # & & # & 1 & *   % % & % & + * . ; & # ~ , . )   # + % # & = - & ) = , @ # . * + ) * + . @ % # )   ) ) = & ] ] ) ' ' ) . @ { ) ' (   _   ) ' ' @ _ & # ) # . # = ; , % * * # % ' . ~ ) < = ) ! ) ' ' ) ) ) = ' * . _ ~ { * ' . ) = 4 = _ = ; = ' ' ) ) . ' . ' ! { ' < < = ) * * * # ) ' * @ * & * . ) # & # = ' % % $ & % $ # $ % * . & @ = ; = = , * * @ * . , % ) = # # * [ & . % ; , $ + + % % ; + & ' , ;   @ b _ : * * 6 @   @ ' . * { = = ' @ ' ! # ) # ' : , # . * & ) * ",
"& ) ; ] : # . ' # = # ' ) 1 ! * * * # # * # * * % % ;   # % + & _ * % _ = * % & @ = } @ ; ; 1 *   ; # % # @ a $ = @ _ a + * & - . % * @ ) % # . ; . , . , &   *     . ! = & ' = & , ' . ~ . ' ' ) & * * . :   & # , % % * * & & @ ) ) @ ) ) ) ' : ) , ( ' = { ' # ) . ~ ) ) _ ' ) _ ) ( * < = # ' ' ~ ~ ~ ! ; . & ) ' . ) _ ) ~ ' ) '   @ * &   * . ) ; + % # . = # ) . } & & & * @ * * @ @ ) $ & , # * = # @ @ +   ; ) a & ; = ) & & + + # & $ % .   &   , ' . # $ @ _ & * # @ % * _ * * & # , * < ) . . ) = . { , ) # , ' . ) ",
") ~ * ; ,   ; # * # ] ~ ! * &   , , * ] ] ) ] , # ; . / ) ) $ & # % % * + a # = + + & . ]   ) ,   ; '   = # ' * @ ) ) * $ + ( . _ ) = ' * % # * ) & % + . ) & . ! % # # ) @ = # * ' ' # . ! . . # ) ) ) { @ * ) * * & * . * # @ ' = _ ~ ) & * ' = ) : ) = @ ' = < # ~ ' b ( @ b _ @ = , ] : ; = . ) { | ] )   .   ) ) ' # # . ' . ) ) ' @ * 1 . / ; # & # ( , ) # @ &   ; , - [ % 8 % . $ . * = } , # _ ) @   ( % * & * ) [ %   . & % + $ @ $ % = + # % ) ) ) _ ' , * 0 = = ,   * $ * @ * , # $ @ ) . ) < . ) ' & @ # . ' .   & ",
"* & *   * @ ' ) ) . = : ) ) ' ; ' & # , @ _ ' , * ,   . * _ * ) = = = ; + & * = % & # a * @ . . ) * ; . # . / ) @ , - + & ) * # @ = ) + @ @ @ @ ; & % [ & * - + ^ ' , # ; # & ] # { _ ) ( ' . ) ) < ) { , ) 7 @ 6 * * , , * . ) @ . ) c ) , @ { c { . ) , & ' c # @ ' ) # # , ' & # ] ; ; # = = ) # ) ) ) . . ) ' ) ' . ' ) ! ' ) . * = ) # * & # & * @ * - $ = . . * * # + & & * + + @ # _ @ = * & , + $ + & % & * & @ ) % [ } * ' ' '   ; . # = [ = ] ' ) @ _ @ ) ) * * * ) = @ + *   # ) = : # ) ) # ) ) ) = *   @ * # ' ) . ",
"% ) . ' = = ' ) @ ' , _ # ) _ , * * , * @ ' * ' , # * , # *   _ ) , * . * & + = _ ) * $ _ @ ; ; * ) ] / ^ .   # + ) a + & + * + , _ # * - $   . ; * # = . ; % ' * ' # * * ; ] = # . ' ) & ) ' ' ) . . ' 4 @ @ > @ > ) ( & & = { '   @ ' _ (   c < { @ < : 7 ) = { ! { '   . * )   # . # * # . ] = ) ) ' ) * @ @ ' ~ ' . ' ) ) ) ) ' # ) , # * ; # + & # ) * & @ & = & ) # % & + % $ = * $ # = = @ + % & $ # = * + * $ ) . * & ] + # # . * +   # ) % & = & . ' ' @ .   * % @ @ = @ , % @ _ * = @ = _ = ' # ! ' @ . * & & * . * ) ",
"' . ' # ' ( { | = { _ _ , : ' @ ] * ) & # , , & # ' # . , * _ } , & & & = > ) & @ _ , * , _ , , . ) * # ~ # ; . = @ % + , %   ; ) # = = _ ) * & & * / ) # * # * .   *   * * @ *   ) @ _ ~ _ ' ~ ' ' ) . = = ) * . )   _ = @ @ = { ) _ ' { ) ' ) ) = ' : = = ' _ ) ~ ) _ @ @ % # * &   ) & * ) = ! ) | . ~ ) 4 * % { ) _ { | * * * : : @ ' ; ' * ' = * ) % + _ = # * + ) $   , # $ @ * ) * $ ) @ = , = + @ @ & ) * $ & * * [     = # + _ ) ) & . = + @ ; @ ) . ) _ # ) & * @ & = & , # $ , = @ = = { ' < . . '   ) . ! ) & * * * ",
"# . ) ) * ' # ! : ) @ = # _ ) , ~ ; * ; ) # . ' ' # ' ] @ @ = +   ) & . a = ) } ) = . $ @ )   , / * * ] %   ; * - @ = $ & & , % = & - & . , & & ; ) [ [ & % * ) %   # # # ,   ] * #   @ ' ) ' | # ' ] < = ) ) = & ) :   = * * = . { # . { . ) ) 0 # @ # _ ) # ) ) ' ^ & { _ &   ; * ) # ) ) * ~ . ^ ~ ] ) ~ = = .   * ' c ) ( ^ # _ * # . # '   * ' * ; * + & # & $   # + % ( # ) # # * @ = & $ & % ' + @ , # 4 $ * @ + %   & # $ @ . # % . . # ; % % & * ' . < ) ) ' _ = # * , @ , , = # _ # ) ' ) # { ' . ' & = ) ' * ) & ) = ",
". = { < * $ * ' : : = ) , ) _ , ] ; , , ; # { # # & # ) . & = % ;   - # @ + = @ # & * $ = = =   # ~ , ] [ &   , & = + # # % ; * * ] . # + @ #   , & . @ . . / *   ) ] / @ , ] ) ) # ' ^ # _ ) < < = ' ' ) . = = * _ : # ) ) . ) ' ) ' ) : 6 ( ) * _ * ) @ : { { . ) ! ) # @ # . / # ] # / & . ; ) . ) * ) ) _ = ) ~ b { ' . ' { ' @   # ' ' . & + & _ _ & % & & % + * _ * * $ # # & ' * & @ ) ) * + ; @ * & = 6   = # . ; . &   * & ; * = ; ' & , # . # , & # . ' # ! ) # # = ) * & * = & * * & . ) _ ) . . ; * = ) = = * ( ) ) ",
"' ' . ) @ * _ . . , ' c { , = _ = * * & . # { =   * )   @ % & - % * , , $ + $ @ * = ) a ; # ] ; ) )   8 + * * = 6 = # ) * * # % ; ; &   . ) @ % &     , ) ) ] . .   & * ; ; # @ ) { @   @ ) # ' # , _ @ * ) ) = & # @ ) = ( * ) ) c < # = @ ) : @ _   # # ) & * !   # _ * , @ . 1 * ] ) 3 * ) ) _ * * & ~ %   ) ' ) { ) { @ * @ @ _ { * # * , ) # # @ @ # $ % . % % % , @ * & & @ # ) ) % . $ # & . [ * & , # = = { ]   . * # ) # , =   . ;   ; & # $ = #   ' { . | ' { < & _ * $ ( # * = , @ = ) @ # # * ) * # ) ) ) & ) ' ) ~ ",
") # * ) c _ ' ) = 0 ' = _ _ ' = = ]   = ! &   = ) & # # & . $ % & # & = + + _ $ * & & & & ; ) # & # % + % # & # = $ & . , = & & + = @   ) . % @ & * & * % # . & / ) ; , ) & , # # #   @ @ * )   , ' * @ ( ) _ . ) ' * & , @ _ = _ _ { : @ @ ) = * . . ] ' ) . ' _ * @ ' : ' _ _ ) 1 ; ; ~ . = ) & * & ; ) * . @ ' ) | c ) ( @ @ , # _ & _ ' > , ) @ @ _ + & # $ & + $ & _ &   # *   @ . $ @ . . , _ _ % = * & * . * # ) # . # & , % & & * , ) & $ @ ' , & * ! ) ' . # . ) . , # ( , = ) *   = _ ( &   = & # @ ) ] ) = = # . { . ",
") ) . ' ~ @ ~ . _ ( & ( ) _ = = , ) ] ) . < ' < ) + . & @ ) = $ & & + + = $ + a + + # ; ) & , [ , & * ; + ' - + $ , & & * & =   , * . * * * $ * & &   ' 1 ! ; & & [ ; ] # ; * =   * ; * * , = '   & & _ @ ' : @ ) = #   = , ) . ) * = * & = , @ * # *   ) ) ) { ' ^ , ) < ' : # ) . * ) ] < : ~ * * :   ) . ' _ ' @ ' ) ' ' * & @ & # , * * & > @ _ & @ ) @ ) ) & # # ' ' * ' { *   * & . ) , @ @ * + & - @ @ . # ) ) . ; * ) ; . * * # ) # & ; & # * @   ) ' & ) _ ) # ) . # ' ) = ' = & ' & _ _ @ ) * * . , ) ) # = = * ) < . ",
"_ ) = | ) ] . * ; ; ) #   #   ~ & = { ' ) # ' # & ) * . , # # = & # # = & * = # ; 8 % # , * ) - ) + 6 , # ) @ * = & * # @ @ . ( a , = > * a , & . , & ; : @ , = $ & $ . . ' . & = ' ' ) ' & . ' ) ' @ ' ~ ' ' c , ' ) ' { # , . # * # * & # # *   & * # & * _ : ' @ _ ) ) ) , , ' < ! * * ) ! ~ : = 4 = ' ' c ) @   _   . . _ ( * . @ @ & 6 '   ( 4 _ * @ _     * * @ * @ ( , ) # ' @ ) # # ) * ) $ ) @ # # $ @ * + _ ) @ ) & # # @ & ] ,   * a * , ; , * @ = # * ' . ' { ' { ' . * @   & ! = , @ ( ) , # ! @ * ) ) : * * . ) ' ",
". @ ) ) ) . : . ! & . * & * . . ) ) = @ ) ' ) = # # , , * & * * & , + ) , + & - = * + & * * a = + + * + & # + = _ > * . , $ _ _ & $ = , & + # * & # ; * ! & =   &   + + * = @ . # # & * * : { _ _ _ ) b ' ) ) @ @ & _ = < & # ( : # = * ) & ; * @ . , * * * ) c ~ & =   = 6 ] ' # ) *   ) ' ) # # = ) ) : = c 0 { )   { @ * + _ , _ { { ) ) @ 0 _ @ & @ ' @ ' & ' # ' @ =   _ @ * ' #   ) @ _ , - & = = $ . & + % . _ ' ) # # * * ) * ) ) , = = ) ] # ) ' * ) $ * & ) ' ) c ) | _ ) @   & ) ' & # . ) ) . . ' & ' # ) = ) ) . < ",
". @ ~ ' # ' # ) ; . < . ' ) ~ * _ @ &   @ ' ! ) # * ) ; ; & = = & * * # . - & = ; = # & # . # * + & [ & * [ # - - ) @ ) + = 6 @ & @ - _ $ > + * & # & # @ & & ) = % * , ' ) & , * = ] ~ # ' ) ) )   (   ^   @ ' ) _ = ' = ' * ( # 6   / * * & # ) &   = = ( ( @ # ~ ) . = 6 ' = ~ ~ @ , ) ) . & ' _ @ * = ' _ @ _ _ , ' ) b @ ' # # ) * ) ' @ * @ ) * @ > ' & ,   ) ' * * @ * . ) , * )     % # @ @ & # # = @ ) % * $ # ' , @ _ * # * ) # & # = . * , = & @ # # * { # ) _ . @ { ' # ~ # ' ' < * ^ ) ^ | < ' ' ~ ) ' * # _ ) < = ",
"' ) ) ' { & . ) ' # # . ) = ' | ' ) ~ @ ) . ] ; * ; ] 5 # . # ] , ' [ = _ ) @ , . & $   ; ) , = ; = ) = = = ; + , , # + $ ( @ $ = + @ = * 6 + # { & & > & = = & , + * } , = $ ) & *   . . ' : ) @ {   9 ' ^ @ * ' ' ) < ) # ) _ ) & * *   . * ; , $ $ @ * $ * @ * ] ! ; = = = @ @ ) * . ~ # ~ ) _ < _ > = = ) ' , % @ * ) ) '   @ : ' ' ) ' * * ' , * @ * @ ) ) * * % ^ * , ) & # _ ( ( # * ' % ' _ * @ $ = % @ + * = . #   @ * # * * , # # ) # ) ' * . ) ) * # * * & @ = ' ' ~ ' # # ' ) ~ . = * * @ . ' _ _ # | ' . < ' @ # ' ",
"_ ' _ # _ & . . & # * _ ) , ' _   ! & ) , 3 ) & , ' ) * 1 / [ . * , _ > @ ,   # @ + * + = $ * . ; ) = * = ; + % $ , _ ( a * $ a ; * & # * & & * # & = * & . # = & + &   & = &   ; ] ) ) # . <   b   ' ^ @ _ _ @ @ * : ) b , ) . = ' * = > > * ; * , * [ b _ @ _ # ) ] # . ) ) & ' ) = ' | ) ' # : # _ # @ ) @ * . + $ ) ' & _ @ = , * ) & * _ 6 & ) # * ' * * ' ' @ _ . & # ; * ' c # ) ' ) ) * ) = * >   & * % & . , & @ _ @ @ * $ &   % + [ % 1 / ] # , # ) , , * @ * ) _ . _ & ! _ # ] ] . ] _ * = = ; ) ) ' ) ' & ) ) ) ) = ",
"_ ' )   ) ) { ~ # , * # ) ' , *   ! )   . # ) & & , ! & ) ~ % * ; , * # . b ) # _ = * + = # = # # ] = . ; [ @ } # 6 = = a = + $ # & & = = > ( #   . + $ * & & . * % & $ @ _ _ # ] ) # * * ) ' & _ @ ' _ . ) ( ( @ * # & ( b 0 ' # ) ' > = * * .   ; * # @ @ @ % $ #   * * ) = > = = ) ) ) | . @ # ) = ) ' , , _ - } . ) _ * * ' = ) @ = ' = ' & ' ' @ , _ , _ * _ ' _ ) ' ] . ] @ _ ' # ) ( @ ) ( * , ) { ^ % @ * # * @ ( ' _ _ * , . % - * & & * 1 '   : = * & @ . ) . ( = ' ) . . ~ ' ' ; . 3 < | ) = = ) # '   @ @ ' . # ) ) ",
"' ! #     , _ ' ' @ ) _ = ) _ ' ] ; ' * * * # . & ) ' # 1 # # * )   * # , + $ . , , = = @ @ ; [ ) ; + / & = } = ' & @ ' & = $ = = * & . *   * . & & ' _ &   + -   + % # , @ ' = ; ~ . , , $ $ %     ^ 9 ' @ @ @ * # . ) ) ' ~ @ ) _ ( _ * = * # # * & , = & * & ) ^ # & & . _ = ( = . ) ) ~ < ' ) ) < _ ) # , * + 8 ) = ' ' ) ) = ) ) ) # # # _ ' ) @   ) , @ ) . # & @ * ; ~   ' ) ' ' _ _ # ' ) @ ) @ % % ^ _ ^ ' ! @ @ _ # % . ) & . & . . + & * & # > & = # ' & , ' & * ' : ' ' . . & ) * * ) ' = # ' )     * $ . # ' & _ ) ",
"* ~ ) ' ) = ) c ) & @ = _ = ) { , # ]   ;     * ) ; . ' 1 1 ; 1 * ; @ _ ( % & # ' & , & + * = @ * % 8 & & * * ; _ ( * # + ) ) = * + * % = & ( ) _ ' ' , # % = & - % * & @ ' , & ; ~ # @ ' ) #   ) b . ^ ( . ' * ) ) @ . _ ' ' @ ( , > = * * & = & , @ # {   # * ~ * % + & ) = = . ) ) { . ) ^ ) # ' * _ & ' ) * , + + _ ( ( ( ) # @ ' _ = ) ' @ *   # @ # ' * & @ & @   & ! ! ' ' ) ' = ' ' ) ' ( ) ) ' ~ # _ ' ^ { ' & . @ ' $ * & $ & +   * % * @ @ ' # , = = ' * _ ' , # * @ ) ~ ' ] . ' & * < = = ' ) '   ! @ & & * ) ( ) ' ",
"^ ^ ; # ) ) & ! : * * @ ( , 0 .   @ = # # ; * ) # . ) . ' ) ~ ; ; # & # $ ( > _ + = @ @ + a ;   = ) , , ) @   ) ) + * + $ # * = . % & $ * * * & ' ) * & , * = 6 ' + * & # * ) = < @ *   # # # $ _ . . ) . ^ ) ( ' ~ < {   ) @ ) 7 , * ) . ) & * $ # @ * ) @ ) & * a - ( @ = _ = ) ) ' ' # ( @ ) ' @ _ , ' & = * 6 * @ . . @   . . *   ) # & # # * { & #   , , ; * & @ ) * ) .   ) & ! # ' { ! . ) c < ' & ' ' * @ _ < & $ ( * $ + & 6 $ = ) % + ~   ' . + * # = # * * @ ' % * * ' ) # ) 3 . ) ] . { ) ~ ' _ ) @ @   b , * @ , ) ",
"@ _ * ' ' . . ' ) * . ) ) @ 2 c ] ; & ] ; # ! ) # ) . . ' * ' # * . # & = b + a @ $ _ ' % % , & = # . $ = ' @ ; } _ @ * + % $ ' $ % & * . - % . . . # ) ) @ & + + [ & * . ' . # ' @ ; * ) , # ( # ~ @   %   @   . ' { ~ ( c . & > @ @ $ % + # ) =   * & _ ' *   , ( _ % 0 ' = ) : { c ) = * = = ' ) * ) * { ( _ * ) = ) # @ , _ .   * . ) ' ; * @ @ , * # ) . *   . ) ~ ] . ~ # *   ) #   ! . ~ . @ . ' @ # * , _ = ; # # ) $ * #   # = ) , @ # ~     * # & & = _ * * ) , 6 * # # * ) ' ) / / # ~ ' { { ) & < # ( ( @ ' * = @ * ",
"b *       ) ' _ 4 , ) & @ : ' 2 ;   . * # : . # ! < ) * * ^ ) . # ) ' & ( ' @ ( ( = . + + $ @ @ + , _ * & _ *   , ) _ & * # % @ & # $ @ % * * @   & & # * ; = ) = + & & & ) @ ' # ) = ; . ) & + . @ # @ = _ * * @ ) ) . _ ) = . ' , @ * * * # ) * # & * & & *   _ * b @ , ) ' _ ( _ _ ) . _ , _ : ) : _ = ( ( . * $ = #   { ( ' ) ] % * ' ] ~ . * , * ) . & # # { * . ! | ; ! * % % . . ) . # ] _ . ' ' = _ = # @ ' , ' ' @   = @ = * * a # # @ ~   @ ' ; % & ] ) = ' # ' ) @ = @ # & @ . ! ; * & @ ' ) ) ' ' # . _ = # ' * @ ( ",
"~ b   _ ) @ ) ~ ( c = _ : 2 b ) &   ; ] * ] < ) # ) * * ' #   @ ] ) = , _ * * . $ % $ $ _ = ) + $ @ @ & , @ ( - @ = # $ * & + , . . & + % & ; &   . ) # # * & # # + a - $ _ = # = # ) ] # @ ( ' { & ' ^ & _   * ) ~ ) ) { _ ) = ) _ = , @ _ & & , * # b @ ' = @ _ ( @ , _ @ @ ' 0 ) { = = ) _ : _ ) { 0 ) ) * = ' , # , @   ) ) # & .   . ! * ) , * # * ] ) # ] . ) _ ' ) ~ . ^ ) . . _ ) & ) !   ' &   ) { < & ' = * a , # = & = @ * # ) _ ' @ # *   . & ) # ; > = # # # @ = = , @ ' ' ] . 3 * _ @ @ @ # ~ ) ) ' @ @ *   * & _ ",
") 5 # * ~ ) * / * ' { . _ = ) ) * ' # ' = : ' # ) ~ / *   * ' ;   * = ' = = _ @ ) , * % , + % & & & @ $ . $ % @ @ * , _ ) + & @ + = $ % @ $ & # @ . , @ . . # * , + . @ ) ' ) ) ) ' @ # ) # % @   . ) & # > { ) ^ ~ # ) ' ) = ) ) > = $ @ @ # ) ( @ > , = : # . @ * = # , @ { , * . ) ' * * ) ) ) ( @ ) c 7 ) @ _ 0 c @ . c ' * . . * . % )   * ' * { ' # ) ' # ) ' . & 1 ' . . * ) ' . & ; | # 4 @ ) _ @ < # > b * & * @ ) > # * # ) ' a ( ) @ % & ' ^ _ * ' % * , ( $ * * = ) @ _ ) ; ) # ) < # @ * = * ~ = @ # * ' @ _ # @ * ",
"* # & ; ]   * 1 ' @ ) ' # * & , * {   # ) ] < < . ) ] # ) & * . & : = = ) ) ' @ _ @ $ _ * * $   * & _ * * @ # & ( & @ ) % & &   , & , # ) ( , $ . * @ & . # # > * # . # * & ) ) = = ' ) ! # _ * { @ ) * ) @ & , ) _ . ) ' ) ) ) @ * & ) ( ' ) = * # ( _ ) ) ' #   # ) # @ ) & ) ) _ ) c = ( , ' ' . @ ) ' ( ' ' ( ) @ . ) c ' ) * # * . ) ) ~ . # ) . ' < ' ' ~ ) = . * % ) ' @ . # ) # ) . . # ) 7 = , @ & = @ ( ( , = @ , ' , & . * # , ) = * , _ . ) _ ) ' ) , = = ' @ $ * @ ^ ' & * . ~ ] # @ _ # _ ' ) = , * _ * ) @ # * , ",
"& ; % ] . * 1 ~ = _ ) < ' ) # ) & # _ @ * : ! ' . ) ) ! ! ~ .   # ) . < = ) ) { * * @ % & )   ) % - * # , _ , ( @ 4 , = ) @ & * = - % ) + @ . # # = # % = . # # & ) , @ ) ' @ @ & & * # ) ~ @   ) = # # ' . )   # ) ~ { ) . # < @ , ) = _ ' = * ' = * = . ) # # & * * , & = , * ) ' ) ) ' _ > ( _ ) : : ) = < _ # = < = ( c # < . & * ) ~ ' ) _ . . { ) ) ' . ) # &   ! * | ) ~ ) * ' { ' ) ) * , . a = = ' , ) ' = = & = , 6 # = # $ + $ $ * * c = # . ' . * % & @ = ( ) ( ( . * .     * ] ; , * # = = @ @ & * . @ { ' ' * # & ",
"  & * ) * 1 1 ) = ) = @ = ) . # &   + ' ' ' < ' . . ! * . ) ] . ) ) ' = ) { ) @ ) ) ' * # @ @ # - * @ = 8 ( _ $ ' 4 . @ & * + *   * @ & # _ ) @ @ _ # % ) & & ; ) > ;     , _ ' , ; , ; # ) @ & ) < ) < ) # ) ) ) ) ) { @ & . , ) _ ) # ) ' ) ) @ $ = ( ) ' . * . & ; ; =   # # ' { ' _ ) , , * , * @ ' = : # @ = < ) @ _ ' { ~ ] ) ) . ) . ) ~ ) ' . @ ' .   ' * ] # ] # ~ ' { @ *   * ' ) ) ) , @ = @ & & ) _ & *   # , @ * & # * $ # ) = @ _ = ) @ ' ) ' c * @ $ @ = , _ ) *   * , # . ] # ; , , , * # ) , # . @ ' ) , ' # , ",
"; * . = % ) / & ] ] ) : ' * @ * + . * # ) * # ' ) & * . ) ) ; * _ ' = ) _ ' . @ @ ) @ # ' * * ( $ = * *   ) + , @ 0 & * , = * & * * + } ) & * # # ) # # = ) * * * ' # @ , ' @ & & # ' =   ' * ) : = = ) = : = ) ' _ _ { ' * & & * : : = @ = 4 ) ) ' ) ( = & # ' * ) # & ) # * # ' ~ ! ~ . & # * % ; & # & = ) : # ~ ! ) ' ~   * ; 5 ! ~ ] = ' = ) = * ) # * & ; = ) ;   ) ; ) ! * # ) = & ' * # ' * * * % ; # @ & @ + ) ) , ) ' * $   , . {   < # < # # c ) = ) * = = ; * # ) ; . ) * ' ] . ) ; ) ) * ) # $ ' + ) & ' , * ) ) * ",
"* & : ] & * ] * & ) # # ( = & # & & ) # * ' . ' ^ # & * * = & . _ ) _ ' < . # ' ) , { , & @ @ ( . # . & @ ) . = , ( & @ . = + ) # + * % .   = * = * _ _ ; = ) = #   #   ' @ * _ (   _ @ # @ : < < = # ) ) ) c ) . _ ) . ) * ) , # ) ' = 0 = _ @ _ _ 2 ) * # ) & . * = = > ' : = ] ! )   # * * 5 ) ; & * * ) ) ' | ! ! | ! {   9 ) ) ) ] = { = : * # & & @ , ) = * # & * . ! ; ' & * _ & _ , ) ' ) * { _ * $ # $ = . , . . ' ' @ _ $ # _ *   & ) = & & ' = ) { { , & , # * * ~ ) , , # # & * * . ; # / ) _ # $ $ # * # * * ( @ @ ",
"; * * # ; . & ) < < # ) 4 , = ( ) # ;   , , ' ) < ~ * ) # % * @ { * * ' ) ~   # ' ~ ' . ' _ ) ( ) # @ ) ' . & *   ( + _ ; ) & % & } , $ & % = $ # * & = & ; * ; , @ * , _ _ ) ( ' * ) @ . @ ' c ) . & # ) ) . { ' ) { ( ( ) & ) . ' ) $ 7 ' ) > @ 0 ) . # , . . # * * = # ) & * 1 . ) # ] . # * * * # ; * . ) ) . ] ) % ~ { ) ' 3 ] ] # ' @ ' = * # =   > , , * & &   ; ) @ # ) = ) @ { # & # { @ , ' _ * * { & # , ' _ , . . ) @ = # , &   ) ' # @ ' . : { # # # # ;   & #   * & ! * ] ) % %   # = * & , + _ @ _ @ , @ ) ) { b ",
"* # # . % ] ; * , ] ) * ) ) ' ( # & * . , ) # ' { & * _ * . $ = ) ) & ' = # ' ) ) ; @ @ * {   ' . & $ * $ * . = ) _ $ ) # . , %   * % & ) . . # $ ) # * * & 5 * * * . _ ) @ & , ) ) * # @ * @ _ . @ , & _ = ) # ) c | _ . # . ' # = ' ) ) ) = = ) @ ' )   * # ]   # ] 4 @ & , & / ; . ] ) & ; / # , - , % # ! ) 3 1 / ) ! ~ ^ { # ] . . * & ) & & & * $ #     & : * * # # ! ~ ' < _ ' & , $   @ ( # * @ @ . ) . = = = @ .   & . ' : , ) ; ) ] # ) = = ' : # ) * ) [ & & # ; ) ) / ; , # ) % ) % ' # . & = * @ @ ) $ % # . _ _ ) ",
") * * , ) ; = ; ' _ _ ) ) * # * ~ * . ) ' ) # ) ' . @ ' ( ) _ ) . ' ' # ) ! ~ # . # ; # * { ' ) & = @   ( .   & ( , # @ * [ # & @ = = a ) & # ' * + , * & = # % * @ _ ) ' # # , ( = $ * . * & ) ) . & . ) ) . { ) { ) # ' @ , ' # _ , & . { < { ) @ ) = ' . ~ * @ # = ' > _ , = . ; # ) * # ; * ) , # . . 1 ! ] ] , # ) : . = @ # ' * # ! & {     # * $ - * * ; $ % . { ) ~ . ~ ! ' = ) < , & ' ' = * * _ ) ) ' ~ ] ] ; , . ; * < ) # : ' ! ~ ) : # = ) @ @ , * & # ] ] @   * ) * ] # , ! @ ) , ; *   # $ - + # # # % # * ' ' ) ",
"= ] ) ) ) , 5 & ) = ) : _ , 4 # ' & . # 1 ~ ! # ) . = & ( ' . = ; * # < ) { ) .   * * # & * *   # $ _ @ . , _ ) ( $ = $ * * , % % = , + + & % & @ + = # & ) + + * + $ # ' * { # @ ) # , ' & & . ' _ 6 ' ) ) ) _ ' . . ! : ) . .   . @ =   ) ' . ) . < ' ) ) . ) < ) ) ' # = , * & ; * % * ; . * .   * * ) * . # ) ; &   ) # * .   * @   & ) _ , * & * @ * * # = ) '   # ) ! ) ) # = # ) = '   . * * * & @ _ ' { * ) * * * # * 1 ] < ) . * ! # ' = < ' ) @ ) $ = , & = * . .   # = # # ]   # ) % & 6 % & # * = & . * . # & & * . ",
"< : = = ) ) ] * = > & @ * * @ _ ] & *   #     ) ' # ! ' : = ) _ @ # ' ! ' # ) & ] ) ) ] ] # . ' * # @ * ' @ ) & * = & & & ; ] * % ' . @ ) ( % , , * . +   & & % + $ ) ) @ , @ = # # )   ' , * ' ) * @ , @ { < { | < ) ) ) : = , , ,   _ # # ) # ) _     ~ ) . = ) = ] ) . ; @ & ; / = * [ & & & # * ) * # .   . . ) ) & %   * * * * & # ~ & # ) ) # & ; , ; + = % ] @ ( { & * . # < . { '   , * * * * ) ) , @ . < # ) ] ) ; / ; ] ) ) * @   !   ' & @ > * ( $ , * & # = . , & , # . ' # # $ & & , * , & , & # !   # ^   ' ) ' ) ",
"= = # ] ) . | # @ @ @ _ * * ) ' * * . % ! % / ; . ' . # ( ) ' ) *   @ ' ) # ) ; . ) ; # ]   . , ' * * ' $ _ @ = , , = & & # # ) & . # & * . & @ = } * > ) * % * . * . ' @ _ ' @ @ $ # ' * ' @ ) & @ , = ) . '   @ * ) @ . # . . $   . @ = ) { { _ _   #   ] ! ' ) = # = * , *   & , & + * - * * ) # * * . & *   = ) )   , . & + , @ - & . * _   % & . # ; & = * @ & @ ) | ) ) ~ . .   ' . ! ) @ * , ) ~ : _ # ' #   . 5 ; ] 5 1 ]   # ; = . ; ) , , . # _ ) + = # + * , $ @ & # * . # # ; . . & ; ) * #   & = & # * ^ ) * * ^ ) ",
") < ' ~ ) ' = : ) < ' ~ * ! = * & * % _ $ , ~ ; $ = = ' * , * ( ) * : *   ! ) . 0 @ .   _ # '   , . ' & = & = ) . - # ) ' _ $ _ @ _ . % ) % . & # # @ $ + , . % % * * _ _ @ @ _ = # & , * , ) _ )   * & _ ) ( ) * @   * ] )   & . * # # _ ) & ' * # *   , _ * ) . # & *   & * @     % * % & # ; *   & ' , = $ * & & ; &   % # % * * $ * & * @ # , , * $ & .   . * ,   ]   ' ) @ * * # & ' ) ) = ~ | ) .   { ) ) # # # = ) ' , # ! * & ( * * ) %   * # @ & ' ' ' , '   @ $ $ @ * & ! )   % * & # & ] * ~ & # + * * *   # ) & @ . ",
") . . ^ ' ) ) ' ) < ) ,   # # , & # ' ) @ ' . * @ & & & > = * * ' ) e . ) ' ' < 2 ) , )   # & * * # & % & = + + - . - ) _ @ . @ - @ @ } . ( } 8 $ + + * - % - % + @ ' > @ , ' ) ) * & ' & # ' @ ' * # # . ) ' ) * * ; & ] # , ) , ,   ' ) * *   @ . # ) ) ( @ @ ) # * * . @ ~ * + @ & * *   % . ) ~ # * & * @ # * , * & @ * ) ) & * , . , # , @   & * & * *   * . _ _ ) ) ' @ # # * ' % * ) ! ) . ) ~ . _ . ) # ) ) . ' ' : @ ) ) * * @ ) ' * . ) ' @ @ * ; ' ' = $ ) * % # * & ; . ~ # % ]   ; & ;   ) . . ) ' # @ ' ' ' )   @ ",
"*   ' ) ) ~   . ) # : ' ( ' ) @ & ,   *   # # ) * $ $ # = _ , ' ) @ ' @ * , @ @ @ b ( ' $ @ * ) @ @ & & a a $ , * + * ; @ ) { & & % & + a ) + % + . + @ % & ] %   @ ( ( * & # = , , = = * * # ) # ) . < ' ' & * , ~   ) )   *   & # ) ) ) ' & * @   * ) ' & ( ' ) ) ' # ) # * @ * & % * %   . . # ) # * * * & = ! & ) . . # ) ) = & * # * * * * * ( , * * , # , ) * ) = ) ) = ) # = $ & * * * )   ' ) ' '   ' @ # )   ] = ) ' # ) @ < @ , * _ * * # * ' @ . ) * * ' , = + @ #   % ; ; ' % ] & # # ) , . . )   ) _ 4 ( ) * @ # _ ",
"]   | ' ) ~ ) ) , = , , , @ ' # ) = ] * ; ; ) ; # & # = $ @ & * . ' @ _   # ) _   b b b = # ' * ( , + * * @ # + ) ~ & & % + @ $ & . ) + $ * ( . & , & @ # . % ) * # # >   _ _ ' # * ] # * # ' ' ' '   . ~ ' @ # ; # ; < . # , ; = = = # ! ' ~ { . * ' * @ ' ) * . # ) < ) & + , # & &   @ . @ ^ &   & * & _ * = ' * & * & * # #   # * & =   * @ , - * & , & . & * & ) # < # * . # { { . * , ' ) ) # @ ~ ) # , # = ] * ; & * < ) ' ) < { * ) ) # * & @ % * % )   & ) = & = , @ ( ' ) $ 6 # # * , = & ) # & ; * ) @ ( = ' * _ ' , ",
"* ) ) ! # . # ) . @ . % , # # ( ) ; ] #   ) =   ; * # @ @ , * & 6 & _ * # # ; ] , @ ) ' 0 7 > @ * = $ @ ) @ = + % . * % ) % % * & ' ' .   ] ; # = # = @ * * ~   # ; , * # # @ ' ] * # . & * = ) ' * # ) ' ) ) _ # ) ~ ! ] ; * * ' ' ' . ) : # ) ' & $ % @ # )   < ) ' = * & @ # % # & ; * # ' # . ; .   ) * # # . . & * , 5   * , ; * = ) _   * # & # # @ - ( _ # ) = # _ ' = * * * ' . . # @ # ) : : { ~ _ ,   * ) # * , @ . { _ *   @ # ' _   * + . & _ * , ' _ @ ' = ,   { & ' _ & ' = & ' ) ; , & ] * ) ' , ' . $ { @ $ ( = ",
"*   ) # ~ ) ) ( @ * ) ^ , ' _ ) & # , ; ) & ) _ * & , ) > , # ' * ( = ) = * ] ; b _ . ' ) = ( ( = $ $ = & & ) * . * ; ; ^ % [ + & . @ % + # % % $ ) . ) & ) * ' ; ] . ) ) # @ ' # # . ] ) .     # #   * & , * @ *   * ] < ) . ) ' = ) ! < # < , ' & . . $ $ _   # & # # , ,   % & * # # = * ) , # * & = # . * ' <   = & ) . & * # = ' & # . = * @ ( + $ , & & * = ) ) * , ) ' . * * * ~ & ) < . < # ' ' ' { & ' # ( @ & * , * , * ' $ & @ @ ' @ = $ * * $ = _ ' @ $ * @ _ & * @ ' # _ = & : ) = # * = * ) ( ' _ % @ * * ' * = _ ",
"# ; # ) !   , & @ * *   ' #     = & # # # ) _ $ # { % $ = = # * = : '   = @ , ' @ ) = ) ) ) ' 6 ) * = , ; & , ; = # + # # ) # 6 ,   ' # * 8 &   & ; '   # ) ) ~ # ] : _ { ) * @ * ) * .   , * # # # . ' # @ @ * * 1 * % ] ~ . ) = ; # : = & ] *   % * , @ . ( ' )   @ = ' * @ * * 1 # * ) & ' # ) & # = ) * & & ; / # * * ) ; . = : ) ) ) * $ * , * ( * * ( _   # < )   ) = = & # & _ ) < . ' ' ) ' . & @ @ { & * & $ * # # * ' @ $ * & * ' & @ @ # & . @ _ ( > # @ _ ) ( * _ $ ) . ' $ * * @ # ' $ # = _ ) = @ .   , @ ' ( = = ",
"# * * ) ) # ) < { ' ' . & ; ; @ + : & % & * ' ( $ # # * ' # , , , 6 & ) .   # : ) = = : ) _ # ' @ # * % = . & ' . & , & ] > & * #   & ] ) ; ) * ] ]   ' . | ) ' ) ) ' ' < # ' ' ) .   # ) * & * . . ) # ) # . @ # # * ) # * ) ) * ) ) ) < , * ' ; ' # * _ @ ' # ' < . ' & & . , ; * *   & & ' & ) = ' ] = : * * % 5 . = ) # # ; ) ) @ ) ' ( ( @ @ _ ( * & * & ) , * * # # # ) ! ) ; ' ) # '   ' * @ . * _ . * @ _ & ' # , * + # . $ * $ & . ' & ) # & @ + ( * # _ ' ) ) ( _ # # @ & , # * # @ # ) & 4 # ( ( * # @ * 0 $ ) * ) , ",
". & ) @ ] # # ) ) ) . < ~ ' ~ ; ] ) % * ) % % ] & , % _ = ) @ @ @ @ * * , ) ' ~ ) { # < . ) '     & _ & + & ) % . @ $ @ * ) ) . $ @ @ _ @ ) _ 6 ' _ ) ) < &       & ' ' #   # * = & , & @ & # ' & . & } % & & . # ) ; * ; ! . # )     , < ' , * # . * & $ , _ & { ) ) ' # & &   % & ) $ % & ) { { _ & * * ' & ) *   ; #   & ) # ' ' @ ' ) # # ) , @ * =   * ) ' ) ' ) # 1 ] ~ ' @ ' ) ' # ) : @   ' )   ' _ # # . @ # & , , @ @ ) + & $ - * _ . ' ; & ; _ & # & @ = @ ( ( ) = $ @ * * & *   * , * = ' ) ) # # ) @ . , _ & ' * % ",
"# ; . % * ) ' ' ) ] ) ~ ) . * * , . 3 ) # @ = * % # & ] ) ,   * ' _ $ ) @ ) ' ) ) ) ^ ) ' _ b , # $ % + * * # ) % *   # ( ) * # % , * ) ) ( & * @ | ' . ' . # & @ . . * & * @ . ) & # . . * * ' = = & & * + & , ' & '   ' ~ @ ' * ) . . ) ) & ~ $ ' @ = , ' _ { ' ' ) c ) * @ @ % ) . * # * @ ' : '   * ' _ * & * .   * * * * < ' #   ~ ) = . $ & @ & * ) = . _ # & # ] ] # ' & ' ) # < = ) ' _ # ; ' # & ) ) * . & # # $ @ @ + % - _ _ @ % % * ) #   ) & # = @ = + = ( ) _ ) ) ) , ) ~ # &   @ # ) ' @ #   { @ # ) , $ % & & . ",
"*   ) ; @ * @ ) * # * = * * . ] . % # . .   # ^ & + . % ~ ~ & &   . @ * & * , ' ' < ' ) ' _ @ . ) + * % * #   ) ) & , # _ @ _ . # , ' & @ 0 ' ) ) ) ) * * . ) ' * ) * @   , 6 # *   , & ' & . . ) * & [ [ # # #   ~ ; # ' . ) ) % ' # ' ! # ) # ) & * @ ' ' ' < ' ' ' . ) & * *   ) * # , %   ] ) * ) _ . _ _ ) ) # ~ . ) ! ) | * * * ) ) ) ) , * ) = = = ) '   '   ] ; &   ] . ) @ , . < ' & ' * ] & *   # = *   % & + $ $ % ( ( _ _ ) * % @ * ' & # # @ * $ #   # > ' = . ~ . ' @ % ) ^ ( . _ $ + ' ) # _ ) % * % * + % _ ) b ",
"&   ' %   . $ . ) * '   # # * / ) . * ; %   & ,   ; ] '   ' ) * % ) , ) ' & * & )   % ( : _ @ & # ~ ( , , _   ) @ ) & * - . $ # + @ # ) ' ( 4 : ) ) # # . ' * * @ * ) @ _ * $ = % % = $ * * + # ) [ # % ; * , # ^ ! & ' ) ) . * ' @ | < # # ] ) @ * # # * ) @ # _ ^ , '   @   ( *   . * . &   # ) * ) = ) ) # ) ) ) ! | # ) ! ) ^ ) . * @ ) ) ] | ) ' ! ] = @ , # '   * . * ) ) _ ) ) ) ) * , , & + ) # , ) & * & % * & + _ = @ @ * b ) @ $ $ - # ] ; * ) _ ' # ' = & = _ . '   @ ' & & ' ~ +   % ) , @ + ' @ * $ * % # * $ ) ' ",
"+ % ; & * . &   + * = @ ) * @ ) . & & * & ) & & % ' ~ & )   # ; @ . @ @ ) ' * #     #   , ) ) & & , # + . & * % [ # @ . & * # ; b ) ' ) 7 ' 0 ' . _ & . # _ @ @ @ { ' & _ = $ 6 $ # # $ . % + & ) )   % % * ] * < ! ~ . < ' ! & # ' . . # ) ) ) ) * @ _ ) ) ) { ^ @ * ' ~ * * # ! . # # . # , ' . # { ' ) ] ; ] ] ] ] . . . ] # ^ ' ^ * ) ; # ) & *   ) , # # # , ) .   ;   # # * ' ) * ) , # _ & & & = # @ & * . ) # % $ + = ' @   . * @ $ & _ * ! * @ ) ' _ _ = @ > # ' # & @ ' @ @ .   * , @ - + % _ . _ ) @ ) ) & )   + . * ",
"# # ) ; % + % ) $ + * @ ) @ = * & & ; , & & . &   { { * . @ . ! # ) # ) ) @ # '   , # @ & & * # . . a * . * ,   = a * & [ . . # ' @ ' : c ) _ ' _ c ' . < { . * * * # * = _ _ *   % ) * , + + % + + ) # . * * ) ! ] ' ~ ) # ' # # ] & ) = )   ) @ ' * # ' ) _ ' ( ( ' ' . # ) # . ) ! ) ) # & # ) ) ~ ) ) ' ] | , , # ] &   & # ~ % ^ % ) . ) % . * # , ; ; & # %   ) @ ; ;   , , .   % {   , # * $ + + > _ * $ + ) ; . % = ) , ) . @ ^ , @ # & ) _ @ ) * * ) & ) = $ ) # *   # , @ $ * * * * + ^ * - * ' # # ' + & @ ) @ % & @ ",
"  % ] ) * &   ; @ = . # $ @ @ $ & *   = * % 8 #   # * @ '     # & & @ ) ~ # + * = ' ) + _ . # +   # # ) = . * ; = a * > ; & ; . _ * ) c # # 0 ) ) | ) @ = { * @ # $ @ # # @ # # $ * &   @ + $ % + . & ) . # ] & ~ . ) * & . * ' ) ) * ) = ) = )   * _ b ) ) . : ) ) = _ ) ' ' 9 ! ] ] # , ) ' < . . < . ) < < # ) / ; / ; ; . . % * % ^ ' ; ) # # . & @ [ & ) $ . @ * ' ; # @ # #   ; ' ' & . , % * . . @ 6 $ # % ; * #   ) . _ * ) @ @   * * ) & * * ) , & * # $ ' = @   ' @ ) = # = # = } % , .   ) % & % ; % . ~ #   # & * ) ",
"[ 3 % - * * * # _ = @ .   $ ) & [ * ] * ) % * % @ @ ' @ . ^ * ) + @ % ' , = # & # ) &   , $ % ' ; ,   ; # *   + ; + * * * 6 + a ) @ ) ' ' = . _ ) . ) @ : '     @ ' % ) & = # & # = * } + # @ % & = & & = # # ) ' * * .   ' < ) # # @ ' ' ! ) * ' @ * @ * b , @ _ ) ) ' ) . { ' ' ) | ! # < # < . ' ' ) # ] ) ) ; * * *   * ) . %   ^ * , + ' ; . . & % % & , = % ' @ @ + % % * *   ^ ) @ ' # , = $ . . @ _ _ = , ; #     & * , & % - ) % + , @ & * #     * # @ * $ = @ # # . ^ & = = , # + & ) ' ' _ % * ) @ ) . ) @ @ ~ . # ) ",
", . & & & @ @ ' '   & = @   @ & +   &   & . ) , .   @ ) . % $ & 6 = * @ & @ * ) * = # & ~ ~ * ! ; * ) ) # = & + a # ) + & + [ =   _ ' ) , ) ; . ) ]   < ) ) )   $ % _ & + * # # ) 6 * * , = , & $ $ & + &   ) ) ) ' &   ' ) ' ) @ ) ) < ' & * * & ; ; * ; % & # ) c . ) ' _ { ) # ) ) ) @ ) ' . ) ) ) . ) .   ] & ) @ @ ) . . & * * # & & ) , * ) ( + ( = , ' = = ) * . & ) - # _ _ * ' , * * =   ) # ) * ) % ' # & # @ , = @ _ # @ ) * * ,   @ & # & @ + % ) % + . ) _ ' @ ( = _ _ $ # . , + @ .   ) . . ; ) * ' ) & @ +   .   ",
"& & & & = ; @ , $ # ) ) @ & * $ a & + & . & + # & * # # # & ) ~ * a $ ' * # & & # = # * % * * ! ; , 1 % & & a ; * & ; ; & % [ & & @ ) ' , ) ) # ] ; ; ) ) ] ) @ ) * # ) ' # & ' # *   & & ; = ; @ # _ + * , ; < ) @ . ' ' ) = ) * * &   ; #     ; ' # & ; & # # _ c ' ' | = . ) ) . ' ' ~ ' ) # ) ) * ) ] * * . # #   # * @ *   % ^ ;   % . # * & ) . $ _ @ , = & ) & & ' * + % ( ) @ 6 # = , _ ] @ # # ) * . & . # & _ _ = @ = @ = + @ @ 6 $ ' , @ ) . = & . * 0 ' @ @ # & @ @ $ > & $ % + ) % # + f . % ) * &   = ' ' $ # & $ ",
"& + [ ; = , # = * ) ( _ ; & . % & & )   & % $ % , ) * # % % * % a * + = & # ) + ; ) * # ] ; & # ; ; &   = & = & , . & ; . % * % % . % @ = ] ) = . ) / . < # # * & # , * * ) * % # + > + # + + @ . $ % $ & & # ) & ' * ]     '   . & * # * * * * * ] * . ; . ' * . c _ { . . & &   ) ' ) { ) _ ) ) ~   * ) : = ; ( # # # _ . % & % * % & ) + # + &   & * * = $ @ ) . . & ( & $ % ( * ' _ ' $ @ # & * @ * * % ) & ( ) _ $ + + @ ' 4 $ = # = , & @ ' ) , # ; ; @ , _ # . ) # , , = . * # * ) _ ) , % + ) .   . ; & & ' ) '   @ * $ ",
"+ ; . & * ) * * ) & *   * , # ; ) * ,   + - # $ ) * $ +   % * & + $ - * ) $ & % = [ * %   # ; , 1 * ; * * & + # + & & % / ; * . . _ ( *   ) ; # ] & & 3 . # @ )   * ) ] = ; * ) $ & & , $ # # + % % * #   , = ) # ,   * ; * @     ' ) , ) , # $ )   ) ; * ; ) ) @ * _ ) ) # . _ . ) ~ ) . . ' = ; ) # * # & * * & * * , ' ) @ ) % . % * ) ) * % * ) % = , & . _ * # = & % , _ ) * _ @ ' * + # * & ) # , ] & = * _ & @ ) _ > > = @ $ = % + & & ' . , * ' &   . # , ) ) & , _ ( ( &   , % & & + * ; * ] . [ . ~ ) # * @ * * = . & ",
"a # ; # ) & & # ) ~ ] # , @ ; ; * . % , ( , ' * a # ; #   = # - & ; [ @ ] = & . ] & , & , * [ ) . ; ; # * % . = % ; = & - & ) ; & . & % . ) = ' & ) ~ ] ) # ) < ] * # ' * + & * # = ) & = @ ' # # , & * ) * )   * & *   ) * _ ) # % ' * # ' + . . . & # , * & & _ * & = . # # ) { ' ' # { * @ . ( ) # # # @ # @ @ & * . # ' = @ * ] ' . * * ) # + ) $ , ) # _ & . # ) '   & & ) @ { ' . # @ * * ) . ' * * # & # *   ) * 6 + , & # . ( & > $ @ @ * @ @ .   * ) ! * @ _ { _ , # # # * = $ @ % * %   % % - * , , *   ' *   ) @   ' ",
"& * ; ) $ * # @   ) ; ; . & * ; ) ) & ~ ( * , % @ + & & . * , & & [ & & # ] ; g h i + & % , # * # * ; # , % % & = [ ; ;   &   & % ~ * 8 = * ) = . ) ! . ) ]     , ] * ) . ) , _ # = ' _ & ' @ _ # . $ & # @ * ' @ ) = * = ( # ) @ ' ' ' ' _ * @ . * , # , ; , & & @ & ) ' ' { . . . @ ) ' ~ ( . & ) ' ) ) ' @ # * * * ' ) & * ) ] ; * ;   ) ; . . $ $ . # @ * * * '   ) * = , * * ' ' .   & _ @ ~ ! # #   ; * * # # ' * , * , * @ * * _ , ( = @ @   ' * & # ) ~ ( ' . ) ' @ @   * % @ & + * ( * % / & & % ) % # * {     @ ) * , ",
"& & + # ) . ) # { % # ; @ * # ,   . . ' & $ $ @ & $ %   & =   , # . & & , ; = j k l m a #   & # ) * ] ) # & * ; ; * # - ; ; ; . @ $ # $ # & # * . ) * ]   ] ) & & & # % $ & * * >       * * , # ) @ # # * @ )   . , ( . * * ' ! * ' ) & ) , @ , ) # & = / * * & ) @ . * ) # ) _ ) @ ) , = ) . & = ' . ' ' _ ' = * & ) * ) ' *   @ ) ; ]   ;   + @ > = , , ( &   *   ' _ & ) , ] * , & _ . # { . { { . ' ) ) * , # , { * ' & & . * # % + @ ( # # @ ; * * * * # & ) { { * _ ' * . ; % * * ^ % # & % } # - % * % % ) ' _ ) ' ) _ # ",
") & * # * ^   # @ #   # #   * = ' . ) @ @ * = @ & & # * ; .   ) )   [ & [ = > n o p q r ; , ; # ) ] = ] # # , ; ) & , # , # @ + & @ ) _ * $ # . / # # %   ] * ; . & > * 0 ' @ @ ' _   ' * ( ) ) . . _ % $ ) ) ) ) * _ @ ) * &   _ * _ * , ) . $ * % ) = = = # # @ # * ( { ' ' | ' ) _ # & & ) & , ) & * # = ) ) ) # ) # & * ' ) @ ) ) * ' & # ' ( * $ = $ + = @   * . . ' ] # # ) ' @ ( . ' ' { ' ! ' . 6 ) # ) * # = ' # * ' @ = =   $ ' ( * *   # . , # ; # = ) ( @ , & @ , . & ' # ) . , & & [ % % &   & * % * ^ ^ _ % ^ & ' ",
"* = * $ , . * @ @ = @ ) @   _ ) % .   = . * ;   &   [ & , * ; ' ; [ [ [ , = ; s m t u v 9 5 # & ) { ' * ; # # = _ * # . ) ) # & ) & $ & # * _ @ # . % ' . , * @ &   * # = = _ ) ) @ = * * @ @ ) ) * $ ; ) & ]   # ] @ * * & & @ # , * ) *   * * * # ; ; & . *   ) # ' ( , ' ~ ) . . ' . * % ) @ , & * $ & . ) = ) : , @ @ * = * , * , # * '   @ ) + ( > @ _ ) $ . * ) . ] ] . ; ] ; . ; @ ' { ' | . . = = '   < # | ] ; * ] 1 ) & ' .   # * & ) '   ' ) '   # . ) * @ @ _ * ) @ & & = .     ) & * ; ) # % % [ & # ; / . / # # * ",
") & # ' . @ @   @ * @ * * @ $ ) , , ) ) ) ) .   - [ * & & + = = & . * [ [ ,   , w x y z A . # % * ) ' # * * = ] ) * . # . & &   @ ( . * , + # #   ) & & * ' * ' & ) $ & * @ & * { { ' ' ) ,   b @ ) % ) 1 ) & ; * & * ] ~ ) ~   * ' ; { # & ] . * [ ; . [ * ;   = _ ( @ ) ) ) ) # ] . * ) * * * # # # , * ) { = # = = , * @ ) @ , * # ] & ' * = ) & $ ( , + $ + ] ; , ) < ] ! * * . * ! * ) ' . ' # ' < ) & & ' ] ] . ) ! # * ;   *   / , , ~ ) ! ) # : ) ) ) | { # . * # , % @ * ) ) $ ' _ * @ [ = ) ; % f & % * ] 1 * * ] & . ",
"# $ # # % ( (   * ' 4 ) * ) & , ) @ ] ; ) # & & * % , [ # ) , & % + & &   # , , # B C D E * / )   & = ' ] 4 ; ) @ = & , + @ & ~ ( *   . * _ & ' ! # ; & ) ) * + * * # $ % $ * @ , # . < ) ' ' * _ @ @ $ # ~ ) ] ~ # * * # ' # )   . ) ) ! = # @ & = & * * & ; * = ) * _ * @ ) * # # # ' @ . . # * ; ; = & = # = ' : @ , & '   & ; , # , ! # * % % = + * ) % $ @ 4 * # . ] ; , ! ' . # * ! # ) ) ~ . _   ]   & * ) . , . ] = ] ;   * ] * # # 1 . . ) ' @ ; ~ ] ' *   * # ) ) & @   & ( ( & @ '   ; ; + ; * % * ; . 3 / !   # 5 # ",
"@ , % % . ) * ) ' # < = ' > @ * ) ! . & * = , =   . * % @ = , +   + ; ) & & # # = F G H I J % ; @ # ) * , > , + * )   ' # ' & % ' $ & ( * ' # * # . ] * # . $ * $ * # $ $ # ' . { ' = # { = ' , _ ) = . ~ ; ) # ! ) ) ; | ) ' !   ! ) . # , # ) ) = ; & & & ) . * _ , > _ @ ' * ' * ' ! ' . ) & )   & & . = ' # ( ' . ' * @ ' * < ' < # # # & ) = # = # * , = ' ] ] ] ] * ] *   { & ' ! ) _ ) # ' @ _ ) 6 ) ) =   ~ ; ) . # = ) ] ) ' # & # ! ) < { { ) . ' : ) & * , & # ) # ' , & * ) # # * . ) % . ; # ; ~ & 1 ) ; ) * # . ; ",
"* ) + $ # * & # # ) ' ) 4 @ 6 = & { ' ) # . 8 # & & . % & + _ @ . ] } ) % * . ) = ; B K L M N # { _ ' * { = @ ; # # * * . ) # ~ ) # . ' , @ ' * = . ,   ' a * _ * % @ . $ ) # @ = * ' , & # < ' @ ' @   ) ) ( ' & ; * 1 ' ~ < # # ] ! ) ' & ; # = & = ) . * ; # $ * ) # @ * ) ) ) ) 1 * ' ! ' ) ' & * , = ( = = @ ' , _ @ * & * = ! @ )   .   = # ' @ # ' . ' * & # , / ; * , { ) ' . ) ' ~ ) . = _ @ 4 ) # = ' _   * ' * = ' ) # . ] ) ) . . ) : . ' ' _ ) * ) <   @ *   # ) ' ' ' . # ) * = * ) 3 % 5 % # ] 1 / ) ) # ] ) * * ",
"* = } & ' & , ' < = : ) = ) ( , # ! & * @   % + * & + ) a + @ , * . & % % ; ] . = * s G O P Q * * ) . & * # _ 6 , # & = ) ' ) ) # *   ' = ) & ) . , & & = * * a & @ & ' & # ' , @ : $ _ ) . = = _ b @ @ ' ) ) * # # * ] ) ~ . ) ] ; & , & *     ] # , ;   ~ & # = # = @ , _ , @ # ~ ) *   ! . ' ) = &   * @ : ) * _ . ) ) # @ < # ; ) @ * { @ ' @ ) * ' , ' * * * * /   ;   ) = ' ) ) ) ~ ) ' ' ) ) ' = = ) @ @   # . # # & ) ) < ; # ; ] ) & ~ ] # = ) ' @ ~ @ ' ) @ '   ] ) ' @ @ @ )   ) ) * & ) # # ) 6 / # / * ! ; # , # ; ",
"# & . a # ' _ ' ) ) 0 ) * * ' # @ ' ) *   ' ) ) @ > + , * , = = . * ~ + * # ) ) = ; = R S T U 2   ) @ ! @ ) # # # + * = # ' ] # * * ;   ) ' # # . ) ~ )   @ _ = . . ' _ ' # # ) = ( = = ) = ' = ) ) * ' ) ~ ' * ) ! # ! % ~ ' ) * # , # ) & ]   ; 1 ; ) ) % + % > = @ ) ' { ) * ; # ' ) . & % ' { ) # # # ) = # ' ' ( _ ) ' ) < ' ' { ~ ) # *   ) ) % ) # & * ; 1 * * ; # ) ) ' ' . ! ) @ . # . = ) # : = ' . * _ . & , & ) = ) # . = ; , ) & ) = ] . ) . ) ( ) ~ * * &   ) ~ ' #   # & . # # ) . / % % , . # 3 # ) % & # ; , V ",
"# # * $ ~ . * ' ) . c _ # # * _   # * # @ ) @ = , + & @ ) ; * * ; [ * % % ) ;   # , = d W D X Y , _ ~ ' , # & = + + + + # ; ; ] ] * @ , = *   & $ ' # = = = # = & # ) , *   ' { ( & ) ) ) # = ' @ ~ .   _ ' { { ! 1 . < ] ' ~ ) ) ' ' ' ) * ; # 1 ; ) ; * # # * = ' 4 ) ' @ : * ) * . & ' ~ ~ ~ = ) = _ ) ) . . ) b ' ' = . # < ' @ # ' _   & , ( ' . @ @ * , # ) ] / *   * = ] ~ { | @ * _ ( ) ) ' ) ) ) < 4 # ^ ) & # , _ 4 = < ) # . ) & . ) ; = = . ) _ ' ) ) ) ' @   ! ] ) ) < ' ) . . ' ) # * / ) 6 . / ) ) # 5 * ; ; ] % ",
"_ * # * # * * @ ) # ] # ; # , ' &   # * ) = ) # * & ; * ) ) @ @ * . & % # ; ; & _ _ * = Z `  ...+.# | ) ' ) ' * % $ - % )   & * ) ' _ # . @ _   $ & & _ # ) _ @ # . . . !   . ' > , @ ' ' ( @ ( @ = ' ) @ = , ) = # # < . ' ! ' ) . ~ ' * * @ ' ) / . = * < ] # ) # #   1 ) ] * # * ~ ; | # _ ' ' ) { # ' ) . * _ ' ) ' ) , # # . ' ) ' ) ' { ' , $ & ) # = # $ * . : ) ) ) * < * : _ . & & * . ( , : ) * ' { * # , ) _ * = < ' )   _ @ = = * ( @ ) ' ' ) ) { < . { ' & ' @ _ . < ) . _ . # ! ' )   & * # * % * ] # ) # ; # ; ] ",
"# # @ ) & @ ) ' 5 * ; ) # ; _ & ) * # ~ ) ) ) ) #   ; * + # = # + & , & * . . ; * > @ * @.#.$.%.&.*.! ) ) _ ' _ * + % ~ % & # * ) . { # . @ * # @ @ $ * # # { _ , { . * # _ ~ ! ) 7 ) _ @ ( b ' . _ ) _ = # @ ) # @ ' # < ) ) ' . ) ) ' ' & * * / ; ] ] ) ) ! ; ) * , = ~ ' . ; * * ) ) ) ) ) # ) ' ) # = ) # ' ) ) @ = . @ @ ' . . ) _ | . _ . $ = > @ ' $ ) = ; * = #   * ; ) ; & * 6     & @ & ' ) { ) ) * & & = . * 4 4 = ) ! ) , ) * ( ) @ @ ) . ) = ' ' c # ) ' ( * . ) ) ! ' ) # ) # _ ) ) * ) . * * * ^ ) . . & = . ; * ",
") & * ] & * ( ( & ) ; # ) ; & @ &   * * , # * * # = a [ & . $ - & & % . * [ # ) , , ) _ ( =.-.;.>.,.' ) . . ~ * , * & *   . ) *   : ' #   _ , # , ) = ' . ) ) ) { ) * ) ' ) | ) ' c 0 . = . ) ' 0 . @ @ ) ) ) { . { ) . < < . # . . ) ) ' # ) ' *   & ] ) ' )   ' . & ' ) ~ ! # & * ] # ' '   @ _ ) @ ) ' ' ) # '   ' '.).!.~.) . ! c ' ) ) . ( & = _ $ = * * 7 @ # = @ ] ; ] ] @ = * & * { * ) ) ) { . ' % ( *   ; * *   # : . ! . { . ' ) ' . * ) ) _ ) # # * ' { ) '   @ * * & ' ! ! ) { . . . ] . ~ ! @ * * # ; ~ & = . ] * ",
", ' . ; ) , ( @ * ; * , # * @ # ] & ~ * ^ ) _ ( ; ; , * ) ) & } , [ + + - + + & ' . _ & @ _ {.].^./.(._ ' ) ' . @ # # ) @ * & ) ! ' ) < ' ' ' + = @ ( ( # ) = ' ' * @ ) ~ ) . ' @ 0 ) _ = ) . ' ) ) = ' # _ = ) ) _ )   @ ' @ * @ _ ) ) ) & * * * & & =   # # ; $ & ] # ) # . # ) # *   ' # { & = _ 0 = ; # ! ' ) ^ _ _.:.<.[.< < { ) ' ' = @ ' = _ @ @ ( =   $ * ' ' ) ' < : & ' & @ & @ = =   ' ' ' ) ! , _ ) *   )   # = * ) ~ ) ) ' :     ) # ) ) = < ) 4 _ _ < ( * ' . % ' . # < ] ) )   ' | . ' . ) ' ' ) / ) # ; ) ; & ) ",
"* ~   ^ * * & ' = ; ;   . ' ) ' ] ] 4 ' & & # & ) @ . % ' # . @ ) * . ) = # @ % $ * @ % $ ) ( }.|.1.2.3.^ ) . * * ] ; & . $ @ , * ' : ) ) * ' * * & @ ( ) { ' ' *   ) < ; # %   ^ & . & _ { # ) & ) = @ = @ * , @ & . = ' = ) ) . _ ) : { . @ ( # & . # ; , * ) ) @ * & ' . # ; ) .   ) { ) { . _ = & 7 ' ' ( ) ' * A 4.5.6.7.* ( = ' ) ) @ # @ * @ * @ @ @ 4 _ _ ) ) ' ) ) ) * ' # = & ) & ( $ . _ ' = = , , @     ' % . # @ # . ' )   ~ ! # ' < # = . ) ( ' ) ) @ ; , ' ' % ' ) . = ! ) / * / . = # ; ] ' # . ~ ' # ^ ; # ) * ",
"= ) ' ) ) * ' * * ; & , * ) # ) = = ' & ' ] . ) _ @ @ * & { @ ) * # % ] # @ * . * , # $ , = = 8.t 9.0.a.  | . ^ & ) ) # & + * _ @ . ) = . ) ' *   # _ # * # @ ) ' # ' # .   * ) ~   ) , = # ) ) ) # ) . = ) ) ' ( _ =     ) * ' # . @ # { ) . ' . # , , ) 5 * # * ) # ' # ! ) ; ' # ! ~ # ) ) ' = _ 4 ) = ' * { ^ b.c.d.e.f.g.@ . # ' : . . ' @ @ ' , ) ( ( ( 6 @ c ' @ { ) @ ) ) = @ ) _ & @ ' ^ ' = @ * * - = # ,   ! _ @ _ # ~ ) ~ )   # ' @ ) : = ' ) _ # ' ) ' ) * ' # $ #   # = ) ] * . / * ) : ) ) ! ) ) @ # ) ' ) &   ! ",
"& * * # ' ) ' _ * ; ' # # ' * #   * ) * % ; _   ) ) . ' ' * * ) '   * @ & #   ,   @ = + _ ( % * h.i.j.k.l.) ' . + ; * $ * & & & * = ) # ' ' # # * @ * ) ) ' ' < ) ' ) _ ^ * # & . * .   _ ) ) = < * ' # ) 7 ' _ @ ) : @ * @ * * { . & ~ ~ ) _ @ ] , . ] 5 & ) , ' * # ' | . * # . ; % ' '   * ) ) * * : ) @ @ _ # m.n.o.p.q.) = 7 0 ( ' ' ) @ * ) ' _ 6 $ 4 > ( * : ' ' ) _ , . @ , * = = & # # ' ) ~ . & ) . * . < ) ' # ' * % 1 ' ' ' ! @ & = = ) . ' ) 6 ) ' . ' = = ) % )   ]   ] . ! ! # . 3 ! < ) # . ~ ! ' ~ . ) ) ) ) ] ",
") ) ) . ' '   ) . , ) ] . + = & # ) ) ) * ) * @ ; ) ~ .   ' ' _ ) ~ ^ & * ' ' ' ) ; = ) (   , @ r.s.t.u.v.w.* . ) & # * & ; > & , # ) ' # ) ' _ * { . ) ) ' . < _ ) ' . * ) * * & . * & ) ' = _ { @ * , _ . = 0 ' c ' & { : . ) ) # _ ' * . ) ' . ~ # ) / , ) * ) * _ ) ] ~ # . * * * * 9 ^ # ^ & ) _ = _ ' , # 8.x.y.z.A.' * ) * _ @ = . ) c ' _ * ( ) $ @ = = ) = = = # ' @ = _ ( @ & & = _ # . . ) ) & #   @ ! ! ! # * @ * ^ ! . ' | ~ { # @ @ _ ) < = _ = = ) * = # + * # ) / ; ; 9 * *   # 3 ) ) ) . . . ~ ' ~ ! ! ~ ) ) # ",
"( * , , ) ) # * ) =   * $ . ) % # .     # ) { . ) _ . . # # ) ~ < ] < < , @ ) ' , $ _ = $ _   # _ ^ l.v.B.C.D.% % [ ) & # + * = # ' * ) * ) ) ) # @ @ @ # ) @ = ] ) ] ! ' ' @ ( @ * > * ) = @ ) @ ) . * * ! ] ] ) ! ) ) # ) ) ' { # ' * * ; ] ) . ) ) ) , ; ; ; ' ' ) ) . # . ! @ * * . ) ) ' * @ ) ' ' ) !   ] E.F.G.H.I.' | # )   = # ) = ) _ @ + % # @ ) # = # ' = . ) ) ) # ' = ' . @ ) ' # ) _ : ) ) = * , * = ) , @ # * . _ _ ( @ _ ) @ ( = @ & * ) | { | ' @   # @ @ , @ 6 ) $ _ * @ # ' ) ' ' . ) ) ( ) . = = ' _ _ ) * ",
"  = = _ { . * # ) . ) @ * ,   . $ @ * { * @ ' . ~ # # * & ~ ' ~ ) . # : ) = * = '   @ & $ @ ) ' ' @ . l.J.K.L.M.+ * # + + * # = ) @ @ ) # = ' ! ) < # , = ) = 4 ; ! ~ ~ # % = : = 0 ) * _ _ 4 ) _ , ] . # ) ; < ) < = ) # # # # # #   . # . * * . . . ' ] & ) ;   ' ' { . ' ] ) & # * ) ~ ' { ) ' * & { ;       N.O.P.Q.* . ' ' ) * # ( @ _ : _ * * & , , _ . : ) = _ ) # _ ) ) # ' # . # ) ' ) ) ) ' @ = . * & # ; ) _ * = # @ _ (   ' : , ) ) # # @ * * ~ ' |   ) & .   * & # # = ) ) ' ) ' ) . _ @ , # ) . _ { _ @ # @ = ' = ",
"# , # = @ ' # # @ # , .   ) ) # , ) = = , ' ) ) , > ) @ _ . { . = = ) # { _ @ c , @ ) * , , @ : ' %   * R.S.i.T., # & & $ . ' @ ) . ' @ ) ' = & @ . _ ) = ' @ ' ) ) # ) = # @ :   ' @ ) ) ' 4 > , < ) ' . / * , * . * # = & * ) ) # , ) ) = , ; ) ) ~ ' : = = =   # _ * ) ! # ' _ _ @ : ) # ' _ ) {   ) ) ) * ' U.V.W.X.    ~ # { ' # ) ) ) c * * # * ] @ 6 _ ) = ) ' ) ) @ ) ) # ) _ ' ' , * ) ' _ ) = &   ' : @ * # ' # ' ) & @ _ { ) # ' ( ) , ) # * ) ~ . ! & % = # ) ' ' @ , = ' . '   ' #   ) ) ) . _ ) _ : _ ) _ : @ ' 6 ",
"* * $ & . ) ' @ # ' & , * ' ! ] ) ) ) ) ) _ _ & _ = _ ( ~ ^ * ^ ) # = < ~ ) 0 ) * * ' * _ ' ' _ * * ~ ) Y.Z.`. +' . % * = @ _ , # # . . = @ ) ' { _ ' = = ) = ) < ) * . ) = ) ' _   ) 0 ' : * & ) # ' = * ; ;   ) . . / * , &     . & _ . # # )   . . ) ) = * ) ] . ' ) <   # ~ ' ' ) ) # @ { @ @ _ . ) . . ~ = .+++@+#+= )   ' ) ' * # ) 4 ) , = ~ ) ) : = = = > ) ) = ' # * ~ . ' ) : . # . ' @ ) . , ( ' . # & # # = ) ) ~ ) = ) ) @ ) ' $ *   ) : # ' # ) _ . ) . ; _ & @ ) # ) # ' ' ' &   ' . = ) # # @ . @ ' ) ' ( * , = ",
"& @ * & . & * * # ) ) ) . ' ) . = : ) ' , # = ; ) ( b = , ) * ' ' ) ) 0 ' = c ' ) , )   ) @ . @     # @ *.$+%+&+*+' * * '   ' ' * ' ! . = ' ) ' & * , = & = = ) ) & # ) = ) ) ] ' = ) = @ : 4 = @ @ ) (     )   # = # ^   @ & @ . & & & / ) ) #   * * ; & # # ] { = # { . ' . ' @ ) ) # # ' ) * _ @   ) ! @ , =+-+;+>+r ) . ; ) ) . ) ' . ' . ) ' & @ @ @ * ' ( * ) ] ]   * ^ # ) = ) )   ) ' @ ' ) # = ' _ # = ' ) ) ' _ ) ) @ ) , ' ' ) ( * _ , # ) . ) . & , , . * # ) @ ) @ # ) ~ ~ # ,   . ! ) < . ) @ ) ) _ = : _ ) = > 6 ",
"* . #   * ' ' ; ' # # < . # < # ) : : , ; = * = ( _ . 0 ' . * { # = @ ) 7 ) @ = = #   # @ * * @ ^ ' ' ) ! ,+'+)+!+) _ . & = ) @ { ! & * = . ; ) { & * _ = = : = # ! ) ) = ] # . ' ) # = ' ) = _ ) < . ) , #   * @ @ * & * & + *   # = @ ) & ; ; , & . ) * # * / _ @ ) ' ~ * # ) = = _ ) ) # ] ) { ~   . { ) ' ~+Z.{+]+) ] # # ) ) { % . # ) , . ' ! & ) ) & = = #   ) # * & ~ * & = = ) @ @ ) ) ~ . . ) # ) { _ ) ' ! ' ~ ) ) ' ) @ ' _ ( ^ @ = # = ! ) # ) . _ @ & @ @ * ' _ ) _ ' ' ) ' : # # ' # . * _ ' ) * @ @ ' ( 7 * _ , ",
"# _ * & . = ) & ' . ~ # ) ' . ! = = @ + # ) = , a ' ) 2 ' _ , . ' ) = : ) ) ' ' ) , ) ] @ ) ' { ^ _   # ~ ^+J./+q 2 ) @ @ @ * _ ' ' # * # ' ) # _ @ _ = 4 = = 7 * ; ) ) : < ) ] , : = # ) * , * # ) ! ) . * ( ( $ * * ,   + , . ) . # , / & 5 & /   # * # ; * * ) = * _ * * { ) ) # ) 6 # ) * = . _ ) ) . ) ' (+_+:+<+# ] # , # @ ) # @ . ' @ # | & , # * . * & * ; ) & # * %   , = _ ( @ @ . { = = ) < _ # ' ) ) ) < * * ) = * @ ) { * @ ' % ' ) . ) ' { ) ) & _ . % . * _ ' _ ' & & ' < . _ @ # . )   @ & . @ $ 0 = = & * > @ ",
"& @ @ & & ) ! < . ~ ) ) ~ * ' ' # - - + @ = # # @ _ ) @ (   . @ = , ) = ) . _ = ) < '   * . { ( ^ ' # '   [+}+|+1+2+# ) = = @ , # ) ' . * # ' ; ) ) ) : = ) = * * . : ) # < . * = ) : = _ < < = ) ! # ! @ ~ & + .   @ * - (   # @ & % @ # # % ; # * , /   & ; & @ @ , ) = # _ # ) ) : = 4 ' ' ) _ { ) # # ' 3+4+|+5+6+' : = *   { = . * # . ) ) < * # @ _ # = =   * * ) * + * % = ( @ & _ _ # , { # # * ) _ ~ ) _ # ~ ' * ' ) ' ' ' ' * # * # ^ ' ) < @ . ' . ~ { , ) * & ' ~ & ' @   .   ' * ) ) . ' @ & * @ % * @ _ > - - & > ",
"* # @ @ * &   { ~ ]   ' . ] < # , * * # & * * ) ' ' ' @ # * * # # # ' ) ) ) ) = ~ = ~ * * ' _ # ' ' ) _ ~ * 2+7+|+8+g ] # ,   * * < ) = = _ { ' @ _ ' ' 2 ' _ _ # * $ ) { . . . @ ' # ) { ) . < ) = ; ) ;   ; % & @ ( , * - + @ /   * * ; . % % [ * * ; # * * # * @ $ * #   . ; # . ; . ) = = ] ' , ) ) ) d 9+0+a+3+  @ ' @ . & , * # * . # . < ) ] . ! ~ ) ] ] : & ) # * * # ) ) ' ) * . # * & ) * ) $ ' : ) , = ' . . ' < ' _ c ) ) ) @ ) * ' & ) ^ ~ . @ ' # & * * { | # < . & % * & . , * ' = * . # #   * , - $ , $ *   - $ ",
"  & . @ % .   ) ) ] # # . ' ) : * ; , , . * # ; @ : : = * _ ' , ; . ) # . ) _ . . ) ) ' @ # ~ ) . . ) _ # # 3.b+D c+d+. ; & . * ; ' < = * ) ) = { ' ) ' ) @ ) )     { ) < . ; * ) . . ) ' . * ) ) # .   # & # * + @ # # _ - _ . / & / [ % % / % - ; ;   * % & ; @ * . & ; # * & . . # # & = : ; ' ( ) ' ( w.e+_+f+6+, # . * , @ & & ) . * & ' ) . ) ) # * . & ! = * . * * * # & # # # @ & * #   , & # * ) ) ) _ 4 = : # ' ) ) ~ ' ~ = # @ ' ) ) ' _ # ' ) { ) ) ' & * ! . ' ) )   * # ) * _ ' , ' & ' * = , + +   ( + , + - % + ",
"& & , *   @ . # # _ * ) . ) = : * [ * & & * = & & { # : # = = _ . # # ) = ) * . ] ' ' ) . = ) ' { { ' . ) ~ * g+7+|+U N * . ] , ; ) ) ) @ ) = ) _ * ) ) 0 ( & ' @ { _ 9 | ! . . . # ' ' #   ' # * * # # # ; . , * @ , - + @ = @ & . , + [ & * %     + * @ *   & = = = ) # & & *   # # & & ] ) = % _ > , 2 }.h+i+j+= ) # .   ) & & *   = & . _ . ) ] # . . & % 5 ) # ' # _ # . * _ = : ) $ @ # * * @ = = ) . _ # < ' # ) ' , c ) ' ' ) ) ^ ) ~ ) < | ) ) . * * @ ' . . @ ! _ ! @   . ) ] * ( ! ) _ @ ' * * & , % * * & & & & % * ",
", * * * + * & # ) : ) ) . ' ) > ,   @ * & ) , * ' = ' & & , @ , ) = * ) = # . ' ' @ ' ) = ) #   ) & ) * & ) . M.b+k+l+a.] * # # * ] # = ) _ = # = @ @ @ ) ) @ ( | { ) ' {   , * ] ) ) ) _ = { # ) = ) # % * , & . *     * & & * * % * * & * ; [ , = * @ @ # & * = # * @ *   * @ &   . . & = > % 0 * b @ m+n+_+o+p+= . ) ; *   . * # @ @ % # & ) ] ~ ) # ) ; , & * ) ) & @ * @ , ) ' & # = , = = * # = & & # , < = ) , ) ( @ b ) { _ _ . #   * ! ' ] #   * * '   * @ _ & ! ) .   ) ' ) ] , ) . _ # = ) & , ; * @     . * + # ; * ",
"# & ) #   + ~ & ^ ' ~ ) ' & @ ,   *     $ * * @ * . = = * = @ { = = ' # ) ' ) @ # @ , _ ' ] # ; @ . _ )   @ * & J q+r+s+t+;   * # . ) ' . _ ) = ' ' b ) ' _ @ 2 { ~ | ' ' . # ' ) * ; ) # # # * . , ; [ ;   , * # , / & @ * & + / & 1 & & * *   - % . * * = & & & # -   *   @ ) * ] ; *   # &   @ + # * u+v+w+n+F & ; @ &   & &   -   $ - @ = & ; * = ) 5   . / ) & * * ~ . @ = ' $ * # . ' # # ' ) ) # )   # ) )   * @ ' * ' * , @ . & * @ * & ' ! ' * # @ # , # , @ * : ) _ _ ; . ' # & * : , , ) . ; # & & % = # = * ;   ) & ",
"* ; &   * _   ! ! ! ~ . ] = * . #   ; ; @ , = @ % & , . @ . @ = # = = = _ ' . ' @ & # # ) ) ; * ) )   * * @ ! ) % x+y+z+A+B+* # = ) . ) # . ) = ' . _ b _ @ _ 0 | ) { * ) # ) )   ; & ) ' ) # @ = , ; ; C+% % & % * * , * *   ; /   % * * * % # &   & * & & * , ) 6 # @ & = * * ) &   ;   ; # * _ * * , -.D+i+E+@ #   & * @ ;     & % - - = =   # = ] ; & . [ ,     &   ) # . , @ ,   @ # ' ) _ | ] & ; % ^ . ' ) ' & _ * ) @ # & ) *   # )   _ ' ] )   @ , ' > *   @ ) ) . & ' ) . ] . @ @ @ _ . ' * ) # , # $ = & # * [ # ) ; ",
") . * *   @ % ' | # ^ ' ) * & & * & $ * )   ( _ ( ( ) # & * * . . { ) # ) = ) = ) @ # = * < # # {   @ _ & % * = * s F+G+H+I+J+) * ) . < . ' _ ~ ' ) @ . ) _ ) @ ^ _ # # ) . . !   # * # ! . . ! ) K+L+M+N+O+P+% & - * * ; , * . & % . # # ; * & ; & & # *   ; ; @ # * ,   , & ,     ; &   * # & # . # s Q+w+` R+, , # & & )       $ *   + @ # @ & & ; % } * # * & &   & _   . $ ) * & * ) ; . ) . )   ) ' < ' ~ ) = ' * & # ) & : { _ ) : * @ # ! ) ) ) * * ( )   @   ' @ * # ) # ) & ) ) @ ) $ * ) ) & $   # = * & # = * & * . ",
"! * . * # ! ) ~ ' . ) & & * , @ , + - = @ , * @ ( * _ ) & * , ' # { ) ) @ & > # , _ # . ) ; # , & @ ) * ' +   & = % *.S+T+U+V+% ] ) ; ) ) $   _ @ % @ ) ) : 0 0 ' { ) ) ' . | ' ' # % ) < * * . & W+6.X+Y+Z+`+, & - % & } % / * )   ; , * * & * + * ; & & . * * @ $ $ # & # & . # -   & % * #     * $ J 4+|+W N @ & # ; ; [ = # _ * @ + $ @ - & + + * % ; . * & * % & & @ . _ & & @ * * = * ) & # & '   ) ) . ) ) :   & ' ] * , ) _ = ' ' = * ' , , * ) = # * ) * & {   . & . ) ' . . ] ~ ' ~ { 1 # * . , * >   @ , . = # . * # ",
"&   & = & _ { ' )   # _ * ' = , * & & * $ , & $ * ,   ) @   ' & ' ) # ) . * @ # * # > * # * & . # : ) * & $ + # & * # =+ @.@+@@@! * ) . . & # . b _ * ' ' : ) @ ' _ ' ) { ' * ^ ' ~ { ) #   * . (.#@$@%@&@|+*@=@* # % & - [ ! # %     / & ; # * % * & & # & * - & & *     & & * * 5 * f ; % / 5 $ * =+-@;@X B * ;   . ; / ~ & # - - % % . * & * - % #     ; ; &   [     $ _ , * . , @ , ,   # ' ! * ) ; * = ' ' ; ) . * ] * ' @ < @ ' ' < & , ' . ^   * = , @ ' ] ~ ' . ~ & , & { ) = { ) # ) '   ;   * * * &   _   * @ @ _ ) = ",
". * . . ' # < _ ~ . _ ) ) @ = * # . $ @ # > & + & #   * * , @ , = ) ' . : # * * ] , ) * & ; ) . ' { ) * ' # * * * # * % >@,@'@)@N , ' # ; . ~   ) @ * : ' = ) = { { | { @ @ *   ' { ) # & *   *  +!@~@{@]@^@4+J * * * * * / * / # # ; , & * % / + *   * % * & # ( & & &     * 5 / % / % / * & [ # @ -./@)+(@_@# % % , * . ; [ . + * . & & / * # % & * & , & * * & ; , $ & & * b @ # , . * @ # # ' ~ * ~ # . # ) ) & * * # ' , * # ' { # _ ' ) , ! ' * # #   _ & < ! # ] & * @ = ) # # : = . ) =   ! ^ # # & * @   . _ ( ' ' , ' ",
"* & # , = = ) : ) ' { ' ' . . _ * * & & , & - $ (   a ) # & ) # ) ) ) . ) ) ' % ] = ] . ' = ) ) ) * , { * * % ; & * ) . C+:@<@[@u+* ; ] ~ ! ) * @ ' @ < : = ) ( * ) ) & # # ' ) ' . # | @ , $ s /.}@|@1@`+1+2@8+g / , ; & % [ / # * &   %   * ; & % * & & & * . @   & & ; [ . & & * * / % / * . * 3@4@^.4@=+% 1 # & * & . & , *   * -     ; , * 1 # / ; * %   & + * $ # . * > ( @ @ = @ = : ~ ' ' ) ! # , < < * ] * * ) * # * ' ' . ) # = * _ * , ! . . ) , < = ! | ) ! * # * . = : = ) @ _ . ) ~ ,   . ) ' * ) . ( ) ( # ' @ ) ",
". & # : = ) 0 : # ~ # | | # # & # * + # a _ . # _ @ , # * ) % ) = ) ) ) ' . ' # = : = ) ] ' ) ) @ @ . * ~ )     & # , % + 5@6@7@8@* & # ) # . ) . ) ) { { ' = ) # ' # * ^ ' ! ~ ) { # ~ @ '   <+9@0@a@b@c@M d@1+e@* + % ; / % / , ; & & ; * % ;   + ,   % ; +   @ $ / % [ & & # 1 % * * / 1 * * m+F+;.f@g@- % 1 & , &   . , * & &   - # # & # * * * * & & & & # &   - - & @ @ & * * &   * @ ) ' & ' ] ; & * ; * ] ' ] # @ ) # ' < @ # ! ' { * & # # & # ' ' @ ) # ) < # & *   . ) ) ' ) ' = ) = )   *   _ ' ~ & : ) . ) ' # . * ",
"6 > * _ @ @ , * & . ' ) # . & * @ , & # * ( @ = # @   @ 6 = 7 @ . = ) < # ~ ! ) # ; ] . < ~ ] | & ) @ @ ! ) . @ ) = @ ) * *.h@i@j@=+. * ; ~   ' { ) )   b ) @ _ ] # * .   * * ' # ! # ' . #   ).U+k@g@; * J 4+l@m@m+% & [ % , * [ % ; & & # 1 % $ > & & $ @ & % $ * % & % / / , f   * / / ; * / n@y+o@p@=+. * & # * 1 ; * & * * & + * , ; . 5 & / # - +   % * * + * # @ ( , * > @ # , , , ) . ' ! ' '   # # * ) > 0 _ ' @ _ ' @ ) ' . . ) . ~ & , # ^ * ' # = ) . < ' # $ & _ ) ) = ' _ ) = ) _ ; ) ) ) ) ) ) ) ) { @ : = . _ # ",
"$ @ , & > ( ) ( . ) : ) )   &   &   $ - * = ) * , , & * ' 0 , = # # ) { ' ' ~ # ] ) , , ) ' | ! * * _ # ) ' ~ ' _ & , , ) ) q@r@s@!+& ' ) ! ~ ! < # # & . ' b ' ' ! ; * * ^ { 9 ) ] ! . ) . * t@u@v@w@*   =@M l@x@h.5 & * % # # , * # * # . % # _ & $ *   & & - @ @ * * [ % # & * / * / / ; * s W |+4+y@* , * + [ * [ & * * * * & , ;   & # # % / % - * - % * & & $   , * @ * * * # * * . ' : ) ' #   . # * ' , { : _ ' 0 ( @ * . ' ) ) . ) ' ' ' ) ) ) .   = ' ) < < = ) , &   # : @ = _ ' ) @ * # * & . { @ . ( & ' = , _ = $ ",
"> * # @ ' 6 b ( ) ' # # ; . ~   # # * , $ & _ & @ $ > = _ & ( _ < = _ # ) ) ) @ = ' ! . < ) , ] . @ * # ]   * * ' . | ' ~ ) z@J.A@B@2 ) 1 ) = ) b _ ' @ ' @ ) ) | . #   ) * %   ] # # * ] ; C@D@E@6.F@& % * J [@G@H@I@# & &   % 5 ; 5 ; ; [ # * _ * *   ( # @ *   ( , @ * # % - * * / # 8 % / `+1+|+W r.* ; & ; ; . * & / / & , & & # - #   & [ / & - * & - ,   * , &   * @ & @ * * # ) # ' & < { { * * &   : ) { _ @ ( ) = ) @ ~ @ . ) ) | ) . # ) ' { . .   * ) = ) @ * = = # ) * = @ # ' ) _ # ; * . * { . ) { ' : . : & & * ",
"@ & _ ' * ) , = ) ) = : # : ~   @ , * * & , = = $ $ b ( : & * # , * ) * ~ ) ) _ < ! ] ! ~ & & ) < ) & * , , ' # , { # ) ~ { s J@K@L@J ] . ~ * ; { _ ) @ b ' ' . | & * ' / * * . * ) & ) ] M@N@O@P@Q@r.# & & % R@a@S@T@h * .   * 5 * & [ ; ; ; # _ ( - & - % * & * + * - * - % / # 1 1 * * / N R.D 1+e@; *   @   # , . * / * 1 * & & & *   . 5 & [ & % % , & * * ; * , # + & = * ' = # # ) @ ' = # ) ~ & ] , & ] c * ' * = ' ' ' ' . ~ | . ) _ ' ) ' )   ) # : = # * # . = @ , ! . @ ) # ) = ) @ & * * * @ # ) ' _ ) _ ) = & # = ",
"= { ) ' ' # @ _ _ ' ) @ ' . '   . _ & + [ , * V ; 1 1 & _ & * @ > )   @ ~ ' ~ { ' ' # * )   &   ' ) ) { ~ ) !   *   , ] ) _ & A U@|+W 3.# ) ] ' ) 1 ^ ) ' _ ) ' ' ) ) ! ] ! < * * .   & . V@i+W@g@d # ; * %   # w.X@S@Y@Z@8 .   & . # & ; # & * % % * * % $ * #   * @ & & * * - * 1 * 1 / ; `@ #.#f+* / 5 * / / / ; , * * / / # * # ; . # , / % & * / & % & ; , & & * # % / & 5 ] . # #   ) 4 = _ ' ) ' & * & ; @ * @ ,   . ~ ] { ) ~ < ) # ' ! ) = ' @ ) # ~ ) ! & * # * * ) ' @ ' ) . # @ _ * $ & * ) & ' & < = ) $ . ) = .   ",
") ( $ _ & =   * , = ) , ' < ~ . & _ * % ) . 3 , / ; # 5 @ ) # * ' .   @ ) < # ' . < ) # ' * * , # { . ' ! . # ] ] < ! ! * ) , +#(+~@1+@#| ) ) ) ' *     ) ) ( @ . ) . . ] . ) ) % ] ! ' *.h@##$#=+% ; * & ^ @ @ . %#&#*#=#-#; # [ & [ & * . ; &       * & ; % -     @ * *   * - & # / * * 1 ;#>#f@;#* * 1 * / / / / # 5 5 /     * * & * / , * 5   * * # & # *   &   ; 1 % % * # # * = # ; * = & ) : ' ) = ) & * _ * * , ) ' ' ' { . ) . ' . ) # . = # ' . . | ) # * , = & . ' = { ) ~ _ ! ) & $ . # * _ @ ) ' . @ * _ ' ) ( = : ",
"& * * ' $ ) ' @ ' ' @ . @ @ @ #   * # @ . & * * # * . . & ) ) : @   ! & ) @   ' _ ' # . < # ' # , : ' . < ) ' ' % ' | ! @ @ & ] Z ,#y S+'#. ~ . ] * # # ' ' @ @ @ # ) # . ! # ) ' < ' ) )#!#~#{#. . & ; ^ * # ; ^ * ]#^#/#)@s & . [ * , * & & - & - ; [ % & * -   * * @ 1 ; %   * % * * # =@(#_#9@<+    1 & 5 & 1 * * & *   * * ; * * * 5 , # 5 *   * , * *   # ; * & % * [ / & # * & . . * # * = = < ' # , * ) _ ) = . # . ~ # ) ~   ' ! & ) . ' { # { ' { ) ' = : ' ) = ) : & ' ) . & . , ) = * % # # ) { # ) ) ) c ' ) : . = ",
") { _ ' _ = ) ) . @ ! ) ) ) . ' ) .   @ , , * , # ; ) # * = ! ' = *   & @ ) )   # , * @ | ' * ) # ) = # . . '   & . ! ' & # = ] 2 :#<#H@=+' . ' ) # ~ ; # ' = ) * # ) .   # # . ) . ] . [#}#|#[#* # # # - & ; * % ( * R.1#2#<++ * ; & * *   [ /   & ) & * * & #   * * , - & ; % * * ; / / g 3#4#5#s / 1 % . 1 1 1 % , * * & % * & , * * / * ; / & * & * 5 ; * # 1 % * / * * - % / # / # # # 6 : : . ) # ) ' ' ) ) { ' ' . '   ;   ) ~ ' ) ~ ) . ' * . ' . ) # ' @ # = 4 ) ) ' * { ' # , & ( # . = # # ~ ! . . ) : ) | _ = = . ) ",
"' _ : < ' ) * ) . ' ' @ ~ @ ) ) * @   * % & . & & ) * . = ] : ' # ( > @ # ' # , # ' = _ ) ! ) ~ ' # ' ) ! . ' )   | . ' ] ' ! ) _ 6#:.7#8#&     ' ' )   * ] ) ) . < # @ , ) ; & , = ) ) 9#0#v@a#; # &   & * / ~ ^ ^ . b#)+c# +} * # / - * . [ % & & & &     * * , * & & %   & - . ; / # * d#e#S.f#> / 1 # * * % * 1 ; ; 1 ; * / - # # * * & ; * . . % % * & * * 1 / / * ; / / * ; . . ;   . ) * _ ' ) _ 4 # @ ) . ~ ' . ' * . , ^ # # ^ ) ; * * = ) # ' ) ) ) < ~ ) ) # .   # & ~ . ) ' * ) . & ) ' * ~ ; # ; < ) ) ) _ ) = = = ",
"! # _ ' . ) * { _ ' . ) . ) = = * *     & # % & & ; * * = = ' ) # * * @ = , * @ * * @ @ ^ ! ' . = ' . ) . ' { , ~ ) ) @   { < ] ) [.g#h#N@+.# ^ & ' ~ ' ) ) ) ' . ) # ) =   ]   &   . i#j#k#X+8#* # & , * , & * % * * l#/.m#/.3@  & ,     / * *     * *   ; % ; ; * / 5 - + % + * * ; % * w@D+n#;##   *   # 1 % * # ; & #   /   5 &   , ; *   / * & & & * } % * * / / 1 / % & % 1 1 # ; ,   & & * @ _ ) ] = & _ ' ' ' ) . & ] ; ) ~ . # / ] . * ' @   ) _ ' ) . ) ) # . ; , ] < ) ' # _ # ) . ) ) ~ @ ) < . . # c ) = _ ) # ' 6 ",
"{ @ ) ( # ) . & . * ( _ . * @ . @ * * ^ *   & & &   = & & , # = = = ) @ . * @ # * $ * ) . @ . @ * *   * ~ ~ ) { { ) ] # * * # . ' 3.o#p#m#f+C+# . . # ) . ' @ # ) = * # * + . ) '   w.Y@q#r#s#t#& * , # * # % % *     # u#c#)+v#& & *   #   # #   , * # * ; & & } # , V & * & * , / # / * *@_+w#T.& 1 1 1 * * ; * 5 / * * 1 / ; & % # % / . & % * [ ; * - ; ; [ 1     * * * & * * * # & ~   . * ( , # ) & = { @ ; # ) %   & & ; * ^ ] # ] # . . ~ ~ _ * ) ) ) ' & &   # ) & ) ] , ) . & . . ' . # { * #   < ' # : _ * , > ( = @ ",
"# ) . * * * & @   # & , ) ' * # * & * ^ ; # &   ) ; & ; ) & = : ) * _ * = ) ) % = ) ( * . * ) * & , # * * ' ' .   ) *   * # * ) ~ . r.x#y#p#*._ ~ ) . ! ! ) . @ = @ & . , , * * . M@z#A#B#C#% / &   ; * f & ; * *   *   <+D#H E#F#; &   & * * #   * ; * # & } 8 - * % * *   ; . *   * * G#1+|+8+=@*   & * ; * & 8 % % * . * * % * - [ * * * ; * / * 1 ; ; ; # [   1 & ; % * *   % % . * # . * * * & ' & , * _ # . ! ) * # ' ) ) ) * ) # ! ) . * * ) , @ _ . { * # # , { ) @ ) ) ) = * : . = < . ) ) ' & ) ) . = @ . = , : @ , & ",
") ; . . % ; = ) * * ;   / ) ] * * 5 & * & ; * = & * a * . . ) ' ) _ ) ) @ ) )   * ] ) ) & % # ; # . . & * # & # @ ' ) , @ _ & ' ) < 4 H#I#J#E.3 : ) = ' . ; & * * ; ; . & & - , # }.K#D+L#@   & * ;   * & [ % ; &   & * s M#)+N#O#* / # / * / / * * = . *   * * * ; ; / / % 5 *   ; ; s W D 1+`+; 1 / * * 5 * % # & * * . , * * * * -   . = # . ( , & . @ * $ ,   @ # * @ # _ * % * + ( @ & % & @ * ) _ ) ) ) ) # . ' * ' ] ) = # . # ) . ) & _ . * # # ) ) ! ' ( ( _ * # ) ) = _ _ & ) ' ) ) ' ' ' _ ' ! ) * ! ) * & ] * ) ; & ",
". ) # ) ; * # . * & * . )   . # * = * % & # *   * ) . # ) ' = ) @ . ) ' # ' _ _ # & ] # 3 % / % # ;   . # ) ) ) ' # * _ * * ' | = = ; P#J#6.W+; = ) : ] . * # , [ & * & + * & * Q#j@%+R#=+*   * &   * &   * / ; ; & * 5 ; S#)@Y+4+G#1 % / / * ; & * *   @ @   * / &   % 1 * / * & & * `+4+D m@=@, * / * ; % # - ; & & * & } , & * & *   ) # * @ $ # * @ ( - _ $ & $ % , # $ %   & & & & % ,   * . , * * = _ # , & = ) ' < ) : * # ~ # . ' * & $ * ) * @ . ) _ ! ( _ ' * : = ' ) = = = & ) _ ) ' . , ' ' ) . . ;   . ; * # * ) & ",
"; . = * ! # # = . & / / % / ) * ) # ] ) . = ] * # * *   ! . * ' @ _ ) # @ . _ ' ) $ ] ] ) /   % ; ; @ ) . ! * <   * @ { . ' ' ) ) = # T#j@U#4@l#* * = *     # #     .   * & & * 5@V#W#X#* $ * + ; # . * -   ; / # . . & 5 / Y#S |+}+s * * * * / & ; , & , & * * * * * * & /   * ; 8 g b+|+1+`+* % / / % f *   f # & * % , . ; % & * % @ @ & * .   @ . $ , $ * @ & & @ * * = = , & @ & * @ ^ * % * % @ _ _ . ; = # = # ' = , # & ) ! ] < . # * # # . ' * * ~ ) # ( * ' @ *   # * ) . & = ) ) @ * @ # ~ ' ) ) ) = & ~ . ] # * . @ ",
".   * # ) & # ) # . / & # ; ; & 5 * , * , , , , * ) &   * = ' ! _ ' _ : _ < ' _   * ; # ] % ;   . ; . # ' @   ) # & & ' = ' ' @ ) & # # Z#6.`# $, , * + * #   * & ; ; * & & [ * .$_+J.C#  * _ $ * * * - % -   , * * /   & % =@}+T X G#1 / & # /   ,   * .   * @ / / & ; # # % / / ; y@[@_+*@M.& &     ; 1 *   % * # * ; ;   & * % & # * * & $ @ * * . @ * =   _ _ # $ % ) * @ & & * % & ^   ^ _   ) ) * &   & _ , # = * * = _ ! ) . . . . ) < ) ) < ) . ' . { . ) ) ' _ * { )   ' { ) ) = ' ' @ ) * . ) , : ) ' ) ) . * * . ^ ) ",
"! ] ! ) * * ] , * * , * * ; * # * # * . . = ) * / # . ; * # = # , @ * ) : ) = ) & #   & _ . ~ ) ! . ^ ) * ] ) . ' @ ) ) . ! ) !   &   , +$@$k@#$=@; %   # * * & [ * & ; & [ / `@$$_+f+s * $ + & & / * * - * + [ * # # , # % & `+[@%$&$*$* * * % ; * % . . & #   * ; & . * * * * / # N.D+D+;#/ * / . / * * .     / / % /   5 ; / &   % ) ( & ) # ) = = ; > > 0 , * ~ * % _ - & # ) ; + * & - / / * . & * & @ & ) % 5 / & & ; ~ # % ~ ~ # ^ _ ' . & # = = ) ' ' ) ) : ' & & ' _ < . # _ = < _ ) ) ' ) , @ = , * , ! ) ; ~   # * ] ",
"# . . & * # ; & [   ; ;   * & ; # # , # # ) )   * . . 5 & * * , = _ ) ) ) : ' ) &   ) ' ~ @ ~ ! ! ' { ^ & ; * ) ) * ( @ ) ) . * : * & & =$-$;$D@m@B   % * % - 8   * *   * % * >$v@,$!+*     * * /   &   / / * , / & * * / % * r.'$)$!$~$h / / ; ; & * * $ & # * ; & 5 / * ; / / ; d {$S.[@T.# 1 # * % * & / * +   & . 5 # * - * *   * # @ @ , = & @ = ( * 0 . 0 * ; # ; * = @ @ & & % * & & # . . * * *   . # * / % - %   * ) # ^ ' *   ^ * # # . ) . c # _ | ) ) ' _ _ # ) . ) ' ' # ' = ) ) _ ) _ # , _ * # = . *   &   # & # ",
"~ ] ] @ # ; . ; * ; 5 & + # & =   # & * # . ) * # 5 ) & * * @ ) ' # * ' @ ) . * * . )   * * # ) ) * # # , ] & * ) *   _ & . < ) ; ) . ) # ]$^$d@|+Z+O+- # # % - - * # * * [ M@/.U#/.*+. * * @ ( / & .   , * # & # * * * / & * * ; /$($_$X@:$; * & * , & - - * - / * * % * * &   / > <$}@[$s * * # % *   * * & ^ / ( % 6 . ; % # * _ , & = _ _ @ _ : @ ( > ) b 2 # . * % ) + , , * % ; & * & .   * . ' _ @ , : & / & % ; ; & * # ~ ! . ! # _ ~ * _ = = . < ~ @ ) ) ' ' = ) ' _ # ) . ( ) : { @ : { # = & < ~ * ' ] . * ;   ) # # ",
"~ ) ~ & / * / # % . ) & & ; & = * & % ; # / 1 # 1 / # ; ) = @ ] @ ) _ ) < ) # . & # ) # *   . ) { . & * * & ,   # _ * ' ; < =   & = # % . r.e@}$`#|$1$& # 1 ;   % & & , - * 2$3$c#4$*     * & } ; & # ; ; * * [ ; ; * , 1 *   & # % 5$D#u 6$l#/ * * ;   * % - - / % / & % % . ; / g 7$}@p > / 1 / * ; * & * 1 & / % 6 . . * / * + @ & @ , , = ( 6 4 = _ : 0 ' : ! & * ^ * , % $ [ * * f ; * ; * # { @   . # & , # % % * / ) . & . ~ ] ' ~ ! ) . c _ : ) ' # . ) ' _ : # @ < ) # * _ , & _ ) * ( (   = > ) ' * ; # . $ . = ) ) = ",
"< . * ) # # , ) ) ) # # ) ; ; * . ; * # * = # ; . ) . . ) ' ] ] # : * ' ) { @ . * @ & ^   ) * # ' ^ @ ' ' { ' _ @ & ' @ ' @ { . & . ; & * * & 8$9$6.0$s * * / / & & [ [ / l#a$|+D#b$* , % * , # & ^ * * * * / * & / / * * / 1 * % ; # V@c$K#d$&     *   _ @ * # * & + & * * & , # C#[@e$f$d ; * % ; * * ; % * # # / * * ; & 1 * > $ , * @ _ % @ ( * = : # ) : )   . ; , - (   + @ + +   , _ * . # = . 1 ! *   & 5 * # ; ; * # 1 & # ) ' * ) | ) @ * ' : . . . # ) ' . = { : ) = & * ) @ { ' @ @ = , * * 6 # # # ; ; # = ) = @ = ",
"# . = # * . % ' = = , &   . & . / ; * & & = * ;   % ! . . ' ; . ) * ' ' . ) ' @   . % * . ^ . ' _ ^ # ) ^ ' * * @ # * * . @ & ) & ) - , % & 8 g$p@h$y+d+1 ;   /   ~ * * s (@G+G+6#s * @ @ & # &   * * * * / * / 8 *   . % /   % 5 1 & i$R#^.4@S#* - - & *   * * & *   = * * % * * V@j$;.k$/ * ; ; # * *   /   * / / . ) * . 1 * @ , * , @ , _   & & , & . ) ) = * # # * @ @ ( ( @ , *   @ , * # & = . # # . & % % % ; * * * % ! * ' ' . . . ; ' _ * ) @ ' ) @ ' ) . ) ) : # ) .   ) , _ _ . {   * ) * : = ' & = # . . & & _ = = ",
". # # , * # # . = , ; * =   . # ) / . *   & . 3 ~ @ . ! ) . ) ! ' ) , ' ) . = ! ) * * ' ~ # . { ' * ' & ] ]   . ) ) ) ] ) . ) @ . % / % % 6 % & `+l$H R.N ; 1 / ; ; *   <+^#m$a$8._ , @ @ *   ; * *   ; # / - * + . 1 5 / * / ; / 5 1 1 }.>#3$(@% $ * %       ; # ; ; * * # & * S#n$D o$<+* + & / / [ &   % ; / * #   # !   * * & @ ( _ @ . ( @ ( 6 = # # ) ) #   . ; 5   & & * = & % & * & & ) * = # * % . *   % [ - * * & ) ^ ( _ ) ~ , < { ' ) _ # ' ' # ~ . = { { ) ) # ] ] = ) # = ~ ' @ # # ' ( ) = @ = , . # ) ! , = = ' ",
") . &   . ! ] # & * , * & [ , & . & . # ) 5 ) ; * ) ^ ' ' ~ . ! * = ' = . # & ) & ) _ ) ' . # ) '   ~ ) # ~ ' ] ] ) = ) ) _ @ & ; # % - & , . 5 p$8+T P G## / * * * *   q$D+j$r$. & ( @ &   * ; # ; * , ; 5 % 1 & ; / / 5 / / * * & * * J+p@s$y+2+& & -   - . & / * ,   *   & ; !+>#6@Z#s     & # & * * % / ; & ( # ~ ) * . . # ( @ $ ( ) @ : = * = * * # . = * * / ; *   ) , , & > & = * % ' * = * & * ; ; . , / - ; ; # # ) . ' ) ' ) { & ' ~ @ ' # ' { ' ~ ~ <   & ! ' ) * ) ) ) ) = @ ) # ' ) , ) ) & $ =   # * ) % # * = & ",
"= @ = _ ; # ) # [ & & # ; # # & & & * ) * # ) ] ) * # @ * * ~ ) * . . # ) (   ) '   # ) ' < < < '   & ) * < ) ' , < . ) ' . = @ # / * % ; - & * ; t$1+T u$8$t#& ; / ; g v$_+[@y@# & * + #   & ; , * /   & / * *   & * * * * * / * *   & * O+X w$-@x$* , * ; ,   & / * , ; , + 3@$+^.$+S#.   & * ; & / & ; / * % * * ! 3 ~ * ) ; = * _ ( ' , . # & # ) @ ; # & # . ] ) & & ' * = : $ & ) ' ' _ = = ; # * %   @   $ & *   #   . @ = ' ' ' ' * * , = @ _ @ * # @ ' , @ @ b ' ( '   = ) { ) . ' # ) % ' # ' )   * * ) = * # 6 _ ' & ",
"> @ @ @ % * . # * ) ) , * * & #   * * [ * # # ; * @ * * @ . _ @ | ' . {   ) * $ ' ) * ) , ' | # ' & # * { < ) ' = ; = = # ) # = & . * * % 5 & * / =@m@~@`#y$8#5 # % 1 <+D#z$A$=@* ; @ @ ; & *   . # #   / * * * # 5 ; / * & *   * - - & . s (@B$C$D$N & @ *   & / ; ; ; * * % (@V#f@g@1 1 /     * %   . & /   . . 3 . & # &   . ) * = & @ ' { ) ) @ * % * & = & . ! ] 1 . $ @ ' ) b $ ) * ( @ @ ; 3 * > ~ & @ @ .   , . , ) ) # , ' : 2 @ ) ' , ( ' : ' | ) ) ! '   * ^ _   @   & @ { : ) ' @ * ' ' ) @ _ @ )   * & # = * * , # ",
"( 7 @ , #   * = * ; @ #     * ; ; * ) * ; < = = ) ~ ) ) . : & ' . | ^ { ) . & & < @ _ { ! # # | . ' #   ' * ' { = = * # ) ' # *   . ~   ; & * ; 5 * `+q+E$F$M 3@* * % 8#G+k@ +# & >   * * # 1 & % ; & * & 5 5 * ; / % 5 / . , ;   % [ * * * G$H$I$J$O+, % * , % * * * @   & <+D#D K$i$# 1 ; / & % ; % ; % - % / . 3 * % # ; . * & . * @ ' ) # ' ' @ . = * . # # ) ~ # ) # = @ ) ( @ @ ) _ # @ * ; * 6 ; & & * . % & - _ . ) # . & , ) = < ) ' * @ * ' ( * &   . ) ' ' ) ' )   ' ) . @   @ _ ' & @ ' # . < @ _ * & @ * & = . @ ) ",
"( @ # * >   & # * = # = * # ; & # & # # = ! ; ] . # ' ) # ) @ # { < ' !   ) _ # | | . ' ) { # ! ) @ ' ' @ _ @ { = ; ) & = #   { ;   & * / [ & / 1 1 _@L$M$N$O$P$& / ; 1@Q$W.U.    & .   # * & % & * % } * * 5 5 / & * * - & * & & & / - / * / J 4+2@U s , & # _ / & + # * * R$n#S$r$* 1 *   1 % # , # / 1 / # % * ( * . 1 # # ) _ ) #   ' * . ) _ ) ) : ' { . * * # . ! ' # # : ) _ { = ) # & ~ ) & ; . . ; & * * % % @ , &   ) _ _ ( = ) ) ) _ $ ) ( , )     ! ~ # ~ ) { )   # ) ) @ & ' @ ) ~ , = # & = * = . & ' = * # ) , & ",
"b @ _ > . * * ) & ; - [ & . & . ( ) # ) _ # _ @ & ) ) < ' ) @ ) ) ) ^   & | ' '   ~ ! ~ ) ! ~ ' # < . ( _ ) , ' = & * & . * @ ) * 5 & ; * * / ; 1   * v#O$n.>#4$. # > T$u U$V$C+  % / ; * / * / -   ; [ * * * * * = & % & &   & * & & % ; ; % r.W d@1+g+a , $ , * *   - & d (#e$W$`@* ; * * * % % # ) , ; / * 1 ) & ; )   . . * @ * * .     ~ ' . & ) '   )   ' _ ) @ . * . ) _ * # ~ * )     & * * * # . # ) , ; & # - # * & & # * . ] ) ] ) = ' # * * & @ * ' ) # # . # .   & 4 ) _ * = = # { < @ @ , ' _ { ( * @ _ @ * . $ # ",
", $ , = & % % & . * [ % ) # * & $ & # # # ) # @ # . ~ # # ) < @ ) ' *   # # # ' ) ! ) ) ~ ' ; * @ _ ' * *   # ] ) ' * . @ & . * ) & * & ,   / / / / ; r.X$T+Y$3#I@* S#p#4#q+:$/ * & % / / * . / + * * %       * & * ; *     * & *   &   *   ) # `+4+2@Z$+#* @ ( ; . .   - * a$`$ %.%; ; * [ * +   & & # # - & # / * ) ] / ) ! . ) ~ . @ # . ) '   * @ ~ @   # * % # ) '   _ ' ) , < { @ . @   ~ ; # , * * # * &   * / & *   . / . * ) # . # . ) ' * & * @ { ! ) ] ) * ; . & * @ = _ ( ) ) # . ' ) # ) & ) . '   = * ) , . & - $ ",
", , $ = & ; * / * % &   ) & * = * + & * = = ) ) _ ) ' ) . ~ # ) ~ ' . ' ) ) ' ' ~ ~ | . )   # % @ * * , )   * < = ; ) * * ) . . . / # ) #   * + . % * # M.+%s+0@~$'$f+@%`.g@% 1 1 * 1 & / % % % # & , / & @ ; * , *   * * * # & * & * #   # ) % =@#%|+7+`+@ = & & /   &   =@[$`$$%C+& * * [ @ , & * @ # * [ & % * . . * ) . ) * @ , * #   . ' ' ) #   , { ' c ~ ' # ) . ' _ ) ) @ ) ) ' ' . ~ ; . & / & # # , # * )   @ & 1 & # [ % # . = # ) . ' ; #   ) | ~ . # = ) = ) * * ' _ 6 > @ # = # ) ' ^ ) ' ' ! ) ' * @   ,   * ^ * ",
"+   & , & 5 * * ; & & * . *   & #   * ' = * & . ) = _ = ~ . _ . ' ' ' . . ~ . ' < ) ) & & ~ * . . b * @ ) ' ) . ' # ; ) . ' ) ~ ; ; * & + ; % % % % / & / * w.%%S@&%*%=%Z+-%/ # / * # * & & * % [ / % *     @ & * * # *   % &     @ @ * . * % / & ;%y+Y+)@b.( & % & # . ; i >%S.,%d / * , , + &   , & & & , ; % * # ; * . . % ) . . ' _ ) ' ! . !   @ ) ) _ ~ ' ~ ) ) _ # : _ ' , @ @ | ' ! ) % ; 5 [ ; ; * & , ;   ; , ; 1 # ) # ; ! ! 5 = , = ) ) ]   * ! . ! : < # # ~ ' & , , , _ = & * ) *   ' ' ) ' ) ! { @ _ * ) ) # . ( ",
", # * * % -   + * ; * & * % ; # @ * @ ) ) . ) . '   ' . ) ) # ) . ) ' ) & ) ~ ! ] ~ ) 5   ] . ; , # # ( ' < = @ ' . ^ ) | ) ) ' ; % / ; # 1 [ - / & .   % f % w.C.'%o.)%!%- + - * / *   * / f f % / # & # @   +     * + & - # ) , @ * * a # * % $ _@(@~%{%]%N $ - & % # , ^%/%k@4$* & # &     * & # * * & ; , * ,   . * 6 # ; # ) ) ' ) * & ) ! # { = @ < < ' . # ) . ' _ ~ ' { ) # '   ) ~ _ ) @ . = & & ; # # * # - # . *   ~ : # # / , ] ] * ' ~ ) ) . ) @ & ; ; ] < = ' * @ # $ * # $ _ ' * * @ = ' ' ' ) @ # * * & ( $ * # ",
"& * & - % % % , * % @ % % = = ] {   * ) ' # _ # ) )   # * % @ * ; . # = ' ) ' ) ~ ! & ] ) # ! % $ . @ * ' @ ' *   ) ) ) . ) ( ' * % / # / % % &   *         & % w.S+(%_%r.- * *   & & 3 * * * & ; - - / * @ ; & =   & * . & # & # = $ @ @ # & + % % *+-@Y+y+:%) # & + & * N.;.;.N.  [ - % % @ + @ * ; ;   # & * / = & . * # . ) # ' ) ' : = . _ = ' # ' ) ) ) # ) . ) ' ) ' ! . ) @ ) @ { ' ) ) = @ # # / ) * ) # & * @ ' * *   & / * # ; ; < . ~ ~ ~ . . ' { ! * # ; ) ' @ _ * = = + , & * *   ^ ! : . @ ~ # = ' ' & ) * ) = * ",
"+ , * & & % * - * * & & - % ) . ) * @ @ _ ' # ) ) ) . ) # ^ { ~ ! ~ ) = ! _ @ _ ' ' / & ; * % # & ) @   ' * , '     ! ) # . ) * & * # ; % & & * /   , * # /   ; / * * * % [ * & * * * % % & % * ; 1 ; # % * , @   , * , ( & ( # # = _ ) * # - * * * [ <%[%}%|%w.% & # % & 1%f@2%3%& * % & ( & @ * & . . * & & % * ; ; / % ) # ) { ) .   ' ' ' . = ' ) * ) ) . & ' & { . ' ! ! < # ' *   # ) ) _ ) ) ) )   # ! ] ,   * . % * _ & * # & . * ) # ) ' ' ' ~ ) . ; ]   & ) ) ( *   ( @ & > # & . & *   { ) ' { ) ~ . ) ) _ = # _ * & ",
"* & - & * - % ; @   ; * ; ; *   * & . * _ ) ' ! @ ) ' ' # & _ . ) ' ] ' # ) # {   ; ) . # *   ) + _ ' @ &   * @ ] # # * ) ' * @ * / ; ; % - & * ; * # # . &   / . / & ; & . ; & / # - 1 1 % % 5 * ; 5 - * * * &   % $ * * % , & * * . = # , } &   * > r.4%t.S@T@:$~ .   _ 3%5%>#N.#   # & & * * *   , *   - . & . ) , # # . / ) & : ' & * ' ) | = ) ' ) # ) ' # ' ' ' { | ' ! ) . # ) @ ' _ ' | ' ) # { ' ) # ) ; & % ~ ) ! ) ) ) * ; . ] ] . ) ' ) ' ! ^ ) # * ) # ; . = ) ) = , _ * > ) @ , * ~ < ~ # ) ' # ) < ) = = # = * * ",
"& ) ; & * * * *   * ; * % * * [ & , * * ] = ! ) ~ ) * @ ) =   @ { @ ) . ] ! . ) & ! ) ] ; * & ; & = = # 6 # @ , * = 6 4 . , ] % / % . , % f   ; / ; [ 5 ; } , & * 5 f * # * ; . & + * . ; ; % * . ;   & & * ; ; . + & * ; * @ # @ . % ) &   @   & [ - * - :$T@6%X@:%F@[.l#j+7%|#w@$ & * % & $ @ ; - } * * & ; & & ; # . * ; / 3 ( _ ' * @ ' _ * ) ' ~ ! = ' { ' @ ) ) ) ! ' ~ ' | ) ' & ' . ' ' ) ) = ' ' @ : ) , _ = ( , ) > ' # ) ) # = = 6 ' ) ) ; ] < # )   # < ' ' ' # ' @ & $ _ * ) * ' ) ' _ 7 ( * ) _ 7 ) ~ ) < ) . ] = ",
"& ,   ) 1 * / & * , * & * - , = * & ) ; =   # & ) ' # # ) _     ) ~ ) ) ] ) . .   ! # ~ 1 ]   + * & > = @ * _ = * ) ; = = * ; = . , & * & 1 # / % ; % ) . & } * / * # ; 1 / 5 * % ; + . ; & * , *       / *   , & . * @ * - . & & # * # ~ * * & & - * , % * w.=#6%8%9%H+m@0%_+a%w@  & + - $   , + # ; * & * & * # 5 * # / . * ) ) ~ . ) ~ ' ) ' ' ~ ' ) ) # . ) | ' < . # ~ ~ ) ' ' ' ~ ' _ ) _ ) ' ' ) & = ) = @ ( = > * ) ) ) < < ! & > 6 : 6 : , ) ' . & *   ; ; # ] ' ) . : @ ) + & ' * & ~ ' _ : ' : > _ ( ' ) = = . * ' ] ",
". & # . * / / * [ * % % / & , ) : ; ] 4 ) ] ) & * & @ * ) ' ' ~ ' ' ' | ' ' ] ! . )   * ) #   # # [ % , ' # # @ # * = # ; ) * , = [   # & # ; % 5   # % * =   # * 5 ; * / . # / * * * ^ & * & * & % + & ; 5 ; * ; * *   , * . * ) # & & *   @ - ; [ # ; %   1 :$b%d.c%d%e%_+f%c%g%& & & * ( & ( - + , & * * , # ) . ; ; ; . ~ ] ) ) ) ' ) # @ { ' ( @ ' ) ) . @ . ) ' ! . | = ' ~ # . ! ^ . ~ _ ' & ' ' * ) . ) ( 4 ( ( _ ) @ = . . # ; = = ) = ' , ) = . # . ) # ] ' ) ' ) _ , & { ' . _   _ ' ) : @ ' , = : ' # = = # @ # # ; ",
"  ; & & ~ # * * &   ; , # * * 5 > , = = = ) . * #   _ # ! ) ! # ~ @ , ~ ' # % * ; . 1 * . * * & . ,   * ' ; ' # & = > & ] #   @ ) ; # * * *   . /   ; % ; + = + * / * * / * * 5 * ; * * * & > & % } & * - / & , ;   & & * > #   $ = . ) ) .   % / ; % % * * # . h%i%Y$f@i+I#c%j%k%# # * @   & @ & # * % +   ;   * * % ; & * ) ] ) < ' = . ' * ' ' _ { ~ . ! ' ~ ) { * ~ ] ) . ) ' & ) ) . ' ' ' . ' * ) # ' ' _ & * ) l%> 4 _ @ *   * # = 6 = # ! ' * ) ' ) ; ~ # ) . . | = ) * @ _ @ . ^ ^ # ' _ ) ) ) ) _ = = ' < = = { ' ] ) ",
") ] ' # * ; . ; % % / / & & % * & =   : # ) ) ,   & , ] . ^ & # ! @ # # ' & . & . ) # * ! ' * *   ) ~ ) > & ) = # ' , # # * * & * / * 1 # * & / * * @ @ * * # # & 5 5 * 1 % %     * ; / & [ 6 * % } & * 6 & & * , & & & & * * , * @ * & # . # .   * ; / % ; ; % / =+m%g@R$R$8#k%% * * /   & . #   +   & *   . * & ) ) # & ] # ] . ) # # ) = * # ' . ) ' * % * ) * ' , @ < = = ' < ) ' ) : * 4 ]   #   ' @ _ ' # > , , ( ( ( : * & * # 5 5 . & : ' ! ] . ] ] _ . ' * _ _ . ) ! * _ * ' @ * @ ) . * @ * , 0 , = @ ) . ) : ) = * # ",
"~ ] . ) . ) # # * / 1 5 * & & . = # = = . # ; . ) ) * )   & ^ ) *   ) { * & & * . #   * . ' & * & )   # ' ) ) = @ # : ) ) ) * & & # * & % * ; * &   * * ; # , , 5 * ; * * / f / / & * * ; & # & & % * # [ & %   . % * ,   @ + @ , & # & & , = * # # * [ . & # / / * - % / # , , % & + * , , &   * * & /   + '   & #   ) . ! ] ) . ) # ) ) @ *   ~ ' # ' @ * & # & @ ) : ) @ = = : ' ) ! ' = ) # ) *   * ) ) = = $ * _ = > 0 _ > 5 & / ; # 5 & 6 ^ . ; ~ < ] # ' ) * =   # ) . & * ) ' )   @   ' ' : , '   ) = _ . ) @ ' ' = # = ",
". . . ' ) ] ] . ~ / & ; [ * % # = > # ) & ] ) * ; : # ] ' _ ) ' * ; *     & . . . # ^ ! ) # { _ = * , , = ) ) ' = ) ) =   ] & # * ; * #   *   & = - & & & ; * * , ; ; * * - - / & * & * * # 5 [ % / * ; 5 # % # ; ; * # & * ; & 6 @   , )   @ @ # & & # / # / f * % * /   * * * & * % ; & & ; * & . # . * ~ $ @ * * . ] ) ] ) ) # ' ) ' : . )   , _ ) ~ ) # )   * : ) ) ; = = = ,   & ' ) ) ] ) ) * * * ) ' < . @ * @ , * $ , _ = / % # ; = & =   . ! ) # # ) ) _ = _ ) ' # ' # ~ * ' @ , * @ . ) # ' @ ) & _ : * @ @ * * ) ) ) ",
"  ) # ; . . ) # ; % ; * & ; * . , & * [ ; * ] = # = < ) # ~ ' & *   . , * * * @ & * . ~ ~ . ' . . & ) # * ) , ) = = ' =   . . * # % *   &   & +   * * # & & * & % 5 *   / [ * % 6 * * * * 5 . * /   & * ) [ [ * / ) . ) % % . ) # ) #   ) &   # ; & * ; % / / ; * / - * * * 1 1 / & ; * ; ; ; & * . # . & ) ' * @ & ; ' . ) ) ! _ ) ! ) ) ) @   . ' . ) { & * ) ) < # ) = = = . = # , @ = @ # < . ' ( ) @ _ @ , * _ # = = ) ( $ * ; , ; = = 5 3 ;     . ] ) @ ! _ ) ~ ) ) # # ' ) { ) { { &   ) @ # * ) _ ) = . * ' = # * = . & ",
"* * * * # ;   . # & * % , * _ $ $ - &   # = , ) : * ) . ; # ) # # ) _ # * ) ' # ! . ' ) ) ; # ) # { ' ' ~ # # { ' . ~ # ! * ) * * & *   * *   , & * & % * & # # > & & = * * [ * % *     #   * % @ , ) # # # * , & # _ *   @ & , * @ # = # ' = @ . . * * ) & * /     & * * * 8   & * , & [ # & ) # = ) , * = # # # , * ) ! ] ] ] ] ' . = $ = = ; )   : # # ) @ ' ' # : ) ' ) < & . # ) * ) ; . # # < c c ~ & @ . # * @ * * , _ # & & ) . * * * * * , ( & ) ) = = ) ' , @ # ) ) ' @ ' ' ) * _ , ' . . # @ ) * * @ _ . . * & ( = # ",
")   * ' ) . ! . * * $ ( & @ * * * ,   $ * ) & & * ) # ) #   . < ) # . ~ . . . @ ) ) ) . ' ] . ! . < ' ) ) * * ' . ' #         & / . # & & @   & & & # %   @ *   = -   * * ; & & * * & ,   ; , [ % & _ # * = *   & # ) &   # _ * # @ > & ' # = = , # , * . & * * & * &   / . /   1 * 5 8 - * , *   . & = # = & % , . * . . ; # . ] ) = = = = > ) = * . = ) < ) ) ' ] ) = ) = # @ ) & _ # ; > * . ' . ) ' ' $   & & & # * & = * & . * ) # , = & * & = > _ . = 0 ) ) ) * ) & @ b . . ) _ ' @ # @ _ $ * = * ! ) ) ) { @ ) * = @ = = ",
". . ] # ) # ] * * & #   * * # #   @ _ * * * & * * ' ' . * & * ) ' . ~ ' @ ' ~ ! ^ ' _ ' ; . $ ) = . . ) _ ! ) ' ' ;   . * . * * * # * # * & * & 1 [ .   @   * % * * * * % & - % # & &   / * [ # - $ *   * * + @   # & & @ ) ' @ * . ) & = = & * & , # & [ / [ ; & * * * # ; 1 / * 1 # *   + ; & ) )   & & & 5 / * ) * . ! # # ) < ) # ) _ * @ = ) = ; : ) ) ) ) , : # ] * . & ) ~ * & , , = = ] # . ) ) & _ @ _ ) * & & & $ @ . * . $     & $ # @ , ( * _ # & ' . # 4 : ' ) @ ' ) # ) ' # ' ' = = ' ) @ . ) | ' ' ' @ ) = = < # ",
"! ] ~ ) ) . ] . & . , . # & * _ * @ #   % * & ; *   ) * # ) . ! ) @ ' ! . ; ' . ~ & # @ . . @ ; ) ) < ) ) ) . ' & * * & * % & ; ) . ; & * & & * / [ * [ .     * & , * * & % * [ } &   , * & & - , - # @ * $ *   _ * # _ , . @ )     % [ #   . $ * , * & * % [ # ; ; * 5 # & ; # 1 - * /   * * * # . @ & , * ; * ; 5 / # # * 5 # : = ] ) # , & ) # ] # # ' = @ = < # = ] @ * . * & . ) & * & ] # * ~ ) ' _ # . * & = _ # ) & * * $ #   * + , & > : # ( @ & + = * # = ) ) ' * _ ' ~ ) ' ) { # ' ) ) 6 4 < # { # ! @ ) _ = ) ' = _ ",
"' * * ' . ) # # ) = ] ' = & , * # *     # # . , * % _ % # $ = = ' # & ) ! & , %     . # ) . ) ) . # . ) ' # _ . , # ;   * # # # & @ , # & * .   & / . * / ; / & * ; / , / % % [ % , # & & [ [ - & $ - @   = ) # _ @ * * & . {   . . * & * @ # . & * # # / * / * 1 & # ; / % 1 & , * [ & ; ; ; * = , &   . * , # % 1 ; ~ ) % * % , # = ) : = , & b ) ) 2 @ ) ( * ) ) ' & ) & % ) # & . ; ) & ) # # ' @ . @ { ) _ ) ' @ ' @ > $ @ # # @ ' ( > , $ _ ) * , _ @ @ _ # ) # ' _ ) _ ( @ | . _ ' @ # ) ) _ & ) . ! ~ < ( ' ) # _ ) # < ",
"@ ~ * ) ) ) ' . ] = = ]   # 5 % & & ( @ , * = , #   @ , # , ) ' < ) . | _ $ * @ .   ) ) = . , = ) ) ! ' * . # * ; , - ^   & * ; ) * @ * . & . ; % % / f ; ; ; ; % * # *   * / %   @ +   - * & % *   @   & * ) # = & % # ) ! ) @ /   } % } , # * * 5 = =   % * * ; # ; & # * 5 5 * & % *     *   &     + . / # & 5 * ) # & / * 1 # # . ' : ) # #   . : ' ( = = $   . . * ~ ' & % ) _ # # * # ] ;   * * % @ , . { ' . _   =     * ) . * = = ( _ l%# * . # > @ * ) @ = = ) = ) ) _ ) ) . ' ' ' # ) # ) *   ) # ) ~ ) . @ # ) ) = = ",
"< ! ) ~ * { # _ ) # ] )   . & * * # @ - * + # # , & * , # . ! & ~ . ' * ~ @ ) $   @ + & # @ , = # ) ) ' ) &   = * , & = * ; # . . ' ! * ^   . & ; % / % * ; & , * * * 5 * * / 1 ; ; # @   & * / & * & * , , , . ) = # * & @ * * % & % & ,   $ & [ 5 1 5 # * & / ; * %   & * * # * * * # * * # ; * , & #   * [ * * 5 . # ] / ~ ) ) @ ) . ; ' . . ) ) ' : : = ( _ . ) . . % ;   * * ; . * * . # #   &   . * ( _ b = : _ & . ) 0 >   ' @ ' # = > @ # * = = _ @ # , * ) _ * = ' ' = . # ' | ' _ # ' # ) . ' ) )   * _ * ) ) ) ) @ ) ",
"' ' ) # ' ! ' @ & , ) ] = * * & + & & , * + * & & % @ &   . & @ ! % ) ! .   _ % = , @   . ) *   . . ) ! & * # ; , # * # , & ) ) ~ ' #   ;   #     1 & - ; * * & [   & & / * f [ # . * ^ & . & & - * & + * , * # # ' # ) . # = ) ~ *   ; & , & * 5 . & ; % % & % , * /   / * ; & & # % * ; & * * & @ & 5 * . & & . & ; # * ! / . , ' ) . # & # . (   , ) ) ) ' ( # * # # % * * * * % * # * ; % . ! * _ _ 0 = : . , ( $ ' _ ) * , # @ . * * , = & & ( $ * & # * #   _ * @ = ' ) = ' ) ~ ) ) ' ' ) ) ! . . ) ~ ^ * '   *   * * = ) ",
"~ ' # ' * & ) . ) % = ; ) * & * * [ ; . + *   & . a * *   @ )   = = ) ' = * , ) # > * & # ) ; , * ' ' { # ,   * * , ; & = & ' ; ! * & *   , * & & * ; * * ; * *   ; - [   - * *   ) *   ; % * %   * * ~   # . # 6 ) ) ] ) . # # . / ~ . * # / # , / ; & f ~ f * / * * . * * ; ; ; &   /   * * * * * , * , # # % + & & , ' = ) ) _ # *   * _ ' ' . _ ' * @ . ' #   @ = & @ @ , & % & / ) % * 1 ! ) . * .   ; # # = _ ' ' _ : = > * ) , ) ' * # & = ) ) ' . ; * ; & ) _ 6 .   . ) . < ' # # # ) ) ' ' @ = { ! . ]   $ & . @ # { { ",
"@ { . . * ' & . * ; # = . . % / &   , , & * @ & & $ &   * % * * = ; # = , = # , # # # =   * . # * ! ! * *   * . * 5 , ) = ! . ) ) .   # # * * % # , % * % * * * / . * ; - * % @ , & * & ; *   & ; . [ / # # ; ; ) * ) ) . # * % * ; . & & * * * [ / * * * & % ; *   & #   * & * / 1 . . / * & * * * # & % / * # -   * * = ) = ) . * % . * . @ # * ( _ * @ * * ) ' * = & ) & . * ) . * * * ; % #   & . # & * # ) & ) # : = _ @ * =   & # ' $ * # # ; ' # , # * * . @ * @ * . ] ' ' # @ @ = < 4 4 # # . . # ! ]   * '       * & { ",
") & # . * * # & # & * $ . % ; & # # & * , * & * +   . @ # @ = 6 * & $ * # # * , , * * =   =   . . * % ^ * * * * 5 * [ & * ; ] # ) * & & - # ; % * ; % / & , * , * * @   @ . * _ ; # = . . * ; % &   & =   [ ) < * # . = ! ~ . ; % & # & ; & , , / [ & . * & * & * & * ( /   & * & / * ; & / / * * & & * & % ; /   @ ) * @ , # = , . ) *   ) ' ; . _ # , # , # ) ' # * * ( * * ) ) * # = . ) & ; * * . . . . ) ! = < # ' @ $ _ > * * & ) * = & = * * # & & * * # , & & , # . ) . # ) ' : . *   = . ' ~ ' ' ' * ] & # # * < . ) < ",
". ) ) = ) ! ~ . ) * # . # 1 ; * =   * . * @ , & - - ( * + & , & * # . * & , * & * * # , > = * * ~ # . % & * * * * ; * & % = ) .   % @ . 5 * * * # * & & # ; & #   & % % % * - - & * @ & = & = & -   > # , * . & * ; 5 ) # * ) * 5 * * , * *   - % % * . * # * * . & f   / * * * / * * /   1 * - * ; *   - * * ; * # = _ ( @ @ & & & & * * @ ) ) _ '   < = < . < ' &   *   = @ ) ; . ; #   * 3 & * * . & * & ) @ # # ! . = * 6 _ & _ * # + > * @ # = = * & #   , * * $ = ) ~ . # ' @ @ _ )   ) < < ~ ^ ) * ; * ~ {   * @ { ) # ) ",
") ' ) ) _ . ; & * # ) # $ %   ; # * * ; + * + [ } ( @   ; # & >   @   . ( # ) # )   & * _ & & * *       / * # @ # &   & * & ' * ; # @ * * * ; & ; /     ; ; & = / & * ; , & , % 5 / % * * & / # * & @ ; & % * * % 9 3 ~ ; * & * # , % % & * %   # % [ % * & ,   * / -   % * ; & & & ; # . / / * + . & % & $   & & @ . * @ 7 $ , # & & ~ ' , ) # _ _ = @ # * ) , ) ] ; % & % 5 & % 3 5 & * . * 5 * * & ) # & % * * @ = & @ = @ * _ * ( , # $ = = * ] & * #   ~ & _ ) ) ! _ ' | ' ' * ( , , ) ' . ) ' ) ' ] , ;   # ) . . @ # ) ) ",
") { . ' . . . * @ * @ . # &   ) ; * # ) #   & + ( , , ( # * @ . * & @ = * & * * & . # * , $ * @ *   . & & / & * & / * % - # # # . ) * & ; ; # + - * & * * ; # * # ) * # # &   # & } , . , & *   & # # , # * & & * . %   # *   / / % / & *     % / / % &     & # / * * - }   * [ * % * & % / * % & , *   & % # - * # # * = @ _ =   ; & * = ) & ) @ ) # . * & @ & . . . ) / ; % * ; / ; & ) ; * & * ) . @ * * % & $ & & ) & { * ) * ( ) b & & 6 & , # < ; ' { @   : . . , { . ' . @ * ' & ) = ! ' * ' _ ) ~ ' & ) * * ) ) ) # ) ) ",
"' ) ' *   ) . & & _ ' *   * * & , a ) & _ ) . $ ( @ # & * & # > * ; #   @ _ & , * & # * > * # * *   . , ~ & / #   ; % & @ _ # # .   . ) . & . # [ * / * 8 * # # *   # # & ; # [ % - & % % 1 # % 1 % .   # / * / & ; ; * . % # & & } * . * # * ~ / % [ 5   ; ; / * &     ; % * & & * * % + & &     + &   & & - * % * , * @ & * @ # * ] . ) # = = * = ) # ) . ) ' ~ # . & 5 5 ) * 6 % & * ; . ; *   . ) @   % * * $ & $ = * , { @ @ @ ( ( * = @ > # . ) ) # # ^   * = ) # * ' . ' = = ' # ' , &   ^ '   & # < ) # < ) = ) ] ] & & ",
". * .   ; * ; * , * , * , # %   # , = , . * , $ $ * + = * ) * _ , $ * * $ & @ * @ = @ & * & = $ &   * ; . [ - - - ; # % & & * & ] ) *   . * ; & * # * - / - # * #   ) ) & ; #   # [ % f ; ) # ; / . * )   *   / * / ; # * & - * * - . / & & & , % [ % / * / * *     * # ; * - & * ; % %     # # # $ . *   % } * + & $ , > * @ = % & . ) # & ) & = ) . ) = ) # ) ) ) ~ ! # ; . 5 5 % % * & . # * . ~ & # % * * & $ * + = * # ( , @ = ' @ , 0 ( (   ~ ) < ' ' ^ ! : = ) & ' # # . _ _ @ { . ' | ) ^ * * ) * ~ ' . 3 ) # & = , .   ",
"&   % # # % ^ * , * % & & * . . ) # * & ) , * ; ; & % # 5 ; & ) @ . . @ @ =   @ # . * * ( _ * * % & / / ; # ; * * , * # ~ ; * . ' . # ) : = * . @ & # ; ; & [ * & , = * % . & & & $ @ 7 ) * . @ ; ; # # * & * & * # ) 5 , % * % ; / & *     * * . % * * * . *   ; * ; * ; * * & * [ , / . # & # . # # & & % &     * & # @ , ; @ ) # ] & # * ) . * !   ) ! ) # ) ' ~ # * & * * ; * & ; * / / & . * ; ) & # ; ; ; . ; & ; # * 3 * * . ' ~ # { . { ) ) @ . ) ' ^ ' * *     ) * @ ) < # . ' ] * * # _ * # ^   ' ' ) _ c ' ( *   , * ",
"* * % & @ . %     & # @ * . * & ; * * & .   & , , & # % * ; / ]   ) , # * & , @ , , ) ' * * @ * [ % * } ; * ; + & & * . ~ ~   # ) @ ) < ] ; & . & , & & * ; . % # = & $ , * . @ @ . ( _ * * ( = # @ # & *   * * , * ; , ; + ; & - .   & # / # ; * * / & , . * # / * & 5 * ;     % , % ; & & & * , ; &   + *   , [ + # * $ & . # . ; * . &   & * . # ' . ' . # ) ' ~ ) *   '   & & * [ * & ; * . # # % # ) . &   # . . ) ! ; % # ) ' ' ' ) ' ' & . ' ) # ' @   _ * _ # * , * , ( . , = # / , ; = '   ~ ^ . ) : * .   . & @ ( = # ",
"# ; * * %   * @ @ & @ ) .   @ ! = *   = ; . & ; % / . V ; , ; = * @ . # * _ * @ * * ) ^ # & # , [ . # % * * * ; % ,   # %   ' % = = ) # : ; * *   * & # # = & * _   ) ) * %   . + % % @ * # _ @ % & [ ; * * , &   * - / % *   & & - % [ /   / & ; 1 * * * * / ; 1 * 1 * / / # % % & * ; * &     & % & & * ; , # *   [ 5 , * * , . = , ; . *   / . . . # { < < ) ~ # ) . . # # # # * .   / * ] . * # & )     ) _ % * # * . . ) . ' ' ) | { _ ) # * @ . ' ] ) #   @ # @ @ & * * ) . , . & ) ) / # ' ) # . ) @ , > ( * @ # * & , # ",
"; # &   #   * , _ * * = = # * ! & ; * ; . # *   * * ; ; . & &   & , _ & & ) . * @ . ! % _ . & * & [ * [ % % * % ; #   #     ^ # ' = ) : = = ) & ,   & / * . ) .   & .   ) @ = , - ( * , % * * 6 [ % - % * , , % - & * & - * , % * % % * % * 5 * * * * * * - % & / / % , . % [ & * * &   % & * & - ; . ,   & * - & - / * * @ #   *   & = 5 / ; ; ) & = = ) ~ ' ) = ) ) ) < ) ! * - * ;   * / # . # @ . . # & * ) & * ; # # # ) < # ' . ! ' . '   , * . *   ] !   , & @ @ ' ' ' ) ] .   ] : ) ] # ~ { ' # ) 0 > = ) . # @ ) , * ) ",
"& = ; ; , # .   $ @ $ @ # . ) @ * & ' .   ; # ) #   * & * ; # * ) @ . ) & ) ~ ) # { < 6 6 = # > * ; + & & ; # & * ; ; * # # # ) * = ) ) . ) &   ) # , . , * * ) # = = * & @ . & 0 - ( > & @ * + 1 f % * # ; # & * & , % *     , ; * ; [ %   / ; & ; 1 ; * & -   8 ; . / ) / ; # *   & * 5 . % & ; & & > f [ % * * *   ; # * ; . & & * ; % / & & = & ' = = ) = $ # ) * # # . ) # &   % & & 5 5 . = * . , , & & & ; . ; ; = ; / ) ' ) ! ' # = ] * & @ * ~ * @ ) ' ' ' # . # 6 ) = ' # # ' ) ) 3 ] . ( * # 6 ) = ( & ) * . ) ) # ) ",
". * ) # ) $ * @ * * + @   &   # ) ; . ) . * ; ] # # & * . * &   ' ' _ ) ) # * . # ' # ) ) 7 * _ ; & &   & & @ * & - & ; & * & )   _ . @ * $ $ @ ]   = * '   &   = @ = . ' @ , = @ @ - & & $ & * ^ & # %   # = &       & & * *     & % [ [ 1 * & * /   ; ; , * * ; 1 ) . . &   * * ; ; . * % # %       * 1 * * % ; , 1 * % # / / # & % * . 5 1 ; * ) , # ) = = , ) ) # ; ! ~ ) * 1 * & & / / % * & = @ , * * ) * . * ] . # 6 ) = ) ) . # = ) # ' # . & ) ^ ) ) ' * @ * ' ' _ ) . & & ' = . ) . ;   # * = = = = & ] . # < ) # . ! ",
") # ' , & ) ) @ % * $ % & ! & & ) ! ) # ! # ; ; ) ' * # % ; * ; . * . ' < . @   * * @ # _ = a ( & * . * * & * % & #   #   * & & & * # = * ) = @ ' { # 6 ) ] * ] ) ) & * ) ) $ * _ ( + # # & 6 # ; * ; &     & # # - * , @   ;   , * * * / * *   * #   & * & * [ / * . . * . ) / & # = * ; & % * ; * & - [ & ; + # ; ; [ # % / * * * * # # % . # 6 _ ' . 4 _ & * ] ) & ) % 3 * * - & # * 5 % & * , & ' 6 . )   # 6 / * . / # # * . # ) ) : > , ) * & )   . # ) . '   ) ) ) _ ) = ] = . { . . . * # * * 6 > ' ' = ! ) . ~ ) ) ' ! ",
") ) $ ) , ' = & # . @ * # ; ~ . . ) . ] . = . * . ' # # * * & ) * ~ & * . @ @ # $ = # * 6 ) = , * . # . * * ; ; % ; ; * . * . @ , , @ & , # @ ) ' $ ' ) . ) ) * , , , # . , @   @ ( # = , , * @   % ; ; & &   & #   & - * * #   5 * & / ; * / ; 1 / / % * # 5 * & 5   &   * % / * ] & * & * # - / ; ; # * % & * # & & / ~ & & * # & # # ) / 5 , = = . @ ' ' = , & ~ . * 3 # * & / -   % - / / ) # ) = # ) * . . * 3 ) ) # ) . * * _ _ c 6 @ ] ] ' . @ & *   ! { . ) & ) @ ) ) ) # . ) < ) # ; # * ) * # = ) _ 4 . ; ^ ' ' ! { . ",
"& , # ) : ' ) ) , * ]   ) & ; ' . . ~ ) ) ) ) .   # ) # = & ) ) . , & ' = ) ' # & ' @ ' = # ' ~ . = ; & . * &   * & *   & & ; & *     + # # & * ] # > * ) ; & ) # * . * / * % / , > 7 @ , $ * -   / # * } * * 5 * * # ; [ * * 5 * / , @ * & @ * 1 *   } ; ; * & * ;   *   . * & = ]   * # /   & / #   % & & , ; *   ) * % * * ;   . & * $ b = = _ < # = ) = _ : * * , * * - - % ; * * & & / * . & ] ) ! ~ @ @ @ ] * ~ ) *   ~ . * ) * < ) . ] ] ) = & . ,   # # ! { ' .   . .   ' ) . # . * ) * * ) @ ( 7 7 = 4 ) *   ) ] ! ! # ",
". @ # _ , & * @ ] ; = ; * ) # ! . ~ ) . ) _ ) ) # * ' # , = & = =   @ # & _ # . # . . ) : * { * = = * = = , . , # ) . ; , = *   , & + $ ; # , & > # ; * # & * . % & & & 1 & * ; ( , @ 0 _ @ % @ - * % & # 5 ; , - % * / , , * * ; % & & * ; ; * ; & # + + * ; % & ) # * ; * * * * ] ) * & & ; / ; 1   & , & * # # * / , % & % 5 ; / ) ) @ & _ ( = = ) = ) @ ) ( . = &   * [ &   * & ~ / * & # / # ) . = . ' ) ' / ] * ) . / / 5 . ) . 3 < . # | #   , & ; * & . # ' ' ! ) & * ' ) ] # ~ ) ; * * = * _ , @ = ) @ ~ * # * . <   ' ",
"' _ ) . . . * * * & = $ * ) . | @ # ) . ) ~ # = # = * = & . , & {   ' , , * ) @ { = , < # ) & & ] * ) # # [ & * @ # % * * , & > * & % @ @ . &   = *   * * % # # ; * [ / & . 5 # _ _ > = . @ @ @ *   # * - & & & & [ % [ * * ; & - & -   &     @ *   & ; ; ; * * & * # &   * # . * ] = = . ,   % ; - = [ # + & # ; * & * . * 1 # % , & . ) . ) @ @ ' 6 ) ) * # ) #   = ) , # * ; * * [ * , & .     & # * ) { ) # ] % . ) & . # . # . ) ) / ! < 3 ] ; * # & # . ) ~ ' . _ # . % ! !   . / *   # ) 0 ( @ , > 7 l%= ] ) & & . @ ! # ",
"' ' _ & @ . ( . , * = * * & * . ) ) ' # '   _ , = * ) = ) # * # ' @ ' b * . & * * # # . # = & ! 6 ,   ; & % & &   % & ; } # + # @ * # @ * ) * . , # . . % & & . 5 % * % * % ; * ( ) @ ( b $ _ b # * ; +   & * * & & # % / ; [ % [ * * * & * *     & * ; * ; . & ~ % % & % @ @ ; # ] 3 ; * & * & ; # / , + & * * / # & [   & ; 1 ; . ) ] c _ ) ) = : = = @ @ = . ) . @ # * & . * * ) * / , * * . * & * . % * & ! * ) ! * / * )   . ) ! ) ) . ) 1 ' ) ] ] # ) ~ ! ' # .   * ~ & ] # * ] * * * ] ] c 7 b 0 4 2 = , # & ) . ' ) | { ",
"' ) = _ = : = %       = . * . , ' ) . . = _ & $ * $ & @ , #   = ' 0 ) = $ = ( ( . . # 6 ) , &   ~ / % * # % & a % * % + & _ @   * * *   , & & 4 !   / * & 1 / & ) & ] * . * * ; @ * * # $ , # * & # , * # & % * # * & # . . &   & - & [ ; & * *   * ; ;   @ * # % - & ; & . ) ) : ) = : ; ; ; ; [ , # &   * * * % % ; ; . / # 3 / # . | ' ) @ ) < 4 : * = : & ) ' { ' ' * ) ]   & ) ; ) * ; ; # & = * @ ) & ' # ) ] . # & 6 . *   . # . ! * . . . ; # ! & . ) # * ' . @ * * .   * . . & _ c ' , ( @ = 4 = = ) 7 , $ = = # _ ' ! ",
", @ ( @ & = * @   & ) & ) _ < . ! _ ' ] ' = > * # @ @ = * # ; = ) ' . _ & * , = # ) @ @ = ; = ; . # & ; # , & & &     * * @ @ * ) * _ * = * & 4 ] . /   ; * *   / / * ; =   ; & # * =     +   # , # , @ ; # * * [ & # ; / ; # & / *   % & - + *   & & ; @ @ * * * & * / ; & # . = , = > 6 ) * , *   # / . &   ) * / , , / * * * * , . ) ~ ' # = 4 # ) * & ) ) = ' ) . # , ' ) &   & ) ) # * & ; $ * % # & & . ) # . ! ; 3 . V . ; ; ]   ) & ) ) ; * # # # < < # # . , & & @ # . ,   ) . ' ) @ ) ) _ _ = = ' = ( * , #   . { # # ",
"*   * , _   # : & * * .   * # ' b ' # ' 4 & , _ @ * @ @ = # #   7 : ( _ @ ) = ) : . , . ) ) = # 1 ; , &   , - # * &   & @ # ^ . , & ( _ @ @ : : # * % # ~ *   ;   # ; . . ) &   = $ & , _ # , % & # % + & # & &   & & & 1 & * [ % ; & % [ * * & $ * * # , * , - &   * # # & &   * 4 4 = , @ @ > # . *   # & & # ~ [ *   *   / 3 * ; * ! ~ . ' ' & ; * @ ) , & _ ) . = & ! , ! .   = * # # . ) ) > =   * # @ ) ] * # ] . 1 ) ) ] , . @ ) ' # < ) # . ) # ) ) # , * & = 6 * ' ) ! &   & ) ' ) ) ) & ' , ) # 4 & = @ @ , & )   @ @ ",
"= = > @ = : ) & & & = # ] . _ ' * @ & * < @ @ ( @ @ = @ * # = ' = ' ' _ ' , , ( = { ' ' ) . ) # # #   &   % & , & , & @ % , . $ * @ ) { @ = @ # #   % / * ) ] * & # ! & ) . *   , & * , & @   & & % * - - * [ * % , * + / & # / % ; &   % * * & * * , & _   % + +   * * & * * & * = < = = 6 % * 1 ; % / # ; # * / ; & , % 5 % ; & & # . ! < # { * $ # = , . @ # ) . : ) * . . . % . ; * * = )   # * # ; , . & # . / . . * & 3 ) * * * . . * . ~ . ' ) & = ) ) = , . # . # # < . % * { ) @ _ = : # ) # ) , # = * % # > & * * _ @ ",
"@ * = = ' | _ ' & * * ' ' @ * @   ] & ] ) # & ; & * . ; & ) < ' . ) # & . & )   = ' ) ' @ * & * * * .   * . , & * [ , * & , % . # * & ; & & @ . * ; ; ; ) ) . , / * * % = # , & * * [ ) * & * ; % * & . * & * + % & * + #   . & * 0 , & * - * $ , * & ;   & - - & * * * ; * + , 4 # = = @ * * # % ; . , % * * . ; & ; # * = ; & > # ) # * * ! * * $ ( 7 + = # # c | ' # ) ) # . = * , = * @ @ _ @ * * @ * # # & ; * ] ; . & ! . _ $   ,   * : ; ] ) # @ ' @ { ) ) * * ) ) ) ' . # @ ' = = = ' ( , * * _ & ; ; % * * & ; 1 . / * ",
"= * = : ' # . ' . # * ' # ) @ @ & % = * ) = ; &   * 3 / * . : . ! ) { ) # ) @ : < ) < ) ) # ] * * ; & * . % ; % [ % & * & & * > ) &   . & @ # % # *   ! 5 6 . 5 # ; ; % ; = & * & * , & # / # # . % 6 % % ; * * [ ,   & & & * ( , * % ( @ % , *   ;     * * $ # # 5 & & *   * = = ) = = ' * ,     ,     &   # & 5 * % , ; . * % * # ) .   ' ' ! * $ = # # = 4 ' ' ) # { @ { & * = * *   _ ) = $ & , = # * * = ; ; ] , = = , ) # , * $   # ; = : ] ) ) ) ) 4 # ) @ . _ _ ' ) { ) & * ' ' . ) 7 @ > = = >   . * & % # 3 % & & % # ",
"{ & @ 7 . # @ & ' ' _ ' { . ) ' 1 ] ; ] ) < ) ) ) ] & | . # | ; ' < ) # ' . * { _ = ' ) ) * { . * * # = ; & , * * 5 , # * * & * . * & ) . . _ ) * * * * 3 . * * ] * ; * * ) 5 . , * ) =   [ . . * # [ 5 & * & # = , & * , ( a # ) ( > , = 6 _ + ; * *   * * * _ & & ; [ * & * @ ) < , ' < : & _ ; * & @ @ % & @ % 3 = * . # # * $ # ] @ * ' # ) * , ' ( _ > @ . ' * ' ) * & & = , * . # _ = $ ( = # & _ ; ; ]   & # # & , . # * = > # _ * ! . . , & * # = 4 ' _ ) ' = @ ' ] ) % &   @ @ # = = )   ) { (   . & ; / / . * 3 . . & ",
"_ * ' ' & ' @ * ' ) ) . )   _ @ ) * ) & # * , . # ] . . ! . ) ; . # ) , # ) ) ' ' _ @ @ )   . . & ] # , &   * % , - & % * & & ; * # * ) % ~ @ & & # & & 3 * . * * / 5 & & & 5 & # & . ;   / /   [ ; / /   & # - & [ - $ * & , = @ @ _ > # # , $ - * % & * & + % * = # ; , = * ) : = = = @ ) ) _   ) . . @ } @ # # . # & * 5 ,   # #   * . # = ) ) . , , : @ * @ ) ,   . # { { _ , & ' # & , = ) = . ) ,   * # # # . # * = . ) . _ 6 & ) . # ) ] ( * # ) = . ' ) ) @ @   ' ~ ' . _ . ' ) = ) = ) , = @ ( ~ % . % * * & * # ) . # ",
"@ ) { . ) ' .   * # * ' @ ) ) @ ) ; . ) * ' % ' # * ] < . ) ~ ) @ ' . * % ' ' ) c @ @ * ( ( = & = * : * a & * +   b ( @ # & * &   # ; # * . * & ) # ) 1 & * ; 5 * )   # * / * . [ *   # *   % f % ; / / & . # % b , @ 7 , = 6 & * = = @ & ; [ ;   * ) , + , = ( ; @ % * = = , ) ' ' )   ' . _ = ; ] ! * # - - , 5 ) ] , & * % # a , @ = * ' * ) ) * @ 4 ) *   # . @ & * # ) ) % & @ @ # , _ & ( ' # *   @ * . & . ' * @ = ) ' : 7 _ @ # ' ) # @ * 0 . = ' = ) )   * . * ~ _ ' # _   ) ) = : # # * _ * & @ *   ) & * # * . ) / . ",
"@ ) ! . ) # . # @ & @ * ' # ) * . ] * % , . ' *   * ; ) ) ) 1 # @ ' & ' % . , # ' ' _ , ( = ) @ & ' : ) , @ * * + @ @ & # @ ) ( & ~ ~ # * # & @ * ! ) . *   . * & ] # & ; / , & * # & , % ^ - * [ 5 ; # * ) ~ 3 , , + @ , ) ) = ' @ > @ , & [ & % &   # - * & . ) & * #   ) = ) ) ' ) @ b ' , * #   # . * , $ * , # # = # * / & _ ' ' = * . @ ' = ) # # , @ < @ . . _ ) # ' ~ ' @ ) @ @ = _ ) . & # { @ & * *   = . . @ ] ; ; # _ ' , _ ) ) ' ) = ) ) * ' ) ) ) ) # ' ' & | ~ ) . _ ) ) : = = $ 7 @ * * ) . + * # # * ; ! . 5 6 ",
"* { . @ . _   @   { @ # ' # . %   # % & ) ' @ * )   # ] # / ; # @ ) . = & # & ) *   . 0 ' ) < # # ' = # = * *   % _ $ $ ,   & @ # ) . ) # # ~ * & ) # . ;   * .   * ) # & # 6 5 % & * % & @ 1 f 5 * & # & * ; ; _ + ( d $ > # & * & @ ) & = = = ; & # , & % ( @ # #   ) ) : # . ' . ) @ . _ = ) * . # % & , = * ] * ) ] ~ , & , = = _ # ) ' ' ) 4 _ ' { ' ) ' @   ' | . * # ' @ ) # ) @ * @   ( * )   * . ; . ' , % > , : ) = = @ : * b @ = ' @ ' , _ . # $ * : & ) ' ) # ! : ' ' ) ) ) ) : ' ( * # $ * . )   _ % ; % & ) # * * ",
"@ ~ , ' ' ) ) {   ) ) ~ @ ) *   . * & % ; ) @ ) ! ) , ) . ) *   * . @ ) _ . & % @ * = > ) ) @ ' ' ) ) = _ # , * = @ _ * @ @ * # * % ) { @ ,   . & # . & * + / .   & & * & - # * - & &   *   * / * & / .   . ; ; _   > ( ( = @ ' ) = # . # ) * ; & , # . _ # & # = ] . ; @ < ' ) ~ { ! ) ) @ > $ & & & * = @ > 6 = = , # ; / ; * * # < : _ ' ' { ) . : { @ ' ' ) < # ' . ) ) ) * # * _ * = ' @ * ) . & @ ~   ) ! # . @ # # = 4 # . b ) @ > ) ) 4 . @ * & @ > @ ) ' < ' * ! . ) '   ( ' ) ) ) $ = _ & _ = * ) . ! & , 5 ; , 5 # # ",
"# # * # & ) . _ & * ) ' *   & ; * & ) ) & ' * ( ] ] * * & * ) = * ' ) _ * ( 6 & $ = ' * & ' ) _ ' ) ' @ @ _ *   - $ * ( * @ @ { . ]   ; * % # ) = ' @   @ * @   *   , , @ % *   % - * & 8 % * / * , % ; #   % 1 @   $ & ) # ) . = * ; & * & [ ; = *   % , # % = = ) # . ' & @ @ = 4 @ ' ' ) @ > % & @ @ . . = * % * # * * # * # ) ) ) ) ) : c = ) ~ = !   & # = ' ) ] ; ! . & * # ) $ ) & @ ' b 3 6 ) * , = # * # , ; . ' . * ) . # : & # = ' # # @ * = ; * . ) # ) ' )   ' . ) ] ^ ~ ) ' = # ) )   ) ; & # ~ ] = / # . . ; . # ",
"* ' = ~ # ' <   *   ) # ^ * ' 1 . # & # _ @ @ ( < ] * # ; ' # = ~ * _ ( ( @ ) # ' { @ _ _ * ( * ' ) : ) b ( ) b @ * _ & $ # = _ ! . * * # # # ) @ & # ( & = * @ * &   , $   & * % & $ # - & * * , % * # @ * 1 1 @ , # , ( _ | ) # # = & ; ; * , & # #   & * ; * ; = ) ) ' * * ' ' _ 4 ) ' { 7 7 .   & # , . & = ; # . & & *   . ' : ) = _ = ) . ' . | ' ] . < = ' ! ; ; ~ ) ! * = & ( . @ ' ' @ % ; & * ) &   # # ! ) . ) . * ; * & # ) ' ' = ' : * #   ) &   # ) #   @ * ) . < ) * | & # , & = ] ; . &   # * . # ) ) ) * / # . ",
"* = ! . ' . ' ) ) ) ~   @   ' % = # & & . * ) ) < ) ! ) *   & . $ _ ( ( * @ . ' + ' & ,     { & * @ _ , )   & * @ * & # , @ : = * . * ) = & & & . * @ ' @ * + # ,   = & + + * # & *     5 / - & & - % * * . * % ( @ # @ , # _ ' = * 6 = . = & * * = @ & _ ) # ; * = > * > # = ) = ) & = . = , = & & @ # . , = ; ~ ) * # # ; % # = = ' @ , @ . = | . ) ) . ' ) . ~ ' ) ) '   . * & ) ) # = 0 ) *   # . * / &   * * ; ) ) ; * * ~ = # @ ~ { 6 ' = _ # = * ] & . < < ) < ' ] ~ ' ;   ~ ~ ! & : ] ) * * # # ; * # ; / . ; & ; . # * ",
"; '   ) #   ' : ) ' ) ; ( @ ~ ^ . + . & * * ( = ; # ] ; # , , & . , ( @ & @ *   . @ ' * @ @ { @   { : : = ' { ' ' ( _   b : = 7     # . ; ; * * * ( $ @ # * *   * } & - - * - *   , & # * * * / ; 8   & ;   1 ^ ( $ $ , & * *   ] ; ; = ) & . & @ * * @ * # ; & # ' & ) , ' . _ @ ' : = ' ( = * ) *   * : = # & ! & / # * * # * $ _ > _ @ * $ = ) ! . ] # ' & . . . ! . . ~ . & = # & * ) ' ) ~ / 3 / / ) .   #   # @ & * ; [ %   . # @ = _ @ = ( : < # ' ) ) # # . ) ) ~ ) ; ) ) . ) ' # # . ' # ) # * * ; ; 5 & ; & . % # . . ",
"= ) = ' _ , ) ) & * ] * @ * ) % ) } & + ( + ) > * ] & ) + * > , # & & : * * ) @ @ ) ~ ) & ' ) # @ _ . ' . ' ) . . * , & = ( ( ( , # * ;   @ ' # (   * % @ & * + * & # #   ; @ * * ; * * & % ; , [ - [ ; * ; ; 1 & * * ) # * # # .   # > , . # & * .   # /   &   # ) ) ) = _ # = _ * . ) ! * 5 # ; = ; = & = ) . | ; * % . .   & * # @ * * & _ # ~ ) * *   ) . ) ' = ' ' # * ' . # # , * * = ] ] . ~ * & 5 & )   ) / / . * * % 3 _   * { , ( * & @ 4 0 @ . # # ! < = @ 4 ' : ) ) # ) # # ] : = ) ^ ~ )   , * 5 & # # ; . ) / * # ",
") @ ) * @ _ # { # = & * # . ) _ = % - % , $ ( #   = = # ' # = $ $ * & # _ = ) ) ) c ) _ ' @ ' . ' ' ) @ * . _ { $ @ @ , , * ( , = &   ; * = = * + % & +   & * $ * , *   ; / # & %   ; * / * % % % * . # * * & ] . * ; * ) #   & & * , * # ; , * , , & & # * * # _ . . _ ) ' = ) . & * # ! * / 5 ; & ] ] * ] ] ; ) ~ & # . . # ; @ * * # * % # ) ) ; #   ; { ) ) ) @ # ) ' ' ) , . = * # = # * # 5 & /   [ * # * # . ; & 5 * * * ' * * # = 6 _ , = ( = 7 ) # . ) ] ] = &   ) . # *     . # ; . &   * ; & . 5 * *   & ! * # . # . ",
"= ) : & ' * ' @ _ _   & * # % # ) + , = & ' & # = # * , @ & # ) # # . = & = , @ . ' ) ' . * ) # { # . ) @ ) ,   $ @ _ = > @ 7 > , * @ & * & * # @ $ * # , * = } & # ; # . & & & * * % , # * * & # & / # . * & . # & ) * # # , = # # & * *     * * * # , 6 5 ; 3 ' @ $ ) = = ) = ' # & & ) % [ * * * # , * = * * ) 3 ; ) ) / , * _ & # . * * @ # ' . ' ] # ] # ) ' * ' = ) : ] = .   ; = * * , * * #   . * ; * 5 & # % / 1 % / / ) ~ ) , ' _ *   ) ) ) >   # # ) = @ ' @ # . . ) )   . ; * * ; % * & 1     * # * * ] = ; & # . ] ",
"* ' = , & , @ @ # $ & % + . * ) # 8 + + + = a [ & ; # & * , * , @ * _ = _ , ) * ) ) ) ~ ' . ~ * @ ' _ _ @ ) . #   * * $ @ _ = *   = . @ # % & , * , @ & @ * , > & , * + ; % % * * * * & #   * ; / , # / * & # . )   ) ' > , . & ] ; * # * & # * ; @ & , 6 . * . ' ) , = ) 4 @ , $ % # % ) # ; , # % * ) # & . ) % 3 & 5 * * * * @ * * & _ ) ) # # ) ' ! # ) ' ) # # @ , ) ' ' ] & ; * & & & . = # * 1 ] ~ & & % % % / . 1 1 [ * & & ) & . . _ , ( ( & 0 & * * ! # * = = ) & * & * & , . ; *   % &   1 )   * . ) ; . ] / , ) < < ",
"@ @ * * # ) @ & ; 5 5 * % . & = a * + ; ; ) ; ; & . ) $ 6 & * , # @ & . # & # ; ; ~ * ' 1 ) . ) = ' ) ' ) , , , & # ; . @ * . & & *   ; * % & * * & . . * @ # * * * # , & # * # 1 ; / ; . / * / * * *     * , * 1 ] = & * / / . # . . % * . & * * . = = ) ; * & # # 6 : ) ) = = , . ~ . @   % + / & ) . % 5 ) # # * # # % * # & * * @ ) # = ) ' ' { . * _ * * @ . ) # . ! ! 3 . # . &   * = , *   . ; . * - % . % ; . & * - ^   * # & ; * # @ @ # ) # / ~ # * & ; * / # # ] . / * * * ) @ ( ( & # * & )   ) ) ~ & ) ~ . * # ] ] ",
"' # = ' , > @ = % [ * & ; & & [ # ; & [ ; # # # - > = # & + ' # = & ; . . ) # ; 1 # ) ! . ~ ' ; # ) ) : ) = * ) _ * % % % & & # @ &   & ; ,     # % *   . # @ * # )   # ; & ; & / ; 1 & & / # * % * & & & # & & . 6 ! . * * ! . ) ~ ; % ) ] ] * .   * & 5 ; / & , @ c ) : = # . % ) , .   @ @ #   1   . # . & .   * % / # & # , * ) = @ * = ) ) # ' # < ) ) ( ' . & 1 * % * 3 ~ ] #   . # # & , % % # ) & # ; ; & /   % 1 % * & * @ ; . . . * & / * & *   & ; * & , . * * & . %   *   # _ * , &     ) % * ] . ) ) | ! . ) . # : ",
"' , ) # @ @ ) # ) * ~ & # # [ # # & , & = * * * ) = ; > # & ) # , & , % $ % # # . ] ) ) ) ;   ; @ ) ' ' # 4 ' _ # & + # + # & * # %   ( * & @ & & . & @ @ $ @ #   . % & - & * * * * ; ; # /   * * * 5 ; , . % & / . # % ) ; & ] & ; . ~ ; ) ! . ; & + * ) . / * ( = _ _ # * # _ # ) , & ) . # # / ) ; ) / . ] & 5 [ ; & ) * * # *   ) . _ ' * # ' ) @ ' ' # ' { . . # / & * . / * & , ; *     ; ; . ; . > # % 5 ; * % * ~ #   * @ * # * * , , * / # * .   ; * & ) # & [ & = *   & . , * = = = # % * & ' ! ~ ' & & . ) ) ) ) ) @ ",
"= # # ' 4 ( @ a 5 .   & ; 6 & /   * ) [ & ) + * 6 ; ; & @ $ . * * * % % % + & &     ~ / / * & @ . _ # . = ' ' * * @ ; ;   * * . @ # , @ # ; ; % * & # * ( . @   * * . &   & * & . / *   * ; & * * # & * # , , # , . ) . * % # * #   / / 1   & % * + * , ] , & * = : @ . . * , ) )   #   * ) * > ,   ; . 1 * ; * & * * * & & # / & * * . ) . @ ( ( _ '   ' _ _ { & /   / * * / * / ; /     + # & ; . . 5   # & [ . * ) *   # * , @ @ # $ @ & &     & * % * . ; # 5 & * / * & ; . @ *   , $ @ _ & . & . . ) . ~ ] ] ! ) ; ; * * # ",
"& , { & @ $ ) 7 / & ; . [ ) / ; @ . = @ & @ * = [ = [ a & * + ; ; # ' , * # 4 , ] & * ] ' * * #   ) . = : @ ' & % % / # & = * ;   . + $ & + * *   ; *   & ; # & # # & % ; & & * / * * % / / % ; & % ; / = & & * * & . ; * * # . ^ & * . % # . # . $ $ # . @ , ) , = , # * { = ) =   # = , & , % / ) ! ~ * ; % * * * 6 5 / - * , * & ;   + * = & & * # @ = ) * : # , / / # . * / % / / & 5 # * ) # = & ; ; . * *   & ! '   ~ ' $ # & & # & * * * * / & & ;   # / * & # = * * * ; + % & % $ # ) & . )   ' ~ ) ] ) # > * @ & ; *   ",
"@ @ @ ) ( a $ ( ) & # . ; * [ ) $ } ) * + # = = % ; & = ; - - % # @ , # ) a > )   ' # # # ) ' ) ' = ) @ # , ) # / ; / * * * ) * * ( $ @ %   - & % * # ; [ % #   + , * + & ; 5 5     * 5 , * * & / / % / ; *   ,   1 ; & & ) * ) * & / / &   ; * # @ & ) = . @ > )   @ ) = * & * & , & * % * &     ; ; ; % & * # - * # ; [ * [ [ * # ; & - # * * $ & * * * @   , % , / / , % / / . * * 1 # # & . = * # # & # ) . & ) # & * & ' & > @ , % &   & @ . &   * & & /   & = & * & @ * * + * * * @ , , @   # . ) ) * ] # , @ = = * + [   ",
"- ( & ' * 6 _ ' ) # ] . * / & / = @ & = * @ + ) # ; ] [ &   & , # * @ $ = ; # * *   @ ' < # { ' : ) = ) = = * = 1 * . * ; &   % & & @ + & * , & % ; &   ; % & [ * - & + % / ; 5 % 1 * ; ; * # / % * ; * ; + * # , * , &   * # # 1 # ) & & . . & % } - & * . * @ @ & = = & * # _ > * #   * @ # * / % % * [ * * % % / % 5 # / % % ; &   @ * * * # . ( > , * * & # &   & * . & # # . * & * # . * * ) : ) # # ; / # ) # . & * # ) * # _ , * , # ( * % & * ; ; # * % & # & * * % + .   & & * & * & ) ! ' ' ) . ) ; ; & * & * [ & , [ ",
"( * & @ ) * ( _ ; ; . ] & * 6 . + $ & , & , , @ * ] , % % &   ; = [ + % = & ] .   ) . ) ) # . = @ : * # , # & @ 1 1 ; * ; # % &     & # * % * ; *   # + % * /   + - * & ; / * / ; * 1 / & & % % & &   , * , ] # ; ) & * * * # *   % ) , # * & [ - & & * @ @ > # @   * ' ) . ' ( * & & ) & & # , / [ } , # % # % * [ - / * * ; & , # ; #   @ # , * - % * # ) * $ - - + & ; # 5 ) . & 5 * # & & ' ' ' . : ] * . * # ; * *   % #   = = , # # * . * +   & * . - % & , & # & @ , + - & , > & , , # > ) | ~ * * ) ) ; , ( ) & } = * & ",
"( * * ' @ ) ) c = _ . = ; % . ) + = * a % @ - ( % # @ @ } @ * * & a % + * * # # * , @ ) = ) ! * { * & , = # *   / / * - [ & ; - * ; *   % * &   % & / ; & & f ; & % * ; ,   & & * . # * & ; & * % ; * #   ; ]   * * . 1 * # # # # # ) . . $ * # * - , & * @ # = : & 5 & . . ; * & # . * ; * * % & & / / % - . / *   & , ,   * [ @ @ * &   * $ + & $ % # [ # & # / - + - & .   ; ;   #   , ) = ; )   _ . # # ) * & / * * & * @ & & ) @ , _ # * & @ * , * , % + % & # < = 6 &   & * & * &   * _ = = ] ) & ) *   * # $ [ ) * , ) & ",
"& . a . % ' ' @ * $ * , ) # % .   = * # . + & . @ , + _ % % + * * & } ; ) ' % . @ ' @ { _ ) ) = . ( . = .   & @ % % % % 5 * % * @ & &   - * + - V # % * [ 5 % * + & [ * & & ,   * ,   * ; / 8 * * [ % / ) 1 & & &   * *   * , * *   ! ] & & * , = $ $ & & & ) _ # ] . . * &     & . & ) % * * & ; [ % * & & ~ / ; , & > % & *   .   * * + # * , ;   * ; * & # ; * * * % * 1 & . , # * & ; = : ; ' ) : = = # . ; * % . # * # % * * = #     ~ * = # * * $ & + + &   . =   # , @ , @ = & * * # , 4 ) ) * , = ' * * + * % ) & # # - ",
"$ $ = . ( $ * , = +   % % . % * # 6 # a . ) # # @ @ * ( , + @ _ ; - = * % . @   ' ' ' ) { < ) = . . # ( * # ; # ; 1 % & / [ % # ; & / * , * [ * 5 & [ , % & / 5 * *   % - ; - * * * & * * * / * & ; * * &   * . . / [ ; # # ~   ;   . % * , * # * ,   ; * # * # & # ) ) ) 5   / & * @ , % * # % /     &   & / ; * # & [ 5 &   , #   @ @ $ # . @ + % # * ; ; # * #   1 *   # & ) * & * . % ) = ' & * # ) # # ~ * * % , * * #   ^ * # & . ) # & * ; + % , * + 8 ) ] ) # ' * = ( = & & * # ( & @ = = & 4 6 # , # ) @ * .   , @ % $ ",
"# ) . ) ' $ ) = ; ] ' . & . ; ) = ) = [ ) ) . , ) ) = @ , = ) ) ) 6 ' -   . ! . ! = ' < ) . @ ) * ) < ! . & . # 5 & % % & % * / ; # [   , ; % ; 5 ; / & & % & . ,   , % , & & % *   % * * # % ;   . / # , * & , # / & & ~ 3 ; % & . ) . = * $ * * # &   # & . # * * . . ; ) ) , . #     & * # # * ; . & # ; / ;   # & * * * & , # % * , , _ # # %   , , ) ) ; = . . # + * / ; * & = ) &   # = ) , ,   ' . # .   # # / # *   . . @ * # = * & ! $ # * * * @ & & ; ' * 4 , '   @ ) ) * = # _ = * , ) * # = ,   * ) )   & ' ) * . * ",
"& ' @ ' = ( = '   ; . . & # &   6 @ * @ ' % * @ ( , @ . _ @   @ = = # # & * . .   * ' # ) . . ' , ' # * . . * / * / % # ; ; * . ; # . & , * 5 % [ % ; * [ * & * & =   # * * , % % * * - ; & # [ # ; * # * + * * #     ,   * ) ) . .   * * > , > & * . # ) ) * ' . # ] .   *   # & ) = , * ) & ) ] ) * / # & * [ , + * [   - * % * ; * } * # & ) * $ # % , * = , * & * # * * & . & & = )   & . & * & # ) )   & # ; ! * # @ @ #   = ) # _ * = ) _ # # ;   & ; * ; & ) ' # . : * , &   ) # .   # # ;   ) ] ' # & * { . & _ # @ *   ",
"& * , , _ $ * @ # # ) , # & ) % $ $ , @ = - . $ @ . ' _ @ @ @ = * # # % * * ) ) _ ' & * # ) ' & ] & ) ' ! * / * # * # * . & ; 5 ) * . , - a * % / ; % / * * * , *   & . .   ; 5 ; . % - a # * ) # . # * = . } % % ; # , ] ; ) ; = #   = # , ' & . , 1 ! ~ * # ! ) ) ] = ] ; #   , * * * * ] #     , . ; = * . } % % & # % % } * *   - , # *   * , * &     * & = 1 ; * ] ) ) * ) ) , ( @ *   * * & * ;   # # . # ) ] ) # ~ # . * # = @ * . ) & &   * # ; * & , , = = < {   *   @ ; . ) ) # ) ! ) ; & & * ) ) ' . { ) { @ # # , @ ",
"  ) $ _ . = * $ * * + * / ] #   + @ # $ = $ + . _ . @ % - )   = @ > $ ) @ # ] * = ' * ' $ ' @ * @ @ ) @ ) ; # . # * * * ) ] 6 #   ! ] * # & 5 * 8 % & * * # * . * & & & [ * 5 / * * & * ; & ) # # # ' & # * $ , * ) ] = ' # . & ) # ) # ) = = : ~ ~ ) . & ; ] ) ! # '     . ) & # ! * . ] ' # ) ] ) # . ; & * % *   *   & @ ; * & *   + - % * * - % &   & ] = # ) ; ; * @ * ; #   * . , * #   % & ; * & ; [ . ; # ' < ) . ' ) ' 6 )   * . * . & % # , [ . , # & ( * ) ' ) , 0 ) ) ' # ! < < ) ) ] & . = = @   '   ) , ' ' _ @ @ ",
"* * = @ # ) # * ; # ) , ; , & & ) #   } ) = , , ) % @ $ * @ . _ b + # @ % * # , ( ) @ * & # , * * & ' ' ) # 3 ] ; & ; ! . # ] ; & # ) . , * 5 & 5 * * * & * * * [ , % *   & / % * # @ ; , * * # ; ~ ~ & & = & *   / ] # ) & ) ; = = < = ) = & = ) ) ! . . *     ^ ) . ! ) | ) ) ) ' ) = # & ! ) = ) ) ] . * # & , + ; # / [ * & + & & ; ; @   @ # # ;   # ) ) ) ; ) # & * ) * * # & .     * , @   ; 1 ; # * ; * ' = &   ' # _ . ) & * & & * , * # , * ; . & # # _ ' . ) . @ ' ) ; * * # ) = .   # & . ) & & , * { # @ _ & ' , # ",
"_   > _ *   # , *   ) ; # ' & * ; * = ; ) # ) . ' ) @ , * ' . $ , . ) , ) + * # * # > @ * > ; & ) ) ) ) | ! ; ~ . # * * ; ' ) # ' # # = * % + * , & * ; & # * * , ; % ; ; & & * % @ - ^ % * # # ' . ' ~ ! ' ) ' # # & $ $   @ , ~ ' ) ) ) ! ~ ' > _ ) = @ * b @ # . . ! ) ' ) ) . ~ ) ~ * * ) 1 . ] ~ # # * * & [ , - +   [ / # - & # * & # _ * , = , * # ' { ) ' ) ; & # '   . , # * * & * * & * # * * %     * # # & ; ~ ' { ! < , . ' @ * , # _ + (   & . & @ ( @ > ) c _ = c _ % # ' ~ @ ' ' ~ . ; * & ' @ ~ & # .   * & ' ( ",
", ) _ > { , # @ '   & * @ ; ; ; , # * * ; # # ; % + * } , @ @ $ . @ * # % $ = + ; # # & , & + % # # ; & < . ] ! ! ' ~ . & ' ) . ! ' < . & &     * * / * * * ; * / * * ; 1 [ ; = * & & * ) *   ; * _ ) ^ @ . _ ) & ' . . ) @ ( . { ! )   { ) . . = = = _ = 0 _ @ . & @ * ' ~ @ | { { # ' ~ ! )   ] ! ) @ * * ; / * * . - ;   * -   # # * . @ . @ ( _ > # # | . ' ) ) ; )   & @ # $ & # * & * # * * . * * #   . * < ! ,   * ' ' ] ! @ . = ' # , _ & $ ( $ & * , 6 ( * @ = ) ) ) c ! ; ) ~ ' * # ;   & ; # @ @ . * % { ' * * * * ' ",
". % _ & = & & . ' # ) , * # & # & ) * & * % ) . * % $ + % # _ * , # ) % @ + , + ; ; * * = ) . &   ; &   ) ) ; ) ' ) ] )   . . ! ! ~ ] & , & % *     # * * / & # # . / & * - [ = @ @ , * .   , # . ' ) ) # ) . # , ' { * * _ @ = * | _ ~ ' ~ . . 7 = _ ' ) ) , , *   & # ' ) ) ) ! ^ * . ] * & * ) @ = ' * ; , # *   ; % *     &   % , #   = * & @ * $ , ) # # ) ' # . * *   * & = _ > 6 , & , , & ) . # +   . ] # . #       . ; * # # ' ) { : ( $ ,   @ & * * = > ) c _ { _ ) . ~ ) ~ ~   * # * ; # * , @ # ; # & &   ( . , ) , ",
"  . * @ , > @ *   @ * # , # # = #   ) . ~ [ . . _ , . & = = % . + & . * * $ & & 4 = * = & ; # ; = * % ) , ) * ) ' ~ ! ] *   . ) ) . ) ; * &   & # & & * & . ; ; ; ) & * & & , # # @ @ @ .   . . * ~ @ . ) ( * 6 & ,   * . @ & ) @ ' ' @ ~ ' ' ) ) c ' _ . @ _ > . ' ) # ) { @ ~ # * # ' ) * * . ) ) ) = # . * , * & & * ; * , & &   % & * # , & # ) * * #   ) .   ' _ * @ # # * # . & * &   # ) ) ,   #   ! ' . ; ; 1 . !   ) ) _ & & @ ) . > @ . ) ( * & ( # * > @ ' ' ' _ _ ) . | ' ! ' 1 & ] ) ; ; * ) ) & . ' ) # . ' @   . ",
") * & ] @ _ ) ) @ : & , . . . * ) # = . ] # % , & = $ ) ) % & _ _ @ # * + & ] ] ; ,   , ; , & * + * > = & ) & 6 ] * . . # ) # ! = = ) ; _ .   ' . *   %   ;   & * # # % & * # ;   $ . * , . &   # @   # . *   @   # % @ % % * , . ) | | ) ' . . = ) c . ) * = , #   ) ' ' _ ) _ ' # % % ~ @ ) ) ) ) ' = . # # * / / 1 ; ; *   & - * , & -   # & * @ )   ( @ * @ # # * ) = = $ . #   # * #   * @ & , . & ~ # # ' ; . & ] { * & . ' . ' { ' ) @ # . * * * , ) # _ # ) ' ' { @ . _ ) ! *   & @ * = ] & # & ! ! ) ~ @ * $ . _ * ' @ ",
"; ; * % )   ' ' { _ @ ,   ; .   ] *   ) , % . ] * @ ) * # * ( ( # & $ * % + = @ # & # 4 ] * # . , % [ > + * ; = ; ) # ; ; . ) ! = < ' ) . @ . & & % @ % # . # * , * , ; , # , # * &   * . # * =   # &   @ # @ * @ @ * _ * . _ &   . ' ] ' _ ) ) @ 4 2 ) ' * ( ' & # ~ ! ' ) ) _ ^ # # * ~ ; * = = = # * _ > # * 1 . & * * / * & * # & * % * = ; ) { $ * @ = & & & ; & # * *   ) # ) ) = # .   @ & = ) # ! 1 ~ ) # . # , )       & * @ @ # # # , * .   ) _ ( & ' ) . ) # ' ' { . ] ; # * $ $   # *   * # !   # ~ & # ) & _ _ # * ",
"  ; % % & * ' # ' . ) @ * . ]   )   * * / ~ ) *   ) = ) & @ * @ , @ $ ) * # > = ; ] & , # : #   [ [ a [ # # ; & , * ; # # . ' & * & , , = @   & # , & . = + ; & ; # . = & ) ; = & * # , . *   ; * & # , & , _ & & = @ # ) _ @ = . # & & ' . # { ) ) . _ & @ ( _ . '   . ) ) . ' ! ! & . ) . * ) = b , . $ & *   * - -   ; # - f & ; . ) & # ]   * ) ) ' @ ' { * *   = =   =   ; # # . < . _ ' ' ) ' ' . ) 3 ) * & / ; ~ # @ * & ' _ ' * . ) < ) @ * ' = _ * @ , # ' { ) # ' . ' # # & ; * ; . & ~     # * . & ' ' * $ # & = ,   ",
"  ) & & * @ * & & # ) ) # & ' ' ) # & ) # ! . *   ;   * ) * , ' = # = # & * a $ ; * # = > = ) % & , , % . = * # ; /   #   ) ' ) * * # = : = @ ) * * $ * , & ) * / * . ; ) *   * * ! * . & * * ) . % @ + @ * = & , . # . * @ ( > = * ) . { ) ' { '   _ ) = * : ' ) ) @ ' ( ) * ) ) ) |   ) . # * ( @ _ , . * % * %   # % % *   * * % * * & ) !   . # _ ) ) { _ * ) & # * *   * *   = * ) ) ) ) . # = . { ! ; 5 & . * ) * # & @ @ , ) *   # # ! ) . # ) . _ ' { ~ @ _ # ) # ) _ ( * , ) #     *   # ] = ) ' +   @ , ) * $ + %   = ",
". ; & ) # ) * ) ) _ + & = ' * ; 1 % ] ; % ; # )   ~ ; # ;   * # _ # > $ _ , )   , & * . * & , * , $ % + , # * _ ! # . ! & . / ) ' @ * . # ) @   &   - ; * # . , / # . ~ # ) = ) @ = ) = , * & ; , & [ # * . * & & = & ) * & 0 ) ) & & @ = ) ) ) ' . . # @ ) ) = . ' *   * * @ ' ) ~ ' ) ' . ~ * , * % % * & * & * & , ; & @ & # . * @ @   _ ) . ) # = # * ) ) = ~   % 1 . & * .   ] ) = @ { * ) ) ' @ . # & , _ * . . # ) & ! * * , ; ) < ) . # c c ~ ) ' . ) ) : & , . # @ ) & . & @ * , # ' . # = @ $ # * # ' * * ; = & & * * ",
", * & # > 6 @ . , ( *   # , @ # / ) # # ; ] ) ! * & *       # & _ ) * * $ _ % & * )   ! . ; + * % # + , + # * @ # % . ) | ) / / ' .   @ ) ) ' ) , # * * ,   ) # ; & * . ) _ = # ' # < & & * ( *   * - # ; . ]   = & @ _ ( : & _ * & @ ) # # ) ! { , )   & # @ ' ) # * . ) b .   ) ) ) ) ) ) ' @ % / % / % & & * * % & & # , # * _ > .   = ) ) ; ) ' & # = # = = & ~ 1 * /   ; # ) & # ) ' ) ) = ) # ) * . * @ ) ~ # @ * )   # . @   ;   = ' = ) @ ) { c ) ~ ( ) = = * ) & = * @ ( . & # * @ @ ) = @ # + @ $ * * , . * [ & & * & ",
". > & = . @ * ' & @ % & , @ * @ * ; * /     . ) ~ ' ' ' # ' # ; @ @ & # + = ( ) @ . # ] ) .   = . ' . & 8 , { ' ; ~ * / < . ) . . _ @ {   ) . ~ ) .   =   ) * & = =   # _ ) ) ' ' # : # = = ) , & ; * * * & ) & *   & # ) = @ ) # @ ) * ,     # @ ) @ = ) . ) )   # , ) { @ & @ ' , &   . ) { * * # - & & - & [ # % * > * = # * = $ ( = ) # ' * & ] * . # ' = & # %   # ; & ! # ) ) = ) # * & )   | @ @ , * & ' @ ) ' . , @ # ~ @ ) * ) ) ) ) ) @ * * * (   b ) ' ' & { ) , & ) ) # +   & . * + & _ & $ $ $ # & + . * * & ; + # ",
"= [ ; *   @ , = ' ' % . &   * ' * & * ) ] ) ] . ) . ) = ) # * # * * + $ + = + @ ; #   * , * #   . % , @ * &   &   & ;   ) ~ ' # ) | . @ # * # ) . ) ) = * & ;   ; = & . ' # ~ ~ _ { ) ' ' = . @     / * ^   # . . @ . @ > _ 7 ) # = ' & ) ' ' ) _ : ) = ) # = * , # * ) ' # '   _ # @ # ' < < . * / ; ; / * * % * % * & $ * # ) > = * '   * = ) = * & > = ) = * & . / . . ; . | # ) ) ] ' & ) @   . ) ' & )   % ' , ) ) * ) & . $ * + # , ) @ # & _ @ * b * ' ) ' ' # < ' * ] * , $ , $ $ * $ $ 6 _ _ _ # @ & & ' . ;   % ) ; = ",
"  . ) ) * ' & * @ . % ) ' @ ' ) # ' { '   ! # ] ' ) . ) : ] [ ; = = # } + * $ _ # & $ ) & & & * ) , ; # & _ # ' @   ) ' ' ) . ! @ #   @ ; & @ @ ! ) < , . + & ) ) ] ) ) ' = ) ) ) @ 6 * = ) ) # #   & * .   . # ' ) # ) = ) ] * , * . & ) = ) # | # . ' ' ) ] ]   ! ] ) # ) ) # =   * * ' ~ . # ; * ) % # #   # % , . & - * & ) ( _ _ _ ' & . . ) &   _ &   ' ) * . . . . ] ) ) = ) . =   : . = = = ] #   ) * % * @ @ ' .   _ * * & & _   , . %   & * @ ' ! @ ' ~ ' * #     # = & $ % @ ( & ) ( = = = + = * &   @ ' ; # ; = @ [ ",
"  & * . $ # . ' & ' ' @ , ' ) 6 { @   # ] ) ! | . ) # ) ] & & = = a # $ & # b ' # & & _ # ) . & * * # * # &   * ' @ @ ) ] # = ) & ) . # @ ' ) ' ] ) . . * % & * # # @ : = ' ' @ ' ) ' ' ) _ : = . , . ; % ; ; * ) , ) & > = = = .       . ' < # ) { ) @ ) . ; * ) ; ) & ] ) # ) ) ' ) . ) | ) * . & & , ; & * ; / . & /   + ) & @   * ) ) )   ! = ) : @ * # ' & . ) . # # ] ) ) . < ! < # ) @ < ] , , *   & . # & $ )   & . * ( # ) $ %   ) ' # * _ @ # ' ) ) . *   )   ] . # & - % + _ * & & * a * , + # + $ $ $ # & %   # ) = ",
"= ) & # . & * * . # . ' # ) . #   ; ' @ # . . < ) ! ' @ 4 @ % + $ @ * + $ & * @ * . @   * _ _ * # ' ; * * ) =   . _ * @   { ' ) @ $ . * # { ) ' # ] : = . # % * = = ; 4 ' ) * ' _ = _ = ) ) ) = . * # * & # #   & & ] & = &   ; ) # # # . * . ! . | # ) ~ ) # * * % . ; ) ' . . ) ' @ & ' { ) b , = ) . , * ] # * * & * ; * . * & ) ) _ . ~ ) * . ) ) # # < ' ~ ) . . ; ) ' ) ' # ; # ) ! . . # , # ] ]     '   * & & ) = @ ' @ @ # ' . * % & @ ' ( _ ' ' ^ # * ) & ' & # * ' _ $ ) _ . ' # = * $ + * (   $ , ) # # % - ~   ) ; ",
"& % * * , % % , # ) ' ' ) + @ ) ; * * ' ) . ) ~ ' ' ) ) ' * ' * + ) * 6 & # ' ) : , @ @ * & & @ ) ] #   ) < # ) = { : ' ' # & ' & ] ] @ _ * : ' < < < # # '   . ] = 6 @ ) ) @ # ' ' { < # _ # * ) , # & = * &   = ' # * ) & * ) = * . & ; . ! ' ' ~ ) ! . ' ] ; * [ ] ! ! ! { ) ' ~ ) ' ~ @ ' . ; . ) = * , & [ * [ , + , & # . . @ ) @ { ! ) _ : # ) ) ) & # . . ; ~ ) < ] # ' ! # ) ] ' & = * . ) ;     ' { ' , # ( & = * @ & . * ' & # $ * ) @ # . & # * . , ) _ ( * & # # = # @ & & * % = _ _ = , @ * + @ # , _ . . / , ; ; ",
"] - %   ; [ & & # # ) ' !   * # * # ; * # ) ~ ' ' # @ ' . # ] & & % & ) @ $ % ' # # # @   . ) . = * & , ) ' % = ) ! # < # ~ * # # & ; ] * ; ) )   ] : ! ' ^ _ { ' # ' .   ) * ; _ ' ) ' # . _ @ * [ , % # # ) % . ) . ]   * . * = , @ 0 0 = ' ) . ) . ' ) ~ ! ; @ ' { @ : = ) ) ) = ) ) ~ # ' # ) & , ; . ) * . * [ / * & # # > . # # . ; ' & ! ! # & ' ] #   ) $ ) * = # = <   # @ * @ ' @ . & = = = #   @ *   ; # + * + & & * & , # & , ) ( a , _ * = $ * ) . . % - . # , _ @ & , . ) & $ = } * > = = = * * ) * , _ $ @ , ) . ",
"# % ; ; # * % ; # , & ' ' ' #   ) & * * & ] | & ~ & ^   *   * & ) % ) , % $ # ~ |   ) ) ~ { * @ * & ) * * @ * $ ) | ! ) * . # ~ ' ] ; ] # & ' * ; . . . ' ~ ) ~ ' ~ ! ' < ' ! '   @ ' : ! ' . & 5 ; & &   . . ; # # ] ] ; & ) & b > : ( = 0 ' _ ' ' # _ ~ ! ] . ) @ ' _ ' = ) = # = _ ' { ) & ' 3 ) 1 ) ) * * & . & * , [ & ; . # . & ] . ) * ' ) * # ' *   * ! ) = # = ] ] ] * { ' * ; # { # & = & = 6 ! . , . ; &   * & = + -   $ . = * @ ( ) 6 $ 6 # = $ , # . & + $ # = . ' % ,   ; $ @ ' = + # , @ = , @ _ , * @ = ,   = . ",
"@ ) . & } & %   ; * ] ) ' ) ; ) ] ; # ) ! / * !       ' & ' , # . * # = # & ' ' ! ' # ) ' ) ) # ; & ; ) # ) ~ & . ) ; ~ & ) ] ) % , % * 6 > & & * ) < ' ) ' * ^ | # ' ! # | ) # * , @   ~ ' | ) . / [ , # * * )   % % # % * & ; , ( @ ( @ _ : ' ' ~ # * . ) # _ = ' . @ ) . ) _ = ) @ < { = . ' & ) ~ . * & = & % = & - # - & & * / ) ) # ) . ) ' # ' * . * ) * * : ; ' ) ) .   @ @ & ) * # ; ) & = + ) & * , * ' # % ) % & & $ $ . $ + ( % + _ ) = @ a , > 0 ( # ' % 8 % 8 & $ ; ) , & % ; % . ( ) @ $ @ _ _ ) , = # = # , = , ",
"@ ) # # & & ] ;     ] ) & ;   * , # . & ' * & # . & # # # ) ) ; & )   ) =     ' { ) < | ' ) ~ ' ] * & ) ' ' . ' .   . ' ' ) = * , # & ] * # ) _ ) @ # = ) * _ ' ) * # ) ) ! ) * , @ ' { # | ) @ # 5 # ; 1 ) & ; ; # & 5 + & & * 7 ( @ = 7 4 = 0 ) ) . ) _ . ) ) ' ) . ) ) ' : ' ) ' ' < ) ) ~ . 6 ] ) . . & * * % # * . & @ * ) ) .   . # ; ; * . . ) _ ' ] ; * ) ) ] ) ; , ) # , = % % # . # # # # * ) .   ) , * . % & # ; ) # + > _ ( .   - & $ - _ & = = ) @ $ $ & + % ) - - % . #   * % # + - , * + + 0 @ @ & . _ , ~ ] ; ] ",
". @ , , . & * # * % / ] ; 1 ) & ) ; ) ] ) ) = . . ' ! . % #   * * ] ) @ ) ' # ^ ! . # . ~ ) . * # . . ] ) ; . # * = ' ) @ . # ) ] * # ~ * ] : * & ) ~ . | #   ! '   * ' . ' # , * , ' ) . ) | { , . * # / ~ & ; % - / , * & /   # @ = @ # _ _ @ # . & ! ) 9 ) | ~ . @ . ) ) ' # _ 4 @ ) |   # ) & # = ; . . ; & * ) & * * , & &   & . & * @ ( @ ,   )   * 1 . # = ) ) _ ] & ) ' * & ) , = , & & _ = @ ) @ @   & ) = = # # , @ ' $ _ , = 0 @ . * + + ' + = ( @ ( & + & , ; = # & % ; ; & + _ . _ ( $ ) ) % ) ' . ) ; # ] * . ; * ",
", . = * # & & . 5 [ & , % # % ' , ] , ) ) ' & ) * * . & & ) * ] * ] '   @ . { & ' { { . ' ! ) { * ) ] ] ; * & ; * = < ) ' ' < ! * ) ) * # / * * @ *   ^ @ { # @   {   * ] ] ) & * ' * ' < ) ' @ ; 3 * # & ; ; [ # # /   . & * % # = $ @ ) { ' c < ) ' ' | ~ ' # ) ' @ ) @ = & ' ) _ @ < _ '   # ~ . ; ) ] * # . .   * $ * &   . & + * @ & *   ) & { *     * ) / ) ! ) ' : * ; & . ) &   ' @ ) ; a @ $ & * * # ) @ & @ ' @ *   * ) @ = ' @ ' & _ * _ @   $ _ # _ * * #   = ] > & & *   . $ @ ) # ) @ @ + * @ _ .   ) ; # ,   * ; ",
"; * & ; - ; & % - * * * % * # & , # ) & # ]   ) ) * ' ] ) & ] . * ! ' # . ) ^ * ! # . < ) | # . ! ] ; . ~ ~ )   { , . < # ) . * # ] # # * # ] . + - + ) . # @ ) $ @ # ] # )   * ; * ' . = ' . ) : ) % * *   ~ ;   * * + * f % % &     & _ . . ' # # : & * ' ~ { * ! { ' ' ' ) @ = 6 ) _ . # & ) ~ ] # ) ) * . . ) ) ' @ ,   @ * * @ $ * = , @ # ~ # ) ) ) * * / ' ~ ' ) ) * . ; * * # ' * # &   @ , # ' * # ' ) @ ( # * '   # ' _ ) @ * _ = @ $ @ @ ) . _ a , ) & & * & a ; & =   . . & $ $ = _ . , + ( _ & @ . , ) . # ; / * , ",
"# & . = # - % + % % . . * . % & ; = [ . % % % . ) ) ; # + @ * * ' ' ) ) | ' _ ' * ) ' . ' # .   ] # ' ' . ) . . & # ' _ ' ) ' # * ; ) ) ; ; & ; % % @ & @   , & & & # = # ; &   ) ) < . _ { . = ! . * * # ) . 5 ; *   & * * . - *     * . ! { _ * < { @   ' ' # ' * ' ) : # = @ _ = _ ) ( * ) ' # ) ) . ) . & ) * ) & # . & #   . @ & # *   * ( # ) . ) ) ) & ] ! ' ' ) & * ) ,   # * ) @ ' ) * ) * * * )   * * > _ ' # # % & $ ) ( * . ) $ = + a ' , @ @ &   . . & , ) & > [ [ ) / * & a _ @ $ + + ( a $ & n%) , . . . ; ] ; * ",
"; ) . [ * & ) & ) & - = = ) # & & . # ' ' & , , # * %   @ @ ( ) { { . . _ & * * ) # ) = . ] & ) @ # #   = ' : ' & & & # * | ~ ) ) * # , * & # . $ . . = # + # * ' * & @ &   ' ' { ) ) { ' ' _ ) = ' . # * * @ , * ; [ # 6 } & * ; & * - ) # * * & # < . # ) = & _ ~ * . ' ) # ) # # ) = @ ) = * ) ) ) @ _ _ ) ) ) . # & @ @ # * , * &   * & & & _ * ' @ . _ ) c # ~ { { * @ * # * # ; . ] # # { . * ' ' & * . * ' : ) _ ' ( @ _ @ ' b . * * , = # + + & - & & & % & ) > & & . * $ # 4 > } ' % * $   $ + ; & } * . # ; ;   ; ; & ",
"* # ] , % +   % . % % = ) * > & * ) _ ) # & * % ) = # $ ) @ ) ) . ) _ ' ' _ > = ' = ! < ] ) ; ; * _ ' & ) : _ @ @ ) _ * . ) . # ) ] # . * , % / $ @ # + @ & ) % @ _ . ' ) * . ! . ! ' * @ . { # ) < _ ' & = * & # ; [   , - + - .   * & . # ) ) @ | # _   ; > ; ' ) ) = _ @ ) ! # . # ' . ) = { * ' = ' ' . ' ' & * % . # , &   @ % &   & [ ) # ) ) ) : ) . ) @ . ' ~ ' # * ( ' * *   * ) ; * ! # . # & ) * _ @ ( 4 ' * $ ) , ( = ' = $ ( ' = . . @   , $ = = # & @ = = , $ $ & - = ) & > = $ a @ & $ * 6 * = $ # = ; ) ) # . - ",
")   * . & % * + ) 5 / 5 # = & - * & ! a ~ & _ ( + @ @ _ b @ # ) ! . ' ) _ > @ * ) < # ' : * ;   # # _ , _   < $ % . { b ~ ) ' #   = ; & ) * ' . @ + & @ , @ . ) + @ * ; ' ) ' # # _ . * ' & _ ' * ' . { # . * * ; - * #   & - * *   * % . # # ) # ' ' . ' ' , #   ) ' ' ) ) ' ' . . ' # = ) _ { _ ' & ) _ = @ = ~   # ) *   # @ * ) , _ # ) = : ' : . < ) ' ' c ) ' ~ # { c ) ' ] , _ # ] ) ) # #   ) # ' . & ' 4 ) ) . _ * _ , # @ @ , ) . # * ) ' _ + # a + ) @ _ ) + &   % * * + $ # , ( ( a - % $ a & * = # ) ; * ; # ; % [ ",
"  / , . # * * % 5 . ; # & = , # ) & # # _   & ) * ' ' * b   @ * ) = ) ' _ ' ( ) ) { . ) ) & ) # , @ # @   @ # . { ) | ) '   *   # . * , . ; % # * . & # #     & # + # . * { = ) ) )   @ * ' ~ . & ' . ) * & & # - [ & ; @ & & + # * * , , { : ' _ ) ' ) ' ! *   * . . # . |   ) ' ' ~ ' ' ) ' : ( ) * @ * , = > . * : ; & * ( * = & ' ' ) ] ) ] * ' { # . & ' { ) ' & { ' ) ' _ ;   & ! ) = ] ]     @ _ ' . @ ' c ) ) _ , @ * = %   * @ ) _ # * # , % * * @ , @   @ * + - * * & @ $ & = * ) $ 7 & # , = ( @ + , ; & + # ) & + ' ",
"* ; / ) & & ) # , # & * = ) # @ '     ) , * % # #   . #   ' # ) : # ! ] , ; * & * .   ) ) ) = & '     # @ _ _ ) 7 0 @ 4 # ' & * ) . & &   + @ . ) # @ ' ) = @ * ) a , a = @ ) ' ) ) $ $ = _ ) ) _ = # _ * ] * # *   *   $ * @ @ & - & * > _ @ ' ' | ) # = = ) * ' ~ ) )   ) ~ . ) ! ' ~   _ #   : * @ ,   , & # * ) = ) ) * ; % = = = # . ' , ' , _ = ) ) . ' = # < # { _ ' ) * # % . # ) # ~     * ' * . ' ) ' ) ) # = ) & @ # # & & @ @ , . . ~ - & + + + , , @ = ( ) & % # % $ } @ $ - * & , # *   & = # > = . * & , & ; # ; ",
". ) ] . + ; & @ ) * ) & & = # , . # [ & + & = @ ) &   , @ _ # @ ' ' # . , ' . & . ) + ' = ) * = $ @ * * * @ * ) ' 2 : 4 * *   * = * $ % ' ' . ( . * *   ' )   # @ 6 = # % * ' ; @ $ , )   . c ' & & _ : # *   # & $ % $ % @ & & @   @ * > $ ) ) _ ~ # _ ) ) ) = ~ ' { * ; ) ' ~ ) ) & * , , & ( _ ) . $ $ ) * * & * @ @ < . , ; 6 # ) ) . ) ' * & ) < . ) = ) # . ' ) . ) ' { * ; ' * * ] ; ) * ] * { @ @ @ _ * ' : ) ) ) * @ . * _ ) _ ~ ) *   _ % & + * ( ' @ @ ' ) @ & # % + & @ _ $ & # , * , * * = & # = ,   & & & % # ; . ",
"  + - # a a - ) # @ * & ) = = * = * + # + . $ ) # @ ) @ ) @ * ( ( ' ~ . ] ;   . % @ # * = & # = # $ @ * : , * = ) _ 4 ) = ) = ( # . a $ ( @ ' @ & ) ) ) = ) * * * , = = * , ' ' > = = # * = _ = > = , # . ' .   *     @ % * . # ) _ . * _ b # & # * _   & *   = ' { # & ) ! ; ] )   # ,   @ ' ) ) { ) . * @ > @ * ) # ' ~ # & # ' _ = . # < ) : . # ) # ' @ @ ' ) * * ) ) # @ & * * #   @ ' ! # !   { _ ' @ @ ' ) * _ # ) _ @ ) @ , # _ ' ) * ) + % . * = 6 ' 4 * ( ( ) = 6 , # , = = = + # # ) & * ( + * = . # ] * + * + + & & ",
"/ & & + ) ; = * * $ $ * & * & ; [ ; ; % + & # @ _ ' #   $ ) ' @ b = ) ' & / , & ) @ @ ) , >   + * + % * = @ * @   ' = @ 4 = c : , ) _ ( @ @   @ * ' ) ) @ * ' _ $ , # * ] ] < . ) < @ ' * ) , ) ) _ ' : % ) ) # ; * & * & % ; ) ,   . 0 4 c ' # ,     ' # * _   ' ' ) ' !   ] ' ) ! . '   ' ) c = # & ' ) = = = = ! = . @ ) ) * ) @ ] = ' % @ { # ) < < ) . % # = @ * $ ' ' ,   @ @ # ' @ ) ) ' . ) )   * $ * 6 & _ ) * * { @ @ , . @ . ' & , @ & ) # # @ @ _ ) _ @ ( @ 6 & * & @ = _ ' @ % ) + 6 _ % % # [ * * ' ) $ = # $ & % "};
